; generated by PrusaSlicer 2.2.0+win64 on 2020-07-17 at 13:22:03 UTC

; 

; external perimeters extrusion width = 0.45mm
; perimeters extrusion width = 0.45mm
; infill extrusion width = 0.45mm
; solid infill extrusion width = 0.45mm
; top infill extrusion width = 0.40mm
; first layer extrusion width = 0.42mm

M73 P0 R11
M73 Q0 S11
M201 X1000 Y1000 Z200 E5000 ; sets maximum accelerations, mm/sec^2
M203 X200 Y200 Z12 E120 ; sets maximum feedrates, mm/sec
M204 P1250 R1250 T1250 ; sets acceleration (P, T) and retract acceleration (R), mm/sec^2
M205 X8.00 Y8.00 Z0.40 E4.50 ; sets the jerk limits, mm/sec
M205 S0 T0 ; sets the minimum extruding and travel feed rate, mm/sec
M107
M862.3 P "MK3S" ; printer model check
M862.1 P0.4 ; nozzle diameter check
M115 U3.9.0 ; tell printer latest fw version
G90 ; use absolute coordinates
M83 ; extruder relative mode
M104 S215 ; set extruder temp
M140 S60 ; set bed temp
M190 S60 ; wait for bed temp
M109 S215 ; wait for extruder temp
G28 W ; home all without mesh bed level
G80 ; mesh bed leveling
G1 Y-3.0 F1000.0 ; go outside print area
G92 E0.0
G1 X60.0 E9.0 F1000.0 ; intro line
M73 Q0 S11
M73 P0 R11
G1 X100.0 E12.5 F1000.0 ; intro line
G92 E0.0
M221 S95
G21 ; set units to millimeters
G90 ; use absolute coordinates
M83 ; use relative distances for extrusion
M900 K0.06 ; Filament gcode LA 1.5
M900 K30 ; Filament gcode LA 1.0
;BEFORE_LAYER_CHANGE
G92 E0.0
;0.2


G1 E-0.80000 F2100.00000
G1 Z0.600 F10800.000
;AFTER_LAYER_CHANGE
;0.2
G1 X115.752 Y98.653
G1 Z0.200
G1 E0.80000 F2100.00000
M204 S1000
G1 F1200.000
G1 X116.273 Y97.587 E0.03721
G1 X116.890 Y96.837 E0.03044
G1 X117.644 Y96.236 E0.03023
G1 X118.533 Y95.794 E0.03112
G1 X119.483 Y95.550 E0.03077
G1 X129.820 Y95.498 E0.32410
G1 X130.563 Y95.558 E0.02339
G1 X131.399 Y95.769 E0.02703
G1 X132.084 Y96.075 E0.02351
G1 X132.713 Y96.489 E0.02361
G1 X133.312 Y97.049 E0.02571
G1 X133.768 Y97.651 E0.02370
G1 X134.129 Y98.340 E0.02439
G1 X134.386 Y99.142 E0.02641
G1 X134.501 Y100.159 E0.03208
G1 X134.493 Y110.094 E0.31153
G1 X134.251 Y111.339 E0.03977
G1 X133.727 Y112.413 E0.03746
G1 X133.060 Y113.211 E0.03261
G1 X132.150 Y113.888 E0.03555
G1 X131.175 Y114.304 E0.03323
G1 X130.181 Y114.488 E0.03170
G1 X119.877 Y114.492 E0.32308
G1 X118.653 Y114.248 E0.03914
G1 X117.587 Y113.727 E0.03721
G1 X116.789 Y113.060 E0.03261
G1 X116.112 Y112.150 E0.03555
G1 X115.696 Y111.175 E0.03323
G1 X115.512 Y110.181 E0.03170
G1 X115.508 Y99.877 E0.32308
G1 X115.740 Y98.712 E0.03725
G1 X116.135 Y98.698 F10800.000
G1 F1200.000
G1 X116.669 Y97.677 E0.03614
G1 X117.200 Y97.063 E0.02544
G1 X117.920 Y96.509 E0.02848
G1 X118.694 Y96.136 E0.02695
G1 X119.578 Y95.917 E0.02855
G1 X129.819 Y95.875 E0.32111
G1 X130.615 Y95.950 E0.02507
G1 X131.306 Y96.136 E0.02242
G1 X131.939 Y96.426 E0.02184
G1 X132.568 Y96.856 E0.02388
G1 X133.067 Y97.341 E0.02180
G1 X133.489 Y97.916 E0.02239
G1 X133.833 Y98.612 E0.02433
G1 X134.028 Y99.267 E0.02142
G1 X134.124 Y100.167 E0.02837
G1 X134.116 Y110.086 E0.31101
G1 X133.868 Y111.295 E0.03870
G1 X133.331 Y112.323 E0.03638
G1 X132.685 Y113.044 E0.03034
G1 X131.916 Y113.587 E0.02950
G1 X131.040 Y113.951 E0.02975
G1 X130.112 Y114.115 E0.02955
G1 X119.891 Y114.115 E0.32047
G1 X118.698 Y113.865 E0.03823
G1 X117.677 Y113.331 E0.03614
G1 X116.956 Y112.685 E0.03034
G1 X116.413 Y111.916 E0.02950
G1 X116.049 Y111.040 E0.02975
G1 X115.885 Y110.112 E0.02955
G1 X115.885 Y99.891 E0.32047
G1 X116.123 Y98.757 E0.03635
G1 F8640.000
G1 X116.669 Y97.677 E-0.27951
G1 X117.200 Y97.063 E-0.18734
G1 X117.920 Y96.509 E-0.20976
G1 X118.245 Y96.352 E-0.08340
G1 E-0.04000 F2100.00000
G1 Z0.800 F10800.000
G1 X120.037 Y99.175
G1 Z0.200
G1 E0.80000 F2100.00000
G1 F1200.000
G1 X120.207 Y99.151 E0.00538
G1 X120.789 Y99.147 E0.01825
G1 X129.784 Y99.151 E0.28204
G1 X130.044 Y99.197 E0.00826
G1 X130.269 Y99.288 E0.00762
G1 X130.465 Y99.423 E0.00747
G1 X130.634 Y99.605 E0.00776
G1 X130.708 Y99.721 E0.00433
G1 X130.807 Y99.966 E0.00828
G1 X130.853 Y100.315 E0.01105
G1 X130.853 Y109.675 E0.29346
G1 X130.823 Y109.963 E0.00909
G1 X130.747 Y110.197 E0.00770
G1 X130.621 Y110.413 E0.00785
G1 X130.524 Y110.524 E0.00462
G1 X130.279 Y110.708 E0.00961
G1 X130.034 Y110.807 E0.00828
G1 X129.685 Y110.853 E0.01105
G1 X120.325 Y110.853 E0.29346
G1 X120.037 Y110.823 E0.00909
G1 X119.803 Y110.747 E0.00770
G1 X119.587 Y110.621 E0.00785
G1 X119.476 Y110.524 E0.00462
G1 X119.292 Y110.279 E0.00961
G1 X119.193 Y110.034 E0.00828
G1 X119.147 Y109.685 E0.01105
G1 X119.147 Y100.315 E0.29378
G1 X119.160 Y100.130 E0.00581
G1 X119.222 Y99.878 E0.00816
G1 X119.329 Y99.662 E0.00753
G1 X119.477 Y99.477 E0.00744
G1 X119.662 Y99.329 E0.00744
G1 X119.980 Y99.191 E0.01085
G1 X119.876 Y98.829 F10800.000
G1 F1200.000
G1 X120.180 Y98.774 E0.00969
G1 X120.788 Y98.770 E0.01908
G1 X129.817 Y98.774 E0.28311
G1 X130.149 Y98.832 E0.01055
G1 X130.449 Y98.954 E0.01016
G1 X130.713 Y99.136 E0.01005
G1 X130.933 Y99.373 E0.01014
G1 X131.044 Y99.547 E0.00648
G1 X131.169 Y99.855 E0.01040
G1 X131.214 Y100.068 E0.00682
G1 X131.230 Y100.302 E0.00738
G1 X131.230 Y109.694 E0.29448
G1 X131.194 Y110.042 E0.01096
G1 X131.093 Y110.352 E0.01023
G1 X130.929 Y110.633 E0.01021
G1 X130.792 Y110.792 E0.00657
G1 X130.630 Y110.931 E0.00669
G1 X130.453 Y111.044 E0.00660
G1 X130.145 Y111.169 E0.01040
G1 X129.932 Y111.214 E0.00683
G1 X129.698 Y111.230 E0.00736
G1 X120.306 Y111.230 E0.29448
G1 X119.958 Y111.194 E0.01096
G1 X119.648 Y111.093 E0.01023
G1 X119.367 Y110.929 E0.01021
G1 X119.208 Y110.792 E0.00657
G1 X119.069 Y110.630 E0.00669
G1 X118.956 Y110.453 E0.00660
G1 X118.831 Y110.145 E0.01040
G1 X118.786 Y109.932 E0.00683
G1 X118.770 Y109.698 E0.00736
G1 X118.770 Y100.302 E0.29459
G1 X118.786 Y100.071 E0.00726
G1 X118.866 Y99.747 E0.01047
G1 X119.009 Y99.458 E0.01010
G1 X119.209 Y99.209 E0.01003
G1 X119.458 Y99.009 E0.01003
G1 X119.818 Y98.845 E0.01238
G1 X120.100 Y99.041 F10800.000
G1 F8640.000
G1 X120.180 Y98.774 E-0.08514
G1 X120.788 Y98.770 E-0.14048
G1 X123.102 Y98.771 E-0.53438
G1 E-0.04000 F2100.00000
G1 Z0.800 F10800.000
G1 X120.071 Y110.713
G1 Z0.200
G1 E0.80000 F2100.00000
G1 F1200.000
G1 X119.670 Y110.312 E0.01820
G1 X119.541 Y110.139 E0.00693
G1 X119.469 Y109.961 E0.00614
G1 X119.430 Y109.526 E0.01402
G1 X120.474 Y110.570 E0.04738
G1 X121.020 Y110.570 E0.01750
G1 X119.430 Y108.980 E0.07213
G1 X119.430 Y108.435 E0.01750
G1 X121.565 Y110.570 E0.09688
G1 X122.111 Y110.570 E0.01750
G1 X119.430 Y107.889 E0.12163
G1 X119.430 Y107.344 E0.01750
G1 X122.656 Y110.570 E0.14637
G1 X123.202 Y110.570 E0.01750
G1 X119.430 Y106.798 E0.17112
G1 X119.430 Y106.253 E0.01750
G1 X123.747 Y110.570 E0.19587
G1 X124.293 Y110.570 E0.01750
G1 X119.430 Y105.707 E0.22062
G1 X119.430 Y105.161 E0.01750
G1 X124.839 Y110.570 E0.24537
G1 X125.384 Y110.570 E0.01750
G1 X119.430 Y104.616 E0.27012
G1 X119.430 Y104.070 E0.01750
G1 X125.930 Y110.570 E0.29487
G1 X126.475 Y110.570 E0.01750
G1 X119.430 Y103.525 E0.31962
G1 X119.430 Y102.979 E0.01750
G1 X127.021 Y110.570 E0.34437
G1 X127.566 Y110.570 E0.01750
G1 X119.430 Y102.434 E0.36912
G1 X119.430 Y101.888 E0.01750
G1 X128.112 Y110.570 E0.39387
G1 X128.658 Y110.570 E0.01750
G1 X119.430 Y101.342 E0.41862
G1 X119.430 Y100.797 E0.01750
G1 X129.203 Y110.570 E0.44337
G1 X129.739 Y110.561 E0.01720
G1 X119.434 Y100.256 E0.46747
G1 X119.489 Y99.975 E0.00917
G1 X119.559 Y99.835 E0.00503
G1 X130.164 Y110.440 E0.48111
G1 X130.330 Y110.316 E0.00665
G1 X130.437 Y110.167 E0.00587
G1 X119.830 Y99.561 E0.48115
G1 X119.980 Y99.487 E0.00535
G1 X120.249 Y99.434 E0.00879
G1 X130.561 Y109.746 E0.46783
G1 X130.570 Y109.210 E0.01722
G1 X120.794 Y99.434 E0.44348
G1 X121.340 Y99.434 E0.01750
G1 X130.570 Y108.664 E0.41873
G1 X130.570 Y108.119 E0.01750
G1 X121.886 Y99.434 E0.39398
G1 X122.431 Y99.434 E0.01750
G1 X130.570 Y107.573 E0.36923
G1 X130.570 Y107.028 E0.01750
G1 X122.977 Y99.434 E0.34448
G1 X123.522 Y99.434 E0.01750
G1 X130.570 Y106.482 E0.31973
G1 X130.570 Y105.936 E0.01750
G1 X124.068 Y99.434 E0.29498
G1 X124.613 Y99.434 E0.01750
G1 X130.570 Y105.391 E0.27023
G1 X130.570 Y104.845 E0.01750
G1 X125.159 Y99.434 E0.24548
G1 X125.705 Y99.434 E0.01750
G1 X130.570 Y104.300 E0.22073
G1 X130.570 Y103.754 E0.01750
G1 X126.250 Y99.434 E0.19598
G1 X126.796 Y99.434 E0.01750
G1 X130.570 Y103.209 E0.17123
G1 X130.570 Y102.663 E0.01750
G1 X127.341 Y99.434 E0.14648
G1 X127.887 Y99.434 E0.01750
G1 X130.570 Y102.117 E0.12173
G1 X130.570 Y101.572 E0.01750
G1 X128.433 Y99.434 E0.09698
G1 X128.978 Y99.434 E0.01750
G1 X130.570 Y101.026 E0.07223
G1 X130.570 Y100.481 E0.01750
G1 X129.524 Y99.434 E0.04748
G1 X129.760 Y99.434 E0.00757
G1 X129.965 Y99.470 E0.00669
G1 X130.134 Y99.539 E0.00584
G1 X130.262 Y99.627 E0.00499
G1 X130.707 Y100.072 E0.02019
M106 S255
;BEFORE_LAYER_CHANGE
G92 E0.0
;0.4


G1 F8640.000
G1 X130.262 Y99.627 E-0.14531
G1 X130.134 Y99.539 E-0.03591
G1 X129.965 Y99.470 E-0.04201
G1 X129.760 Y99.434 E-0.04818
G1 X129.524 Y99.434 E-0.05452
G1 X130.570 Y100.481 E-0.34178
G1 X130.570 Y100.880 E-0.09228
G1 E-0.04000 F2100.00000
G1 Z0.800 F10800.000
;AFTER_LAYER_CHANGE
;0.4
M104 S210 ; set temperature
G1 X134.386 Y99.142
G1 Z0.400
G1 E0.80000 F2100.00000
G1 F1784
G1 X134.501 Y100.159 E0.03208
G1 X134.493 Y110.094 E0.31153
G1 X134.251 Y111.339 E0.03977
G1 X133.727 Y112.413 E0.03746
G1 X133.060 Y113.211 E0.03261
G1 X132.150 Y113.888 E0.03555
G1 X131.175 Y114.304 E0.03323
G1 X130.181 Y114.488 E0.03170
G1 X119.877 Y114.492 E0.32308
G1 X118.653 Y114.248 E0.03914
G1 X117.587 Y113.727 E0.03721
G1 X116.789 Y113.060 E0.03261
G1 X116.112 Y112.150 E0.03555
G1 X115.696 Y111.175 E0.03323
G1 X115.512 Y110.181 E0.03170
G1 X115.508 Y99.877 E0.32308
G1 X115.752 Y98.653 E0.03914
G1 X116.273 Y97.587 E0.03721
G1 X116.890 Y96.837 E0.03044
G1 X117.644 Y96.236 E0.03023
G1 X118.533 Y95.794 E0.03112
G1 X119.483 Y95.550 E0.03077
G1 X129.820 Y95.498 E0.32410
G1 X130.563 Y95.558 E0.02339
G1 X131.399 Y95.769 E0.02703
G1 X132.084 Y96.075 E0.02351
G1 X132.713 Y96.489 E0.02361
G1 X133.312 Y97.049 E0.02571
G1 X133.768 Y97.651 E0.02370
G1 X134.129 Y98.340 E0.02439
G1 X134.368 Y99.085 E0.02452
G1 X134.006 Y99.193 F10800.000
G1 F1784
G1 X134.028 Y99.267 E0.00243
G1 X134.124 Y100.167 E0.02837
G1 X134.116 Y110.086 E0.31101
G1 X133.868 Y111.295 E0.03870
G1 X133.331 Y112.323 E0.03638
G1 X132.685 Y113.044 E0.03034
G1 X131.916 Y113.587 E0.02950
G1 X131.040 Y113.951 E0.02975
G1 X130.112 Y114.115 E0.02955
G1 X119.891 Y114.115 E0.32047
G1 X118.698 Y113.865 E0.03823
G1 X117.677 Y113.331 E0.03614
G1 X116.956 Y112.685 E0.03034
G1 X116.413 Y111.916 E0.02950
G1 X116.049 Y111.040 E0.02975
G1 X115.885 Y110.112 E0.02955
G1 X115.885 Y99.891 E0.32047
G1 X116.135 Y98.698 E0.03823
G1 X116.669 Y97.677 E0.03614
G1 X117.200 Y97.063 E0.02544
G1 X117.920 Y96.509 E0.02848
G1 X118.694 Y96.136 E0.02695
G1 X119.578 Y95.917 E0.02855
G1 X129.819 Y95.875 E0.32111
G1 X130.615 Y95.950 E0.02507
G1 X131.306 Y96.136 E0.02242
G1 X131.939 Y96.426 E0.02184
G1 X132.568 Y96.856 E0.02388
G1 X133.067 Y97.341 E0.02180
G1 X133.489 Y97.916 E0.02239
G1 X133.833 Y98.612 E0.02433
G1 X133.989 Y99.135 E0.01711
G1 F8640.000
G1 X134.028 Y99.267 E-0.03174
G1 X134.124 Y100.167 E-0.20895
G1 X134.123 Y102.416 E-0.51931
G1 E-0.04000 F2100.00000
G1 Z1.000 F10800.000
G1 X130.900 Y99.598
G1 Z0.400
G1 E0.80000 F2100.00000
M204 S800
G1 F1500.000
G1 X130.979 Y99.774 E0.00652
G1 X131.047 Y100.054 E0.00977
G1 X131.062 Y100.260 E0.00698
G1 X131.057 Y109.859 E0.32494
G1 X131.030 Y110.050 E0.00652
G1 X130.978 Y110.232 E0.00639
G1 X130.905 Y110.392 E0.00594
G1 X130.753 Y110.613 E0.00909
G1 X130.553 Y110.801 E0.00928
G1 X130.317 Y110.941 E0.00931
G1 X130.050 Y111.028 E0.00952
G1 X129.729 Y111.062 E0.01090
G1 X120.141 Y111.057 E0.32456
G1 X119.950 Y111.030 E0.00652
G1 X119.768 Y110.978 E0.00639
G1 X119.608 Y110.905 E0.00594
G1 X119.387 Y110.753 E0.00909
G1 X119.199 Y110.553 E0.00928
G1 X119.059 Y110.317 E0.00931
G1 X118.972 Y110.050 E0.00952
G1 X118.938 Y109.729 E0.01090
G1 X118.943 Y100.141 E0.32456
G1 X118.970 Y99.950 E0.00652
G1 X119.022 Y99.768 E0.00639
G1 X119.095 Y99.608 E0.00594
G1 X119.247 Y99.387 E0.00909
G1 X119.454 Y99.193 E0.00961
G1 X119.604 Y99.097 E0.00604
G1 X119.857 Y98.995 E0.00922
G1 X120.152 Y98.943 E0.01013
G1 X129.735 Y98.938 E0.32438
G1 X130.045 Y98.970 E0.01054
G1 X130.224 Y99.020 E0.00630
G1 X130.475 Y99.144 E0.00946
G1 X130.619 Y99.250 E0.00608
G1 X130.808 Y99.454 E0.00938
G1 X130.868 Y99.547 E0.00377
M204 S1000
G1 X131.210 Y99.327 F10800.000
M204 S800
G1 F1500.000
G1 X131.365 Y99.641 E0.01185
G1 X131.451 Y99.991 E0.01218
G1 X131.469 Y100.246 E0.00865
G1 X131.464 Y109.888 E0.32638
G1 X131.429 Y110.135 E0.00846
G1 X131.361 Y110.373 E0.00836
G1 X131.261 Y110.592 E0.00816
G1 X131.064 Y110.880 E0.01180
G1 X130.799 Y111.128 E0.01229
G1 X130.486 Y111.314 E0.01233
G1 X130.135 Y111.429 E0.01249
G1 X129.750 Y111.469 E0.01310
G1 X120.112 Y111.464 E0.32624
G1 X119.865 Y111.429 E0.00846
G1 X119.627 Y111.361 E0.00836
G1 X119.408 Y111.261 E0.00816
G1 X119.120 Y111.064 E0.01180
G1 X118.872 Y110.799 E0.01229
G1 X118.686 Y110.486 E0.01233
G1 X118.571 Y110.135 E0.01249
G1 X118.531 Y109.750 E0.01310
G1 X118.536 Y100.112 E0.32624
G1 X118.571 Y99.865 E0.00846
G1 X118.639 Y99.627 E0.00836
G1 X118.739 Y99.408 E0.00816
G1 X118.936 Y99.120 E0.01180
G1 X119.203 Y98.869 E0.01241
G1 X119.418 Y98.733 E0.00860
G1 X119.744 Y98.602 E0.01192
G1 X120.116 Y98.536 E0.01278
G1 X129.755 Y98.531 E0.32628
G1 X130.121 Y98.568 E0.01244
G1 X130.370 Y98.639 E0.00875
G1 X130.687 Y98.794 E0.01198
G1 X130.892 Y98.946 E0.00861
G1 X131.178 Y99.277 E0.01481
M204 S1000
G1 X131.048 Y99.637 F10800.000
G1 F8640.000
G1 X131.365 Y99.641 E-0.09462
G1 X131.451 Y99.991 E-0.08312
G1 X131.469 Y100.246 E-0.05899
G1 X131.468 Y102.512 E-0.52328
G1 E-0.04000 F2100.00000
G1 Z1.000 F10800.000
G1 X119.088 Y99.985
G1 Z0.400
G1 E0.80000 F2100.00000
G1 F1784
G1 X119.641 Y99.435 E0.02709
G1 X119.744 Y99.370 E0.00423
G1 X119.942 Y99.290 E0.00739
G1 X120.179 Y99.248 E0.00835
G1 X120.416 Y99.248 E0.00823
G1 X119.248 Y100.416 E0.05733
G1 X119.248 Y101.007 E0.02052
G1 X121.007 Y99.248 E0.08637
G1 X121.597 Y99.248 E0.02052
G1 X119.248 Y101.598 E0.11540
G1 X119.247 Y102.188 E0.02052
G1 X122.188 Y99.247 E0.14444
G1 X122.779 Y99.247 E0.02052
G1 X119.247 Y102.779 E0.17347
G1 X119.247 Y103.370 E0.02052
G1 X123.370 Y99.247 E0.20251
G1 X123.961 Y99.247 E0.02052
G1 X119.246 Y103.961 E0.23154
G1 X119.246 Y104.552 E0.02052
G1 X124.552 Y99.246 E0.26058
G1 X125.143 Y99.246 E0.02052
G1 X119.246 Y105.143 E0.28961
G1 X119.246 Y105.734 E0.02052
G1 X125.734 Y99.246 E0.31865
G1 X126.325 Y99.245 E0.02052
G1 X119.245 Y106.325 E0.34768
G1 X119.245 Y106.916 E0.02052
G1 X126.916 Y99.245 E0.37672
G1 X127.507 Y99.245 E0.02052
G1 X119.245 Y107.507 E0.40575
G1 X119.244 Y108.098 E0.02052
G1 X128.098 Y99.245 E0.43479
G1 X128.689 Y99.244 E0.02052
G1 X119.244 Y108.689 E0.46382
G1 X119.244 Y109.280 E0.02052
G1 X129.279 Y99.244 E0.49286
G1 X129.856 Y99.258 E0.02004
G1 X119.258 Y109.856 E0.52047
G1 X119.272 Y109.985 E0.00454
G1 X119.339 Y110.190 E0.00748
G1 X119.404 Y110.300 E0.00445
G1 X130.305 Y99.400 E0.53532
G1 X130.415 Y99.479 E0.00470
G1 X130.600 Y99.695 E0.00989
G1 X119.698 Y110.597 E0.53539
G1 X119.874 Y110.691 E0.00692
G1 X120.138 Y110.748 E0.00937
G1 X130.747 Y100.139 E0.52105
G1 X130.756 Y100.720 E0.02020
G1 X120.725 Y110.752 E0.49266
G1 X121.315 Y110.752 E0.02050
G1 X130.756 Y101.311 E0.46365
G1 X130.756 Y101.902 E0.02052
G1 X121.905 Y110.752 E0.43465
G1 X122.496 Y110.753 E0.02050
G1 X130.755 Y102.493 E0.40564
G1 X130.755 Y103.084 E0.02052
G1 X123.086 Y110.753 E0.37663
G1 X123.676 Y110.753 E0.02050
G1 X130.755 Y103.675 E0.34763
G1 X130.754 Y104.266 E0.02052
G1 X124.267 Y110.754 E0.31862
G1 X124.857 Y110.754 E0.02050
G1 X130.754 Y104.857 E0.28962
G1 X130.754 Y105.448 E0.02052
G1 X125.447 Y110.754 E0.26061
G1 X126.038 Y110.755 E0.02050
G1 X130.754 Y106.039 E0.23160
G1 X130.753 Y106.630 E0.02052
G1 X126.628 Y110.755 E0.20260
G1 X127.218 Y110.755 E0.02050
G1 X130.753 Y107.221 E0.17359
G1 X130.753 Y107.811 E0.02052
G1 X127.809 Y110.755 E0.14458
G1 X128.399 Y110.756 E0.02050
G1 X130.752 Y108.402 E0.11558
