; generated by PrusaSlicer 2.2.0+win64 on 2020-07-17 at 12:37:22 UTC

; 

; external perimeters extrusion width = 0.45mm
; perimeters extrusion width = 0.45mm
; infill extrusion width = 0.45mm
; solid infill extrusion width = 0.45mm
; top infill extrusion width = 0.40mm
; first layer extrusion width = 0.42mm

M73 P0 R12
M73 Q0 S12
M201 X1000 Y1000 Z200 E5000 ; sets maximum accelerations, mm/sec^2
M203 X200 Y200 Z12 E120 ; sets maximum feedrates, mm/sec
M204 P1250 R1250 T1250 ; sets acceleration (P, T) and retract acceleration (R), mm/sec^2
M205 X8.00 Y8.00 Z0.40 E4.50 ; sets the jerk limits, mm/sec
M205 S0 T0 ; sets the minimum extruding and travel feed rate, mm/sec
M107
M862.3 P "MK3S" ; printer model check
M862.1 P0.4 ; nozzle diameter check
M115 U3.9.0 ; tell printer latest fw version
G90 ; use absolute coordinates
M83 ; extruder relative mode
M104 S260 ; set extruder temp
M140 S80 ; set bed temp
M190 S80 ; wait for bed temp
M109 S260 ; wait for extruder temp
G28 W ; home all without mesh bed level
G80 ; mesh bed leveling
G1 Y-3.0 F1000.0 ; go outside print area
G92 E0.0
G1 X60.0 E9.0 F1000.0 ; intro line
M73 Q0 S12
M73 P0 R12
G1 X100.0 E12.5 F1000.0 ; intro line
G92 E0.0
M221 S95
G21 ; set units to millimeters
G90 ; use absolute coordinates
M83 ; use relative distances for extrusion
M900 K0.12 ; Filament gcode LA 1.5
M900 K45 ; Filament gcode LA 1.0
;BEFORE_LAYER_CHANGE
G92 E0.0
;0.2


G1 E-1.40000 F2100.00000
G1 Z0.200 F10800.000
;AFTER_LAYER_CHANGE
;0.2
G1 Z0.400
G1 X115.752 Y98.653
G1 Z0.200
G1 E1.40000 F2100.00000
M204 S1000
G1 F1200.000
G1 X116.273 Y97.587 E0.04093
G1 X116.890 Y96.837 E0.03348
G1 X117.644 Y96.236 E0.03325
G1 X118.533 Y95.794 E0.03423
G1 X119.483 Y95.550 E0.03385
G1 X129.820 Y95.498 E0.35651
G1 X130.563 Y95.558 E0.02573
G1 X131.399 Y95.769 E0.02974
G1 X132.084 Y96.075 E0.02586
G1 X132.713 Y96.489 E0.02597
G1 X133.312 Y97.049 E0.02828
G1 X133.768 Y97.651 E0.02607
G1 X134.129 Y98.340 E0.02683
G1 X134.386 Y99.142 E0.02905
G1 X134.501 Y100.159 E0.03529
G1 X134.493 Y110.094 E0.34268
G1 X134.251 Y111.339 E0.04375
G1 X133.727 Y112.413 E0.04121
G1 X133.060 Y113.211 E0.03587
G1 X132.150 Y113.888 E0.03910
G1 X131.175 Y114.304 E0.03655
G1 X130.181 Y114.488 E0.03487
G1 X119.877 Y114.492 E0.35538
G1 X118.653 Y114.248 E0.04305
G1 X117.587 Y113.727 E0.04093
G1 X116.789 Y113.060 E0.03587
G1 X116.112 Y112.150 E0.03910
G1 X115.696 Y111.175 E0.03655
G1 X115.512 Y110.181 E0.03487
G1 X115.508 Y99.877 E0.35538
G1 X115.740 Y98.712 E0.04098
G1 X116.135 Y98.698 F10800.000
G1 F1200.000
G1 X116.669 Y97.677 E0.03975
G1 X117.200 Y97.063 E0.02798
G1 X117.920 Y96.509 E0.03133
G1 X118.694 Y96.136 E0.02964
G1 X119.578 Y95.917 E0.03141
G1 X129.819 Y95.875 E0.35322
G1 X130.615 Y95.950 E0.02757
G1 X131.306 Y96.136 E0.02466
G1 X131.939 Y96.426 E0.02402
G1 X132.568 Y96.856 E0.02627
G1 X133.067 Y97.341 E0.02398
G1 X133.489 Y97.916 E0.02463
G1 X133.833 Y98.612 E0.02677
G1 X134.028 Y99.267 E0.02356
G1 X134.124 Y100.167 E0.03121
G1 X134.116 Y110.086 E0.34211
G1 X133.868 Y111.295 E0.04257
G1 X133.331 Y112.323 E0.04001
G1 X132.685 Y113.044 E0.03337
G1 X131.916 Y113.587 E0.03245
G1 X131.040 Y113.951 E0.03272
G1 X130.112 Y114.115 E0.03250
G1 X119.891 Y114.115 E0.35252
G1 X118.698 Y113.865 E0.04205
G1 X117.677 Y113.331 E0.03975
G1 X116.956 Y112.685 E0.03337
G1 X116.413 Y111.916 E0.03245
G1 X116.049 Y111.040 E0.03272
G1 X115.885 Y110.112 E0.03250
G1 X115.885 Y99.891 E0.35252
G1 X116.123 Y98.757 E0.03998
G1 F8640.000
G1 X116.669 Y97.677 E-0.27951
G1 X117.200 Y97.063 E-0.18734
G1 X117.920 Y96.509 E-0.20976
G1 X118.694 Y96.136 E-0.19845
G1 X119.578 Y95.917 E-0.21026
G1 X120.638 Y95.913 E-0.24469
G1 E-0.07000 F2100.00000
G1 Z0.400 F10800.000
G1 X118.866 Y99.747
G1 Z0.200
G1 E1.40000 F2100.00000
G1 F1200.000
G1 X119.009 Y99.458 E0.01111
G1 X119.209 Y99.209 E0.01103
G1 X119.458 Y99.009 E0.01103
G1 X119.751 Y98.865 E0.01123
G1 X119.959 Y98.805 E0.00747
G1 X120.180 Y98.774 E0.00769
G1 X129.817 Y98.774 E0.33240
G1 X130.149 Y98.832 E0.01160
G1 X130.449 Y98.954 E0.01118
G1 X130.713 Y99.136 E0.01106
G1 X130.933 Y99.373 E0.01115
G1 X131.044 Y99.547 E0.00713
G1 X131.169 Y99.855 E0.01144
G1 X131.214 Y100.068 E0.00750
G1 X131.230 Y100.302 E0.00811
G1 X131.230 Y109.694 E0.32392
G1 X131.194 Y110.042 E0.01205
G1 X131.093 Y110.352 E0.01126
G1 X130.929 Y110.633 E0.01123
G1 X130.792 Y110.792 E0.00723
G1 X130.630 Y110.931 E0.00736
G1 X130.453 Y111.044 E0.00726
G1 X130.145 Y111.169 E0.01144
G1 X129.932 Y111.214 E0.00752
G1 X129.698 Y111.230 E0.00810
G1 X120.306 Y111.230 E0.32392
G1 X119.958 Y111.194 E0.01205
G1 X119.648 Y111.093 E0.01126
G1 X119.367 Y110.929 E0.01123
G1 X119.208 Y110.792 E0.00723
G1 X119.069 Y110.630 E0.00736
G1 X118.956 Y110.453 E0.00726
G1 X118.831 Y110.145 E0.01144
G1 X118.786 Y109.932 E0.00752
G1 X118.770 Y109.698 E0.00810
G1 X118.770 Y100.302 E0.32405
G1 X118.786 Y100.071 E0.00799
G1 X118.852 Y99.805 E0.00945
G1 F8640.000
G1 X119.009 Y99.458 E-0.08794
G1 X119.209 Y99.209 E-0.07387
G1 X119.458 Y99.009 E-0.07387
G1 X119.751 Y98.865 E-0.07522
G1 X119.959 Y98.805 E-0.05003
G1 X120.180 Y98.774 E-0.05148
G1 X124.154 Y98.774 E-0.91761
G1 E-0.07000 F2100.00000
G1 Z0.400 F10800.000
G1 X131.061 Y99.891
G1 Z0.200
G1 E1.40000 F2100.00000
G1 F1200.000
G1 X130.511 Y99.340 E0.02743
G1 X130.314 Y99.205 E0.00843
G1 X130.070 Y99.106 E0.00928
G1 X129.793 Y99.057 E0.00993
G1 X129.682 Y99.057 E0.00389
G1 X130.947 Y100.322 E0.06307
G1 X130.947 Y100.867 E0.01922
G1 X129.137 Y99.057 E0.09024
G1 X128.592 Y99.057 E0.01922
G1 X130.947 Y101.412 E0.11741
G1 X130.947 Y101.957 E0.01921
G1 X128.047 Y99.057 E0.14459
G1 X127.502 Y99.057 E0.01922
G1 X130.947 Y102.502 E0.17176
G1 X130.947 Y103.047 E0.01921
G1 X126.957 Y99.057 E0.19894
G1 X126.412 Y99.057 E0.01922
G1 X130.947 Y103.592 E0.22611
G1 X130.947 Y104.137 E0.01922
G1 X125.867 Y99.057 E0.25329
G1 X125.322 Y99.057 E0.01922
G1 X130.947 Y104.683 E0.28046
G1 X130.947 Y105.228 E0.01921
G1 X124.777 Y99.057 E0.30763
G1 X124.232 Y99.057 E0.01922
G1 X130.947 Y105.773 E0.33481
G1 X130.947 Y106.318 E0.01921
G1 X123.687 Y99.057 E0.36198
G1 X123.142 Y99.057 E0.01922
G1 X130.947 Y106.863 E0.38916
G1 X130.947 Y107.408 E0.01921
G1 X122.597 Y99.057 E0.41633
G1 X122.051 Y99.057 E0.01922
G1 X130.947 Y107.953 E0.44351
G1 X130.947 Y108.498 E0.01921
G1 X121.506 Y99.057 E0.47068
G1 X120.961 Y99.057 E0.01922
G1 X130.947 Y109.043 E0.49786
G1 X130.947 Y109.588 E0.01922
G1 X120.416 Y99.057 E0.52503
G1 X120.199 Y99.057 E0.00765
G1 X119.923 Y99.109 E0.00989
G1 X130.887 Y110.073 E0.54658
G1 X130.834 Y110.236 E0.00604
G1 X130.712 Y110.443 E0.00848
G1 X119.559 Y99.290 E0.55602
G1 X119.410 Y99.410 E0.00675
G1 X119.287 Y99.563 E0.00692
G1 X130.441 Y110.717 E0.55605
G1 X130.322 Y110.792 E0.00494
G1 X130.072 Y110.893 E0.00951
G1 X119.112 Y99.933 E0.54645
G1 X119.066 Y100.115 E0.00664
G1 X119.053 Y100.419 E0.01070
G1 X129.581 Y110.947 E0.52491
G1 X129.036 Y110.947 E0.01921
G1 X119.053 Y100.964 E0.49774
G1 X119.053 Y101.509 E0.01921
G1 X128.491 Y110.947 E0.47057
G1 X127.946 Y110.947 E0.01921
G1 X119.053 Y102.054 E0.44339
G1 X119.053 Y102.599 E0.01921
G1 X127.401 Y110.947 E0.41622
G1 X126.856 Y110.947 E0.01921
G1 X119.053 Y103.144 E0.38904
G1 X119.053 Y103.689 E0.01921
G1 X126.311 Y110.947 E0.36187
G1 X125.766 Y110.947 E0.01922
G1 X119.053 Y104.234 E0.33470
G1 X119.053 Y104.779 E0.01921
G1 X125.221 Y110.947 E0.30752
G1 X124.676 Y110.947 E0.01921
G1 X119.053 Y105.324 E0.28035
G1 X119.053 Y105.869 E0.01921
G1 X124.131 Y110.947 E0.25317
G1 X123.586 Y110.947 E0.01922
G1 X119.053 Y106.414 E0.22600
G1 X119.053 Y106.959 E0.01922
G1 X123.041 Y110.947 E0.19883
G1 X122.496 Y110.947 E0.01921
G1 X119.053 Y107.504 E0.17165
G1 X119.053 Y108.049 E0.01921
G1 X121.951 Y110.947 E0.14448
G1 X121.405 Y110.947 E0.01921
G1 X119.053 Y108.595 E0.11730
G1 X119.053 Y109.140 E0.01921
G1 X120.860 Y110.947 E0.09013
G1 X120.315 Y110.947 E0.01924
G1 X119.053 Y109.685 E0.06293
G1 X119.067 Y109.893 E0.00736
G1 X119.102 Y110.062 E0.00609
G1 X119.208 Y110.322 E0.00990
G1 X119.376 Y110.553 E0.01008
G1 X119.869 Y111.046 E0.02457
;BEFORE_LAYER_CHANGE
G92 E0.0
;0.4


G1 F8640.000
G1 X119.376 Y110.553 E-0.16095
G1 X119.208 Y110.322 E-0.06600
G1 X119.102 Y110.062 E-0.06487
G1 X119.067 Y109.893 E-0.03992
G1 X119.053 Y109.685 E-0.04819
G1 X120.315 Y110.947 E-0.41216
G1 X120.860 Y110.947 E-0.12599
G1 X119.599 Y109.686 E-0.41192
G1 E-0.07000 F2100.00000
G1 Z0.400 F10800.000
;AFTER_LAYER_CHANGE
;0.4
G1 Z0.600
G1 X116.112 Y112.150
G1 Z0.400
G1 E1.40000 F2100.00000
G1 F3000.000
G1 X115.696 Y111.175 E0.03655
G1 X115.512 Y110.181 E0.03487
G1 X115.508 Y99.877 E0.35538
G1 X115.752 Y98.653 E0.04305
G1 X116.273 Y97.587 E0.04093
G1 X116.890 Y96.837 E0.03348
G1 X117.644 Y96.236 E0.03325
G1 X118.533 Y95.794 E0.03423
G1 X119.483 Y95.550 E0.03385
G1 X129.820 Y95.498 E0.35651
G1 X130.563 Y95.558 E0.02573
G1 X131.399 Y95.769 E0.02974
G1 X132.084 Y96.075 E0.02586
G1 X132.713 Y96.489 E0.02597
G1 X133.312 Y97.049 E0.02828
G1 X133.768 Y97.651 E0.02607
G1 X134.129 Y98.340 E0.02683
G1 X134.386 Y99.142 E0.02905
G1 X134.501 Y100.159 E0.03529
G1 X134.493 Y110.094 E0.34268
G1 X134.251 Y111.339 E0.04375
G1 X133.727 Y112.413 E0.04121
G1 X133.060 Y113.211 E0.03587
G1 X132.150 Y113.888 E0.03910
G1 X131.175 Y114.304 E0.03655
G1 X130.181 Y114.488 E0.03487
G1 X119.877 Y114.492 E0.35538
G1 X118.653 Y114.248 E0.04305
G1 X117.587 Y113.727 E0.04093
G1 X116.789 Y113.060 E0.03587
G1 X116.148 Y112.198 E0.03704
G1 F8640.000
G1 X115.696 Y111.175 E-0.25820
G1 X115.512 Y110.181 E-0.23344
G1 X115.511 Y106.550 E-0.83835
G1 E-0.07000 F2100.00000
G1 Z0.600 F10800.000
G1 X118.698 Y113.865
G1 Z0.400
G1 E1.40000 F2100.00000
G1 F3000.000
G1 X117.677 Y113.331 E0.03975
G1 X116.956 Y112.685 E0.03337
G1 X116.413 Y111.916 E0.03245
G1 X116.049 Y111.040 E0.03272
G1 X115.885 Y110.112 E0.03250
G1 X115.885 Y99.891 E0.35252
G1 X116.135 Y98.698 E0.04205
G1 X116.669 Y97.677 E0.03975
G1 X117.200 Y97.063 E0.02798
G1 X117.920 Y96.509 E0.03133
G1 X118.694 Y96.136 E0.02964
G1 X119.578 Y95.917 E0.03141
G1 X129.819 Y95.875 E0.35322
G1 X130.615 Y95.950 E0.02757
G1 X131.306 Y96.136 E0.02466
G1 X131.939 Y96.426 E0.02402
G1 X132.568 Y96.856 E0.02627
G1 X133.067 Y97.341 E0.02398
G1 X133.489 Y97.916 E0.02463
G1 X133.833 Y98.612 E0.02677
G1 X134.028 Y99.267 E0.02356
G1 X134.124 Y100.167 E0.03121
G1 X134.116 Y110.086 E0.34211
G1 X133.868 Y111.295 E0.04257
G1 X133.331 Y112.323 E0.04001
G1 X132.685 Y113.044 E0.03337
G1 X131.916 Y113.587 E0.03245
G1 X131.040 Y113.951 E0.03272
G1 X130.112 Y114.115 E0.03250
G1 X119.891 Y114.115 E0.35252
G1 X118.757 Y113.877 E0.03998
G1 F8640.000
G1 X117.677 Y113.331 E-0.27951
G1 X116.956 Y112.685 E-0.22341
G1 X116.413 Y111.916 E-0.21728
G1 X116.049 Y111.040 E-0.21906
G1 X115.885 Y110.112 E-0.21760
G1 X115.885 Y109.362 E-0.17315
G1 E-0.07000 F2100.00000
G1 Z0.600 F10800.000
G1 X118.872 Y110.799
G1 Z0.400
G1 E1.40000 F2100.00000
M204 S800
G1 F1200.000
G1 X118.686 Y110.486 E0.01357
G1 X118.571 Y110.135 E0.01374
G1 X118.531 Y109.750 E0.01441
G1 X118.536 Y100.112 E0.35887
G1 X118.571 Y99.865 E0.00930
G1 X118.639 Y99.627 E0.00920
G1 X118.739 Y99.408 E0.00898
G1 X118.936 Y99.120 E0.01298
G1 X119.203 Y98.869 E0.01365
G1 X119.418 Y98.733 E0.00946
G1 X119.744 Y98.602 E0.01311
G1 X120.116 Y98.536 E0.01406
G1 X129.755 Y98.531 E0.35891
G1 X130.121 Y98.568 E0.01368
G1 X130.370 Y98.639 E0.00963
G1 X130.687 Y98.794 E0.01317
G1 X130.892 Y98.946 E0.00947
G1 X131.131 Y99.203 E0.01307
G1 X131.260 Y99.404 E0.00889
G1 X131.365 Y99.641 E0.00968
G1 X131.451 Y99.991 E0.01340
G1 X131.469 Y100.246 E0.00951
G1 X131.464 Y109.888 E0.35901
G1 X131.429 Y110.135 E0.00930
G1 X131.361 Y110.373 E0.00920
G1 X131.261 Y110.592 E0.00898
G1 X131.064 Y110.880 E0.01298
G1 X130.799 Y111.128 E0.01352
G1 X130.486 Y111.314 E0.01357
G1 X130.135 Y111.429 E0.01374
G1 X129.750 Y111.469 E0.01441
G1 X120.112 Y111.464 E0.35887
G1 X119.865 Y111.429 E0.00930
G1 X119.627 Y111.361 E0.00920
G1 X119.408 Y111.261 E0.00898
G1 X119.120 Y111.064 E0.01298
G1 X118.913 Y110.843 E0.01128
M204 S1000
G1 F8640.000
G1 X118.686 Y110.486 E-0.09771
G1 X118.571 Y110.135 E-0.08520
G1 X118.531 Y109.750 E-0.08933
G1 X118.533 Y105.169 E-1.05775
G1 E-0.07000 F2100.00000
G1 Z0.600 F10800.000
G1 X130.238 Y111.266
G1 Z0.400
G1 E1.40000 F2100.00000
G1 F1200.000
G1 X130.845 Y110.659 E0.03277
G1 X130.994 Y110.442 E0.01007
G1 X131.074 Y110.267 E0.00732
G1 X131.130 Y110.072 E0.00776
G1 X131.159 Y109.756 E0.01211
G1 X129.753 Y111.162 E0.07587
G1 X129.161 Y111.163 E0.02257
G1 X131.159 Y109.165 E0.10781
G1 X131.159 Y108.575 E0.02252
G1 X128.571 Y111.163 E0.13965
G1 X127.982 Y111.163 E0.02250
G1 X131.160 Y107.985 E0.17148
G1 X131.160 Y107.395 E0.02252
G1 X127.392 Y111.162 E0.20332
G1 X126.802 Y111.162 E0.02250
G1 X131.160 Y106.804 E0.23515
G1 X131.161 Y106.214 E0.02252
G1 X126.213 Y111.162 E0.26699
G1 X125.623 Y111.161 E0.02250
G1 X131.161 Y105.624 E0.29882
G1 X131.161 Y105.033 E0.02252
G1 X125.033 Y111.161 E0.33066
G1 X124.444 Y111.161 E0.02250
G1 X131.161 Y104.443 E0.36249
G1 X131.162 Y103.853 E0.02252
G1 X123.854 Y111.161 E0.39433
G1 X123.264 Y111.160 E0.02250
G1 X131.162 Y103.263 E0.42616
G1 X131.162 Y102.672 E0.02252
G1 X122.675 Y111.160 E0.45800
G1 X122.085 Y111.160 E0.02250
G1 X131.163 Y102.082 E0.48983
G1 X131.163 Y101.492 E0.02252
G1 X121.495 Y111.159 E0.52167
G1 X120.906 Y111.159 E0.02250
G1 X131.163 Y100.902 E0.55350
G1 X131.163 Y100.311 E0.02252
G1 X120.316 Y111.159 E0.58534
G1 X120.133 Y111.159 E0.00697
G1 X119.794 Y111.091 E0.01321
G1 X131.089 Y99.796 E0.60949
G1 X130.990 Y99.549 E0.01014
G1 X130.895 Y99.400 E0.00675
G1 X119.405 Y110.889 E0.61996
G1 X119.320 Y110.831 E0.00394
G1 X119.107 Y110.598 E0.01206
G1 X130.597 Y99.108 E0.62002
G1 X130.528 Y99.056 E0.00329
G1 X130.206 Y98.909 E0.01352
G1 X118.914 Y110.201 E0.60930
G1 X118.872 Y110.071 E0.00521
G1 X118.837 Y109.689 E0.01465
G1 X129.688 Y98.837 E0.58558
G1 X129.098 Y98.837 E0.02252
G1 X118.837 Y109.098 E0.55371
G1 X118.837 Y108.508 E0.02252
G1 X128.508 Y98.837 E0.52185
G1 X127.918 Y98.838 E0.02252
G1 X118.837 Y107.918 E0.48998
G1 X118.838 Y107.327 E0.02252
G1 X127.327 Y98.838 E0.45811
G1 X126.737 Y98.838 E0.02252
G1 X118.838 Y106.737 E0.42625
G1 X118.838 Y106.147 E0.02252
G1 X126.147 Y98.838 E0.39438
G1 X125.557 Y98.839 E0.02252
G1 X118.839 Y105.557 E0.36251
G1 X118.839 Y104.966 E0.02252
G1 X124.966 Y98.839 E0.33065
G1 X124.376 Y98.839 E0.02252
G1 X118.839 Y104.376 E0.29878
G1 X118.839 Y103.786 E0.02252
G1 X123.786 Y98.840 E0.26691
G1 X123.196 Y98.840 E0.02252
G1 X118.840 Y103.196 E0.23505
G1 X118.840 Y102.605 E0.02252
G1 X122.605 Y98.840 E0.20318
G1 X122.015 Y98.840 E0.02252
G1 X118.840 Y102.015 E0.17131
G1 X118.841 Y101.425 E0.02252
M73 Q9 S11
G1 X121.425 Y98.841 E0.13944
G1 X120.835 Y98.841 E0.02252
G1 X118.841 Y100.835 E0.10758
G1 X118.841 Y100.244 E0.02252
G1 X120.244 Y98.841 E0.07571
M73 P9 R11
G1 X120.143 Y98.841 E0.00387
G1 X119.829 Y98.897 E0.01217
G1 X119.558 Y99.006 E0.01116
G1 X119.391 Y99.112 E0.00753
G1 X118.725 Y99.771 E0.03575
;BEFORE_LAYER_CHANGE
G92 E0.0
;0.6


G1 F8640.000
G1 X119.391 Y99.112 E-0.21634
G1 X119.558 Y99.006 E-0.04559
G1 X119.829 Y98.897 E-0.06751
G1 X120.143 Y98.841 E-0.07362
G1 X120.244 Y98.841 E-0.02344
G1 X118.841 Y100.244 E-0.45816
G1 X118.841 Y100.835 E-0.13629
G1 X119.787 Y99.888 E-0.30905
G1 E-0.07000 F2100.00000
G1 Z0.600 F10800.000
;AFTER_LAYER_CHANGE
;0.6
G1 Z0.800
G1 X115.752 Y98.653
G1 Z0.600
G1 E1.40000 F2100.00000
G1 F3000.000
G1 X116.273 Y97.587 E0.04093
G1 X116.890 Y96.837 E0.03348
G1 X117.644 Y96.236 E0.03325
G1 X118.533 Y95.794 E0.03423
G1 X119.483 Y95.550 E0.03385
G1 X129.820 Y95.498 E0.35651
G1 X130.563 Y95.558 E0.02573
G1 X131.399 Y95.769 E0.02974
G1 X132.084 Y96.075 E0.02586
G1 X132.713 Y96.489 E0.02597
G1 X133.312 Y97.049 E0.02828
G1 X133.768 Y97.651 E0.02607
G1 X134.129 Y98.340 E0.02683
G1 X134.386 Y99.142 E0.02905
G1 X134.501 Y100.159 E0.03529
G1 X134.493 Y110.094 E0.34268
G1 X134.251 Y111.339 E0.04375
G1 X133.727 Y112.413 E0.04121
G1 X133.060 Y113.211 E0.03587
G1 X132.150 Y113.888 E0.03910
G1 X131.175 Y114.304 E0.03655
G1 X130.181 Y114.488 E0.03487
G1 X119.877 Y114.492 E0.35538
