; generated by PrusaSlicer 2.2.0+win64 on 2020-07-16 at 17:48:42 UTC

; 

; external perimeters extrusion width = 0.45mm
; perimeters extrusion width = 0.45mm
; infill extrusion width = 0.45mm
; solid infill extrusion width = 0.45mm
; top infill extrusion width = 0.40mm
; first layer extrusion width = 0.42mm

M73 P0 R158
M73 Q0 S160
M201 X1000 Y1000 Z200 E5000 ; sets maximum accelerations, mm/sec^2
M203 X200 Y200 Z12 E120 ; sets maximum feedrates, mm/sec
M204 P1250 R1250 T1250 ; sets acceleration (P, T) and retract acceleration (R), mm/sec^2
M205 X8.00 Y8.00 Z0.40 E4.50 ; sets the jerk limits, mm/sec
M205 S0 T0 ; sets the minimum extruding and travel feed rate, mm/sec
M107
M862.3 P "MK3S" ; printer model check
M862.1 P0.4 ; nozzle diameter check
M115 U3.9.0 ; tell printer latest fw version
G90 ; use absolute coordinates
M83 ; extruder relative mode
M104 S215 ; set extruder temp
M140 S60 ; set bed temp
M190 S60 ; wait for bed temp
M109 S215 ; wait for extruder temp
G28 W ; home all without mesh bed level
G80 ; mesh bed leveling
G1 Y-3.0 F1000.0 ; go outside print area
G92 E0.0
G1 X60.0 E9.0 F1000.0 ; intro line
M73 Q0 S160
M73 P0 R158
G1 X100.0 E12.5 F1000.0 ; intro line
G92 E0.0
M221 S95
G21 ; set units to millimeters
G90 ; use absolute coordinates
M83 ; use relative distances for extrusion
M900 K0.06 ; Filament gcode LA 1.5
M900 K30 ; Filament gcode LA 1.0
;BEFORE_LAYER_CHANGE
G92 E0.0
;0.2


G1 E-0.80000 F2100.00000
G1 Z0.600 F10800.000
;AFTER_LAYER_CHANGE
;0.2
G1 X64.743 Y23.909
G1 Z0.200
G1 E0.80000 F2100.00000
M204 S1000
G1 F1200.000
G1 X65.060 Y23.135 E0.02622
G1 X65.454 Y22.477 E0.02407
G1 X66.175 Y21.644 E0.03453
G1 X66.721 Y21.189 E0.02228
G1 X67.392 Y20.778 E0.02467
G1 X68.363 Y20.393 E0.03275
G1 X69.045 Y20.239 E0.02192
G1 X69.814 Y20.176 E0.02419
G1 X180.223 Y20.181 E3.46181
G1 X181.115 Y20.271 E0.02811
G1 X182.446 Y20.701 E0.04387
G1 X183.334 Y21.230 E0.03239
G1 X183.926 Y21.736 E0.02443
G1 X184.380 Y22.253 E0.02157
G1 X184.929 Y23.106 E0.03180
G1 X185.302 Y24.053 E0.03192
G1 X185.518 Y25.466 E0.04481
G1 X185.514 Y185.455 E5.01635
G1 X185.454 Y186.168 E0.02244
G1 X185.301 Y186.787 E0.01999
G1 X184.850 Y187.761 E0.03364
G1 X184.071 Y188.692 E0.03809
G1 X183.297 Y189.254 E0.02998
G1 X182.096 Y189.714 E0.04034
G1 X181.158 Y189.824 E0.02961
G1 X69.838 Y189.820 E3.49036
G1 X69.016 Y189.754 E0.02586
G1 X68.213 Y189.563 E0.02586
G1 X67.439 Y189.246 E0.02622
G1 X66.781 Y188.852 E0.02407
G1 X65.948 Y188.131 E0.03453
G1 X65.491 Y187.582 E0.02240
G1 X65.078 Y186.908 E0.02479
G1 X64.695 Y185.936 E0.03275
G1 X64.541 Y185.254 E0.02192
G1 X64.480 Y184.462 E0.02491
G1 X64.486 Y25.537 E4.98296
G1 X64.552 Y24.712 E0.02598
G1 X64.729 Y23.968 E0.02398
G1 F8640.000
G1 X65.060 Y23.135 E-0.20678
G1 X65.454 Y22.477 E-0.17725
G1 X66.175 Y21.644 E-0.25430
G1 X66.580 Y21.307 E-0.12166
G1 E-0.04000 F2100.00000
G1 Z0.800 F10800.000
G1 X164.650 Y97.164
G1 Z0.200
G1 E0.80000 F2100.00000
G1 F1200.000
G1 X165.079 Y97.164 E0.01344
G1 X164.864 Y98.483 E0.04187
G1 X164.660 Y97.224 E0.03999
G1 F8640.000
G1 X165.079 Y97.164 E-0.09772
G1 X164.864 Y98.483 E-0.30836
G1 X164.660 Y97.224 E-0.29451
G1 E-0.09941 F2100.00000
G1 Z0.800 F10800.000
G1 X163.666 Y99.080
G1 Z0.200
G1 E0.80000 F2100.00000
G1 F1200.000
G1 X164.864 Y99.058 E0.03757
G1 X166.062 Y99.080 E0.03757
G1 X166.092 Y99.105 E0.00120
G1 X166.104 Y99.155 E0.00163
G1 X166.104 Y99.561 E0.01271
G1 X166.061 Y99.618 E0.00223
G1 X166.021 Y99.629 E0.00132
G1 X163.708 Y99.629 E0.07252
G1 X163.667 Y99.618 E0.00133
G1 X163.624 Y99.561 E0.00223
G1 X163.632 Y99.126 E0.01365
G1 F8640.000
G1 X164.864 Y99.058 E-0.28500
G1 X166.062 Y99.080 E-0.27667
G1 X166.092 Y99.105 E-0.00882
G1 X166.104 Y99.155 E-0.01202
G1 X166.104 Y99.561 E-0.09362
G1 X166.061 Y99.618 E-0.01643
G1 X166.021 Y99.629 E-0.00970
G1 X165.771 Y99.629 E-0.05774
G1 E-0.04000 F2100.00000
G1 Z0.800 F10800.000
G1 X165.595 Y103.409
G1 Z0.200
G1 E0.80000 F2100.00000
G1 F1200.000
G1 X165.937 Y103.525 E0.01130
G1 X166.092 Y103.646 E0.00616
G1 X166.097 Y104.117 E0.01477
G1 X166.076 Y104.151 E0.00126
G1 X165.977 Y104.174 E0.00319
G1 X165.683 Y104.174 E0.00922
G1 X165.678 Y104.003 E0.00536
G1 X165.608 Y103.468 E0.01693
G1 F8640.000
G1 X165.937 Y103.525 E-0.07699
G1 X166.092 Y103.646 E-0.04536
G1 X166.097 Y104.117 E-0.10877
G1 X166.076 Y104.151 E-0.00931
G1 X165.977 Y104.174 E-0.02349
G1 X165.683 Y104.174 E-0.06792
G1 X165.678 Y104.003 E-0.03950
G1 X165.608 Y103.468 E-0.12471
G1 E-0.30395 F2100.00000
G1 Z0.800 F10800.000
G1 X165.595 Y117.931
G1 Z0.200
G1 E0.80000 F2100.00000
G1 F1200.000
G1 X165.936 Y118.046 E0.01130
G1 X166.091 Y118.167 E0.00616
G1 X166.096 Y118.638 E0.01477
G1 X166.075 Y118.673 E0.00126
G1 X165.976 Y118.696 E0.00319
G1 X165.682 Y118.696 E0.00922
G1 X165.677 Y118.525 E0.00536
G1 X165.608 Y117.989 E0.01693
G1 F8640.000
G1 X165.936 Y118.046 E-0.07699
G1 X166.091 Y118.167 E-0.04536
G1 X166.096 Y118.638 E-0.10877
G1 X166.075 Y118.673 E-0.00932
G1 X165.976 Y118.696 E-0.02349
G1 X165.682 Y118.696 E-0.06792
G1 X165.677 Y118.525 E-0.03950
G1 X165.608 Y117.989 E-0.12471
G1 E-0.30395 F2100.00000
G1 Z0.800 F10800.000
G1 X164.832 Y88.226
G1 Z0.200
G1 E0.80000 F2100.00000
G1 F1200.000
G1 X164.837 Y87.628 E0.01874
G1 X164.890 Y87.464 E0.00542
G1 X164.980 Y87.374 E0.00398
G1 X165.142 Y87.322 E0.00535
G1 X165.765 Y87.322 E0.01952
G1 X165.930 Y87.376 E0.00545
G1 X166.034 Y87.494 E0.00494
G1 X166.066 Y87.581 E0.00291
G1 X166.078 Y87.849 E0.00843
G1 X166.058 Y87.984 E0.00426
G1 X166.011 Y88.082 E0.00342
G1 X165.927 Y88.164 E0.00366
G1 X165.762 Y88.217 E0.00545
G1 X164.892 Y88.225 E0.02727
G1 F8640.000
G1 X164.837 Y87.628 E-0.13845
G1 X164.890 Y87.464 E-0.03989
G1 X164.980 Y87.374 E-0.02933
G1 X165.142 Y87.322 E-0.03937
G1 X165.765 Y87.322 E-0.14377
G1 X165.930 Y87.376 E-0.04017
G1 X166.034 Y87.494 E-0.03640
G1 X166.066 Y87.581 E-0.02140
G1 X166.078 Y87.849 E-0.06207
G1 X166.058 Y87.984 E-0.03138
G1 X166.011 Y88.082 E-0.02516
G1 X165.927 Y88.164 E-0.02697
G1 X165.762 Y88.217 E-0.04011
G1 X165.391 Y88.221 E-0.08552
G1 E-0.04000 F2100.00000
G1 Z0.800 F10800.000
G1 X162.657 Y88.223
G1 Z0.200
G1 E0.80000 F2100.00000
G1 F1200.000
G1 X161.952 Y88.217 E0.02211
G1 X161.842 Y88.185 E0.00358
G1 X161.745 Y88.112 E0.00379
G1 X161.667 Y87.968 E0.00514
G1 X161.654 Y87.668 E0.00944
G1 X161.662 Y87.579 E0.00279
G1 X161.711 Y87.464 E0.00393
G1 X161.801 Y87.374 E0.00398
G1 X161.967 Y87.320 E0.00547
G1 X162.280 Y87.316 E0.00982
G1 X162.424 Y87.338 E0.00455
G1 X162.507 Y87.378 E0.00290
G1 X162.576 Y87.441 E0.00295
G1 X162.647 Y87.579 E0.00487
G1 X162.657 Y88.163 E0.01832
G1 F8640.000
G1 X161.952 Y88.217 E-0.16332
G1 X161.842 Y88.185 E-0.02635
G1 X161.745 Y88.112 E-0.02794
G1 X161.667 Y87.968 E-0.03785
G1 X161.654 Y87.668 E-0.06949
G1 X161.662 Y87.579 E-0.02051
G1 X161.711 Y87.464 E-0.02891
G1 X161.801 Y87.374 E-0.02934
G1 X161.967 Y87.320 E-0.04028
G1 X162.280 Y87.316 E-0.07235
G1 X162.424 Y87.338 E-0.03349
G1 X162.507 Y87.378 E-0.02134
G1 X162.576 Y87.441 E-0.02172
G1 X162.647 Y87.579 E-0.03583
G1 X162.657 Y88.148 E-0.13128
G1 E-0.04000 F2100.00000
G1 Z0.800 F10800.000
G1 X163.744 Y85.627
G1 Z0.200
G1 E0.80000 F2100.00000
G1 F1200.000
G1 X163.717 Y85.594 E0.00133
G1 X163.244 Y85.328 E0.01704
G1 X162.872 Y85.197 E0.01235
G1 X163.193 Y83.227 E0.06259
G1 X162.017 Y83.227 E0.03686
G1 X161.870 Y83.203 E0.00467
G1 X161.778 Y83.147 E0.00338
G1 X161.704 Y83.065 E0.00346
G1 X161.657 Y82.912 E0.00503
G1 X161.661 Y82.596 E0.00990
G1 X161.695 Y82.491 E0.00345
G1 X161.778 Y82.393 E0.00404
G1 X161.947 Y82.333 E0.00562
G1 X162.082 Y82.323 E0.00424
G1 X162.384 Y82.348 E0.00950
G1 X162.684 Y82.423 E0.00969
G1 X163.216 Y82.642 E0.01804
G1 X163.755 Y82.952 E0.01949
G1 X164.101 Y83.195 E0.01324
G1 X164.618 Y83.608 E0.02075
G1 X165.175 Y84.119 E0.02372
G1 X165.547 Y84.490 E0.01647
G1 X166.128 Y85.150 E0.02756
G1 X165.998 Y85.124 E0.00417
G1 X165.235 Y85.111 E0.02393
G1 X164.742 Y85.164 E0.01554
G1 X164.256 Y85.322 E0.01603
G1 X163.786 Y85.585 E0.01688
G1 F8640.000
G1 X163.717 Y85.594 E-0.01598
G1 X163.244 Y85.328 E-0.12547
G1 X162.872 Y85.197 E-0.09093
G1 X163.193 Y83.227 E-0.46095
G1 X162.904 Y83.227 E-0.06666
G1 E-0.04000 F2100.00000
G1 Z0.800 F10800.000
G1 X162.280 Y87.697
G1 Z0.200
G1 E0.80000 F2100.00000
G1 F1200.000
G1 X162.280 Y87.843 E0.00456
G1 X162.039 Y87.841 E0.00755
G1 X162.033 Y87.697 E0.00452
G1 X162.220 Y87.694 E0.00587
G1 F8640.000
G1 X162.280 Y87.843 E-0.03699
G1 X162.039 Y87.841 E-0.05563
G1 X162.033 Y87.697 E-0.03326
G1 X162.220 Y87.694 E-0.04325
G1 E-0.63088 F2100.00000
G1 Z0.800 F10800.000
G1 X165.213 Y87.717
G1 Z0.200
G1 E0.80000 F2100.00000
G1 F1200.000
G1 X165.213 Y87.699 E0.00057
G1 X165.694 Y87.699 E0.01507
G1 X165.700 Y87.829 E0.00410
G1 X165.212 Y87.845 E0.01529
G1 X165.213 Y87.777 E0.00215
G1 F8640.000
G1 X165.213 Y87.699 E-0.01804
G1 X165.694 Y87.699 E-0.11099
G1 X165.700 Y87.829 E-0.03021
G1 X165.212 Y87.845 E-0.11259
G1 X165.213 Y87.777 E-0.01581
G1 E-0.51236 F2100.00000
G1 Z0.800 F10800.000
G1 X163.752 Y85.172
G1 Z0.200
G1 E0.80000 F2100.00000
G1 F1200.000
G1 X163.295 Y84.945 E0.01600
G1 X163.566 Y83.281 E0.05287
G1 X163.875 Y83.497 E0.01181
G1 X164.372 Y83.894 E0.01997
G1 X165.258 Y84.735 E0.03828
G1 X164.663 Y84.793 E0.01874
G1 X164.104 Y84.975 E0.01843
G1 X163.805 Y85.143 E0.01075
G1 F8640.000
G1 X163.295 Y84.945 E-0.12617
G1 X163.566 Y83.281 E-0.38932
G1 X163.875 Y83.497 E-0.08696
G1 X164.372 Y83.894 E-0.14704
G1 X164.405 Y83.926 E-0.01052
G1 E-0.04000 F2100.00000
G1 Z0.800 F10800.000
G1 X162.731 Y82.850
G1 Z0.200
G1 E0.80000 F2100.00000
G1 F1200.000
G1 X162.034 Y82.850 E0.02186
G1 X162.031 Y82.705 E0.00455
G1 X162.323 Y82.721 E0.00916
G1 X162.675 Y82.827 E0.01154
G1 F8640.000
G1 X162.034 Y82.850 E-0.14830
G1 X162.031 Y82.705 E-0.03349
G1 X162.323 Y82.721 E-0.06748
G1 X162.675 Y82.827 E-0.08498
G1 E-0.46574 F2100.00000
G1 Z0.800 F10800.000
G1 X163.839 Y83.951
G1 Z0.200
G1 E0.80000 F2100.00000
G1 F1200.000
G1 X164.127 Y84.181 E0.01154
G1 X164.441 Y84.469 E0.01336
G1 X163.952 Y84.628 E0.01612
G1 X163.744 Y84.744 E0.00745
G1 X163.713 Y84.726 E0.00113
G1 X163.829 Y84.010 E0.02276
G1 F8640.000
G1 X164.127 Y84.181 E-0.07914
G1 X164.441 Y84.469 E-0.09837
G1 X163.952 Y84.628 E-0.11874
G1 X163.744 Y84.744 E-0.05488
G1 X163.713 Y84.726 E-0.00835
G1 X163.829 Y84.010 E-0.16758
G1 E-0.27293 F2100.00000
G1 Z0.800 F10800.000
G1 X165.218 Y80.426
G1 Z0.200
G1 E0.80000 F2100.00000
G1 F1200.000
G1 X165.193 Y79.314 E0.03487
G1 X168.906 Y79.314 E0.11642
G1 X168.906 Y86.337 E0.22020
G1 X168.749 Y86.337 E0.00493
G1 X168.948 Y86.971 E0.02085
G1 X169.005 Y87.562 E0.01861
G1 X168.990 Y88.254 E0.02172
G1 X168.866 Y88.877 E0.01992
G1 X168.633 Y89.433 E0.01888
G1 X168.440 Y89.761 E0.01191
G1 X168.055 Y90.230 E0.01905
G1 X167.569 Y90.630 E0.01974
G1 X167.014 Y90.931 E0.01979
G1 X166.390 Y91.125 E0.02048
G1 X165.814 Y91.180 E0.01815
G1 X164.242 Y91.180 E0.04928
G1 X164.006 Y89.657 E0.04834
G1 X163.723 Y89.657 E0.00887
G1 X163.475 Y91.180 E0.04840
G1 X162.786 Y91.180 E0.02162
G1 X164.865 Y92.918 E0.08497
G1 X167.129 Y91.026 E0.09252
G1 X168.906 Y91.857 E0.06151
G1 X168.910 Y97.919 E0.19007
G1 X168.741 Y97.919 E0.00529
G1 X168.870 Y98.263 E0.01151
G1 X168.955 Y98.580 E0.01030
G1 X169.003 Y99.080 E0.01575
G1 X169.003 Y99.622 E0.01701
G1 X168.952 Y100.148 E0.01657
G1 X168.774 Y100.722 E0.01885
G1 X168.509 Y101.214 E0.01751
G1 X168.174 Y101.627 E0.01669
G1 X168.321 Y101.775 E0.00655
G1 X168.646 Y102.258 E0.01825
G1 X168.876 Y102.804 E0.01859
G1 X168.991 Y103.382 E0.01846
G1 X169.004 Y104.152 E0.02416
G1 X168.952 Y104.689 E0.01691
G1 X168.774 Y105.263 E0.01885
G1 X168.509 Y105.755 E0.01751
G1 X168.318 Y106.005 E0.00985
G1 X168.108 Y106.242 E0.00995
G1 X168.004 Y106.328 E0.00422
G1 X168.357 Y106.758 E0.01746
G1 X168.657 Y107.315 E0.01982
G1 X168.850 Y107.938 E0.02045
G1 X168.905 Y108.514 E0.01815
G1 X168.905 Y117.084 E0.26870
G1 X168.773 Y117.084 E0.00413
G1 X168.875 Y117.326 E0.00824
G1 X168.991 Y117.903 E0.01846
G1 X169.004 Y118.674 E0.02416
G1 X168.951 Y119.211 E0.01691
G1 X168.774 Y119.785 E0.01885
G1 X168.508 Y120.276 E0.01751
G1 X168.178 Y120.683 E0.01642
G1 X168.497 Y121.071 E0.01573
G1 X168.761 Y121.562 E0.01749
G1 X168.888 Y121.923 E0.01199
G1 X168.981 Y122.492 E0.01807
G1 X170.905 Y122.464 E0.06033
G1 X170.907 Y126.166 E0.11609
G1 X168.639 Y126.166 E0.07113
G1 X168.753 Y126.376 E0.00751
G1 X168.947 Y127.000 E0.02048
G1 X169.002 Y127.577 E0.01815
G1 X169.002 Y128.216 E0.02004
G1 X168.946 Y128.792 E0.01815
G1 X168.754 Y129.415 E0.02045
G1 X168.454 Y129.971 E0.01982
G1 X168.053 Y130.460 E0.01981
G1 X167.567 Y130.860 E0.01974
G1 X167.013 Y131.161 E0.01979
G1 X166.413 Y131.347 E0.01970
G1 X166.023 Y131.399 E0.01233
G1 X161.701 Y131.399 E0.13549
G1 X161.312 Y131.347 E0.01233
G1 X160.712 Y131.161 E0.01970
G1 X160.157 Y130.859 E0.01979
G1 X159.671 Y130.459 E0.01974
G1 X159.270 Y129.971 E0.01981
G1 X158.983 Y129.437 E0.01901
G1 X158.867 Y129.107 E0.01097
G1 X158.776 Y128.766 E0.01109
G1 X158.722 Y128.215 E0.01734
G1 X158.722 Y127.576 E0.02004
G1 X158.778 Y127.000 E0.01815
G1 X158.972 Y126.376 E0.02048
G1 X159.273 Y125.821 E0.01979
G1 X159.657 Y125.355 E0.01895
G1 X159.911 Y125.130 E0.01065
G1 X160.179 Y124.925 E0.01057
G1 X160.712 Y124.636 E0.01902
G1 X160.822 Y124.602 E0.00362
G1 X160.822 Y123.685 E0.02874
G1 X160.797 Y123.619 E0.00221
G1 X160.722 Y122.970 E0.02048
G1 X160.737 Y122.479 E0.01543
G1 X160.783 Y122.133 E0.01092
G1 X160.954 Y121.583 E0.01806
G1 X161.219 Y121.092 E0.01751
G1 X161.549 Y120.685 E0.01642
G1 X161.231 Y120.298 E0.01570
G1 X160.954 Y119.785 E0.01828
G1 X160.776 Y119.210 E0.01885
G1 X160.725 Y118.685 E0.01657
G1 X160.725 Y118.142 E0.01701
G1 X160.773 Y117.642 E0.01575
G1 X160.943 Y117.083 E0.01831
G1 X160.822 Y117.083 E0.00379
G1 X160.823 Y114.603 E0.07777
G1 X160.798 Y114.537 E0.00221
G1 X160.723 Y113.888 E0.02048
G1 X160.737 Y113.397 E0.01543
G1 X160.784 Y113.051 E0.01092
G1 X160.954 Y112.501 E0.01806
G1 X161.040 Y112.342 E0.00566
G1 X158.821 Y112.342 E0.06957
G1 X158.821 Y108.514 E0.12004
G1 X158.877 Y107.938 E0.01815
G1 X159.069 Y107.314 E0.02045
G1 X159.357 Y106.779 E0.01905
G1 X159.789 Y106.253 E0.02134
G1 X160.259 Y105.867 E0.01907
G1 X160.793 Y105.580 E0.01901
G1 X161.072 Y105.482 E0.00927
G1 X160.954 Y105.263 E0.00779
G1 X160.776 Y104.689 E0.01885
G1 X160.725 Y104.163 E0.01657
G1 X160.725 Y103.621 E0.01701
G1 X160.774 Y103.121 E0.01575
G1 X160.967 Y102.498 E0.02044
G1 X161.231 Y102.008 E0.01747
G1 X161.549 Y101.621 E0.01567
G1 X161.231 Y101.235 E0.01567
G1 X160.954 Y100.722 E0.01828
G1 X160.777 Y100.148 E0.01885
G1 X160.725 Y99.622 E0.01657
G1 X160.725 Y99.080 E0.01701
G1 X160.774 Y98.580 E0.01575
G1 X160.859 Y98.262 E0.01030
G1 X160.987 Y97.918 E0.01151
G1 X158.821 Y97.918 E0.06792
G1 X158.821 Y94.229 E0.11568
G1 X160.823 Y94.239 E0.06277
G1 X160.823 Y91.856 E0.07469
G1 X162.270 Y91.180 E0.05006
G1 X161.913 Y91.180 E0.01118
G1 X161.337 Y91.124 E0.01815
G1 X160.736 Y90.938 E0.01974
G1 X160.140 Y90.615 E0.02126
G1 X159.673 Y90.230 E0.01898
G1 X159.272 Y89.742 E0.01980
G1 X158.972 Y89.185 E0.01982
G1 X158.787 Y88.586 E0.01967
G1 X158.737 Y88.211 E0.01185
G1 X158.723 Y87.562 E0.02037
G1 X158.780 Y86.971 E0.01861
G1 X158.973 Y86.347 E0.02049
G1 X159.274 Y85.792 E0.01979
G1 X159.719 Y85.272 E0.02144
G1 X159.274 Y84.750 E0.02150
G1 X158.973 Y84.196 E0.01979
G1 X158.787 Y83.596 E0.01970
G1 X158.735 Y83.206 E0.01231
G1 X158.734 Y82.353 E0.02676
G1 X158.782 Y81.975 E0.01196
G1 X158.956 Y81.376 E0.01954
G1 X159.258 Y80.803 E0.02032
G1 X159.675 Y80.299 E0.02051
G1 X160.171 Y79.906 E0.01983
G1 X160.475 Y79.737 E0.01091
G1 X160.793 Y79.589 E0.01100
G1 X161.432 Y79.411 E0.02079
G1 X162.084 Y79.358 E0.02050
G1 X162.737 Y79.408 E0.02053
G1 X163.334 Y79.541 E0.01919
G1 X163.668 Y79.651 E0.01102
G1 X164.429 Y79.971 E0.02590
G1 X165.169 Y80.392 E0.02668
G1 F8640.000
G1 X165.193 Y79.314 E-0.24885
G1 X167.407 Y79.314 E-0.51115
G1 E-0.04000 F2100.00000
G1 Z0.800 F10800.000
G1 X167.186 Y91.469
G1 Z0.200
G1 E0.80000 F2100.00000
G1 F1200.000
G1 X168.529 Y92.097 E0.04646
G1 X168.529 Y94.174 E0.06515
G1 X167.999 Y94.602 E0.02135
G1 X168.522 Y94.586 E0.01641
