; generated by PrusaSlicer 2.2.0+win64 on 2020-07-15 at 16:54:42 UTC

; 

; external perimeters extrusion width = 0.45mm
; perimeters extrusion width = 0.45mm
; infill extrusion width = 0.45mm
; solid infill extrusion width = 0.45mm
; top infill extrusion width = 0.40mm
; first layer extrusion width = 0.42mm

M73 P0 R132
M73 Q0 S133
M201 X1000 Y1000 Z200 E5000 ; sets maximum accelerations, mm/sec^2
M203 X200 Y200 Z12 E120 ; sets maximum feedrates, mm/sec
M204 P1250 R1250 T1250 ; sets acceleration (P, T) and retract acceleration (R), mm/sec^2
M205 X8.00 Y8.00 Z0.40 E4.50 ; sets the jerk limits, mm/sec
M205 S0 T0 ; sets the minimum extruding and travel feed rate, mm/sec
M107
M862.3 P "MK3S" ; printer model check
M862.1 P0.4 ; nozzle diameter check
M115 U3.9.0 ; tell printer latest fw version
G90 ; use absolute coordinates
M83 ; extruder relative mode
M104 S215 ; set extruder temp
M140 S60 ; set bed temp
M190 S60 ; wait for bed temp
M109 S215 ; wait for extruder temp
G28 W ; home all without mesh bed level
G80 ; mesh bed leveling
G1 Y-3.0 F1000.0 ; go outside print area
G92 E0.0
G1 X60.0 E9.0 F1000.0 ; intro line
M73 Q0 S133
M73 P0 R132
G1 X100.0 E12.5 F1000.0 ; intro line
G92 E0.0
M221 S95
G21 ; set units to millimeters
G90 ; use absolute coordinates
M83 ; use relative distances for extrusion
M900 K0.06 ; Filament gcode LA 1.5
M900 K30 ; Filament gcode LA 1.0
;BEFORE_LAYER_CHANGE
G92 E0.0
;0.2


G1 E-0.80000 F2100.00000
G1 Z0.600 F10800.000
;AFTER_LAYER_CHANGE
;0.2
G1 X65.143 Y23.916
G1 Z0.200
G1 E0.80000 F2100.00000
M204 S1000
G1 F1200.000
G1 X65.460 Y23.142 E0.02622
G1 X65.861 Y22.474 E0.02443
G1 X66.576 Y21.651 E0.03417
G1 X67.119 Y21.199 E0.02216
G1 X67.793 Y20.786 E0.02479
G1 X68.764 Y20.402 E0.03275
G1 X69.442 Y20.248 E0.02180
G1 X70.215 Y20.186 E0.02431
G1 X180.545 Y20.170 E3.45931
G1 X181.427 Y20.244 E0.02776
G1 X182.374 Y20.496 E0.03073
G1 X183.572 Y21.109 E0.04220
G1 X184.327 Y21.729 E0.03061
G1 X184.911 Y22.414 E0.02824
G1 X185.399 Y23.247 E0.03026
G1 X185.818 Y24.530 E0.04232
G1 X185.916 Y25.436 E0.02858
G1 X185.927 Y135.517 E3.45150
G1 X185.861 Y136.224 E0.02228
G1 X185.660 Y137.035 E0.02618
G1 X168.953 Y186.143 E1.62642
G1 X168.648 Y186.873 E0.02483
G1 X168.254 Y187.528 E0.02395
G1 X167.539 Y188.351 E0.03417
G1 X166.996 Y188.803 E0.02216
G1 X166.319 Y189.218 E0.02491
G1 X165.347 Y189.601 E0.03275
G1 X164.669 Y189.754 E0.02180
G1 X163.884 Y189.817 E0.02467
G1 X70.261 Y189.829 E2.93549
G1 X69.443 Y189.763 E0.02574
G1 X68.637 Y189.571 E0.02598
G1 X67.863 Y189.254 E0.02622
G1 X67.195 Y188.853 E0.02443
G1 X66.372 Y188.138 E0.03417
G1 X65.918 Y187.592 E0.02228
G1 X65.503 Y186.914 E0.02491
G1 X65.122 Y185.946 E0.03263
G1 X64.968 Y185.264 E0.02192
G1 X64.906 Y184.472 E0.02491
G1 X64.885 Y25.548 E4.98296
G1 X64.951 Y24.722 E0.02598
G1 X65.129 Y23.974 E0.02410
G1 F8640.000
G1 X65.460 Y23.142 E-0.20676
G1 X65.861 Y22.474 E-0.17990
G1 X66.576 Y21.651 E-0.25167
G1 X66.981 Y21.314 E-0.12166
G1 E-0.04000 F2100.00000
G1 Z0.800 F10800.000
G1 X119.688 Y106.822
G1 Z0.200
G1 E0.80000 F2100.00000
G1 F1200.000
G1 X120.079 Y106.713 E0.01274
G1 X134.179 Y106.712 E0.44210
G1 X134.486 Y106.767 E0.00978
G1 X134.868 Y107.035 E0.01461
G1 X135.054 Y107.356 E0.01163
G1 X135.105 Y107.637 E0.00895
G1 X135.105 Y111.880 E0.13305
G1 X135.023 Y112.234 E0.01139
G1 X134.955 Y112.322 E0.00348
G1 X134.956 Y116.725 E0.13804
G1 X135.023 Y116.813 E0.00348
G1 X135.106 Y117.167 E0.01139
G1 X135.107 Y121.410 E0.13305
G1 X135.056 Y121.691 E0.00895
G1 X134.883 Y121.989 E0.01080
G1 X134.600 Y122.228 E0.01162
G1 X134.208 Y122.336 E0.01274
G1 X120.108 Y122.338 E0.44210
G1 X119.827 Y122.286 E0.00894
G1 X119.529 Y122.114 E0.01080
G1 X119.291 Y121.830 E0.01162
G1 X119.183 Y121.439 E0.01274
G1 X119.182 Y117.169 E0.13389
G1 X119.265 Y116.815 E0.01139
G1 X119.332 Y116.727 E0.00348
G1 X119.331 Y112.399 E0.13569
G1 X119.264 Y112.311 E0.00348
G1 X119.181 Y111.957 E0.01139
G1 X119.181 Y107.639 E0.13541
G1 X119.232 Y107.358 E0.00895
G1 X119.404 Y107.060 E0.01080
G1 X119.642 Y106.860 E0.00974
G1 X119.591 Y107.490 F10800.000
G1 F1200.000
G1 X119.697 Y107.306 E0.00667
G1 X119.867 Y107.163 E0.00696
G1 X120.131 Y107.091 E0.00856
G1 X134.145 Y107.089 E0.43943
G1 X134.338 Y107.124 E0.00613
G1 X134.583 Y107.296 E0.00940
G1 X134.694 Y107.488 E0.00696
G1 X134.728 Y107.671 E0.00583
G1 X134.728 Y111.837 E0.13062
G1 X134.674 Y112.070 E0.00751
G1 X134.578 Y112.195 E0.00494
G1 X134.579 Y116.852 E0.14600
G1 X134.674 Y116.977 E0.00494
G1 X134.729 Y117.210 E0.00751
G1 X134.730 Y121.376 E0.13062
G1 X134.696 Y121.559 E0.00583
G1 X134.590 Y121.743 E0.00667
G1 X134.420 Y121.886 E0.00696
G1 X134.157 Y121.959 E0.00856
G1 X120.142 Y121.961 E0.43943
G1 X119.959 Y121.927 E0.00583
G1 X119.775 Y121.821 E0.00667
G1 X119.632 Y121.651 E0.00696
G1 X119.560 Y121.388 E0.00856
G1 X119.559 Y117.212 E0.13091
G1 X119.614 Y116.979 E0.00751
G1 X119.709 Y116.854 E0.00494
G1 X119.708 Y112.272 E0.14365
G1 X119.613 Y112.147 E0.00494
G1 X119.558 Y111.914 E0.00751
G1 X119.558 Y107.673 E0.13297
G1 X119.580 Y107.549 E0.00395
G1 X119.455 Y107.327 F10800.000
G1 F8640.000
G1 X119.697 Y107.306 E-0.06231
G1 X119.867 Y107.163 E-0.05124
G1 X120.131 Y107.091 E-0.06304
G1 X122.657 Y107.090 E-0.58341
G1 E-0.04000 F2100.00000
G1 Z0.800 F10800.000
G1 X119.690 Y125.872
G1 Z0.200
G1 E0.80000 F2100.00000
G1 F1200.000
G1 X120.082 Y125.763 E0.01274
G1 X134.182 Y125.762 E0.44210
G1 X134.489 Y125.817 E0.00978
G1 X134.871 Y126.085 E0.01461
G1 X135.056 Y126.406 E0.01163
G1 X135.107 Y126.687 E0.00894
G1 X135.108 Y130.930 E0.13305
G1 X135.025 Y131.284 E0.01139
G1 X134.958 Y131.372 E0.00348
G1 X134.959 Y135.775 E0.13804
G1 X135.026 Y135.863 E0.00348
G1 X135.109 Y136.217 E0.01139
G1 X135.109 Y140.460 E0.13305
G1 X135.058 Y140.741 E0.00895
G1 X134.886 Y141.039 E0.01080
G1 X134.602 Y141.278 E0.01162
G1 X134.211 Y141.386 E0.01274
G1 X120.111 Y141.388 E0.44210
G1 X119.830 Y141.336 E0.00895
G1 X119.532 Y141.164 E0.01080
G1 X119.293 Y140.881 E0.01162
G1 X119.185 Y140.489 E0.01274
G1 X119.185 Y136.219 E0.13389
G1 X119.268 Y135.865 E0.01139
G1 X119.335 Y135.777 E0.00348
G1 X119.334 Y131.449 E0.13569
G1 X119.267 Y131.361 E0.00348
G1 X119.184 Y131.007 E0.01139
G1 X119.183 Y126.689 E0.13541
G1 X119.234 Y126.408 E0.00895
G1 X119.407 Y126.110 E0.01080
G1 X119.644 Y125.910 E0.00974
G1 X119.594 Y126.540 F10800.000
G1 F1200.000
G1 X119.700 Y126.356 E0.00667
G1 X119.870 Y126.213 E0.00696
G1 X120.133 Y126.141 E0.00856
G1 X134.148 Y126.139 E0.43943
G1 X134.340 Y126.174 E0.00613
G1 X134.586 Y126.346 E0.00940
G1 X134.697 Y126.538 E0.00696
G1 X134.730 Y126.721 E0.00583
G1 X134.731 Y130.887 E0.13062
G1 X134.676 Y131.120 E0.00751
G1 X134.581 Y131.245 E0.00494
G1 X134.582 Y135.902 E0.14600
G1 X134.677 Y136.027 E0.00494
G1 X134.732 Y136.260 E0.00751
G1 X134.732 Y140.426 E0.13062
G1 X134.699 Y140.609 E0.00583
G1 X134.593 Y140.793 E0.00667
G1 X134.423 Y140.936 E0.00696
G1 X134.159 Y141.009 E0.00856
G1 X120.145 Y141.011 E0.43943
G1 X119.962 Y140.977 E0.00583
G1 X119.778 Y140.871 E0.00667
G1 X119.635 Y140.701 E0.00696
G1 X119.562 Y140.438 E0.00856
G1 X119.562 Y136.262 E0.13091
G1 X119.616 Y136.029 E0.00751
G1 X119.712 Y135.904 E0.00494
G1 X119.711 Y131.322 E0.14365
G1 X119.616 Y131.197 E0.00494
G1 X119.561 Y130.964 E0.00751
G1 X119.560 Y126.723 E0.13297
G1 X119.583 Y126.599 E0.00395
G1 X119.457 Y126.377 F10800.000
G1 F8640.000
G1 X119.700 Y126.356 E-0.06231
G1 X119.870 Y126.213 E-0.05124
G1 X120.133 Y126.141 E-0.06303
G1 X122.660 Y126.140 E-0.58341
G1 E-0.04000 F2100.00000
G1 Z0.800 F10800.000
G1 X119.693 Y144.922
G1 Z0.200
G1 E0.80000 F2100.00000
G1 F1200.000
G1 X120.085 Y144.813 E0.01274
G1 X134.185 Y144.812 E0.44210
G1 X134.492 Y144.867 E0.00978
G1 X134.873 Y145.135 E0.01461
G1 X135.059 Y145.456 E0.01163
G1 X135.110 Y145.737 E0.00895
G1 X135.111 Y149.980 E0.13305
G1 X135.028 Y150.334 E0.01139
G1 X134.961 Y150.422 E0.00348
G1 X134.961 Y154.825 E0.13804
G1 X135.028 Y154.913 E0.00348
G1 X135.111 Y155.267 E0.01139
G1 X135.112 Y159.510 E0.13305
G1 X135.061 Y159.791 E0.00895
G1 X134.889 Y160.089 E0.01080
G1 X134.605 Y160.328 E0.01162
G1 X134.213 Y160.436 E0.01274
G1 X120.113 Y160.438 E0.44210
G1 X119.832 Y160.386 E0.00895
G1 X119.534 Y160.214 E0.01080
G1 X119.296 Y159.930 E0.01162
G1 X119.188 Y159.539 E0.01274
G1 X119.187 Y155.269 E0.13389
G1 X119.270 Y154.915 E0.01139
G1 X119.337 Y154.827 E0.00348
G1 X119.337 Y150.499 E0.13569
G1 X119.269 Y150.411 E0.00348
G1 X119.186 Y150.057 E0.01139
G1 X119.186 Y145.739 E0.13541
G1 X119.237 Y145.458 E0.00895
G1 X119.409 Y145.160 E0.01080
G1 X119.647 Y144.960 E0.00974
G1 X119.596 Y145.590 F10800.000
G1 F1200.000
G1 X119.703 Y145.406 E0.00667
G1 X119.873 Y145.263 E0.00696
G1 X120.136 Y145.191 E0.00856
G1 X134.151 Y145.189 E0.43943
G1 X134.343 Y145.224 E0.00613
G1 X134.588 Y145.396 E0.00940
G1 X134.700 Y145.588 E0.00696
G1 X134.733 Y145.771 E0.00583
G1 X134.734 Y149.937 E0.13062
G1 X134.679 Y150.170 E0.00751
G1 X134.584 Y150.295 E0.00494
G1 X134.584 Y154.952 E0.14600
G1 X134.680 Y155.077 E0.00494
G1 X134.734 Y155.310 E0.00751
G1 X134.735 Y159.476 E0.13062
G1 X134.701 Y159.659 E0.00583
G1 X134.595 Y159.843 E0.00667
G1 X134.425 Y159.986 E0.00696
G1 X134.162 Y160.059 E0.00856
G1 X120.147 Y160.061 E0.43943
G1 X119.964 Y160.027 E0.00583
G1 X119.780 Y159.921 E0.00667
G1 X119.638 Y159.751 E0.00696
G1 X119.565 Y159.488 E0.00856
G1 X119.564 Y155.312 E0.13091
G1 X119.619 Y155.079 E0.00751
G1 X119.714 Y154.954 E0.00494
G1 X119.714 Y150.372 E0.14365
G1 X119.618 Y150.247 E0.00494
G1 X119.564 Y150.014 E0.00751
G1 X119.563 Y145.773 E0.13297
G1 X119.586 Y145.649 E0.00395
G1 X119.460 Y145.427 F10800.000
G1 F8640.000
G1 X119.703 Y145.406 E-0.06230
G1 X119.873 Y145.263 E-0.05125
G1 X120.136 Y145.191 E-0.06303
G1 X122.662 Y145.190 E-0.58341
G1 E-0.04000 F2100.00000
G1 Z0.800 F10800.000
G1 X119.696 Y163.972
G1 Z0.200
G1 E0.80000 F2100.00000
G1 F1200.000
G1 X120.087 Y163.863 E0.01274
G1 X134.187 Y163.862 E0.44210
G1 X134.494 Y163.917 E0.00978
G1 X134.876 Y164.185 E0.01461
G1 X135.061 Y164.506 E0.01164
G1 X135.113 Y164.787 E0.00894
G1 X135.113 Y169.030 E0.13306
G1 X135.030 Y169.384 E0.01139
G1 X134.963 Y169.472 E0.00348
G1 X134.964 Y173.875 E0.13804
G1 X135.031 Y173.963 E0.00348
G1 X135.114 Y174.317 E0.01139
G1 X135.114 Y178.560 E0.13306
G1 X135.063 Y178.841 E0.00895
G1 X134.891 Y179.139 E0.01080
G1 X134.607 Y179.378 E0.01162
G1 X134.216 Y179.486 E0.01274
G1 X120.116 Y179.488 E0.44210
G1 X119.835 Y179.436 E0.00894
G1 X119.537 Y179.264 E0.01080
G1 X119.299 Y178.980 E0.01162
G1 X119.190 Y178.589 E0.01274
G1 X119.190 Y174.319 E0.13389
G1 X119.273 Y173.965 E0.01139
G1 X119.340 Y173.877 E0.00348
G1 X119.339 Y169.549 E0.13569
G1 X119.272 Y169.461 E0.00348
G1 X119.189 Y169.107 E0.01139
G1 X119.188 Y164.789 E0.13541
G1 X119.240 Y164.508 E0.00895
G1 X119.412 Y164.210 E0.01080
G1 X119.650 Y164.010 E0.00974
G1 X119.599 Y164.640 F10800.000
G1 F1200.000
G1 X119.705 Y164.456 E0.00667
G1 X119.875 Y164.313 E0.00696
G1 X120.138 Y164.241 E0.00856
G1 X134.153 Y164.239 E0.43943
G1 X134.345 Y164.274 E0.00613
G1 X134.591 Y164.446 E0.00940
G1 X134.702 Y164.638 E0.00697
G1 X134.736 Y164.821 E0.00583
G1 X134.736 Y168.987 E0.13062
G1 X134.681 Y169.220 E0.00751
G1 X134.586 Y169.345 E0.00494
G1 X134.587 Y174.002 E0.14600
G1 X134.682 Y174.127 E0.00494
G1 X134.737 Y174.360 E0.00751
G1 X134.737 Y178.526 E0.13062
G1 X134.704 Y178.709 E0.00583
G1 X134.598 Y178.893 E0.00667
G1 X134.428 Y179.036 E0.00696
G1 X134.165 Y179.109 E0.00856
G1 X120.150 Y179.111 E0.43943
G1 X119.967 Y179.077 E0.00583
G1 X119.783 Y178.971 E0.00667
G1 X119.640 Y178.801 E0.00696
G1 X119.567 Y178.538 E0.00856
G1 X119.567 Y174.362 E0.13091
G1 X119.621 Y174.129 E0.00751
G1 X119.717 Y174.004 E0.00494
G1 X119.716 Y169.422 E0.14365
G1 X119.621 Y169.297 E0.00494
G1 X119.566 Y169.064 E0.00751
G1 X119.566 Y164.823 E0.13297
G1 X119.588 Y164.699 E0.00395
G1 X119.463 Y164.477 F10800.000
G1 F8640.000
G1 X119.705 Y164.456 E-0.06231
G1 X119.875 Y164.313 E-0.05124
G1 X120.138 Y164.241 E-0.06304
G1 X122.665 Y164.240 E-0.58341
G1 E-0.04000 F2100.00000
G1 Z0.800 F10800.000
G1 X115.826 Y164.187
G1 Z0.200
G1 E0.80000 F2100.00000
G1 F1200.000
G1 X116.011 Y164.509 E0.01163
G1 X116.063 Y164.789 E0.00894
G1 X116.063 Y169.033 E0.13306
G1 X115.980 Y169.387 E0.01139
G1 X115.913 Y169.475 E0.00347
G1 X115.914 Y173.877 E0.13804
G1 X115.981 Y173.966 E0.00348
G1 X116.064 Y174.319 E0.01139
G1 X116.064 Y178.563 E0.13306
G1 X116.013 Y178.844 E0.00895
G1 X115.841 Y179.142 E0.01080
G1 X115.557 Y179.380 E0.01162
M73 Q0 S132
G1 X115.166 Y179.488 E0.01274
G1 X101.066 Y179.490 E0.44210
M73 P0 R131
G1 X100.785 Y179.439 E0.00894
G1 X100.487 Y179.267 E0.01080
G1 X100.249 Y178.983 E0.01161
G1 X100.140 Y178.592 E0.01274
G1 X100.140 Y174.321 E0.13389
G1 X100.223 Y173.968 E0.01139
G1 X100.290 Y173.880 E0.00348
G1 X100.289 Y169.552 E0.13569
G1 X100.222 Y169.464 E0.00348
G1 X100.139 Y169.110 E0.01139
G1 X100.138 Y164.791 E0.13541
G1 X100.190 Y164.511 E0.00895
G1 X100.362 Y164.212 E0.01080
G1 X100.646 Y163.974 E0.01162
G1 X101.037 Y163.866 E0.01274
G1 X115.137 Y163.864 E0.44210
G1 X115.444 Y163.920 E0.00978
G1 X115.777 Y164.153 E0.01273
G1 X115.295 Y164.276 F10800.000
G1 F1200.000
G1 X115.541 Y164.448 E0.00940
G1 X115.652 Y164.641 E0.00696
G1 X115.686 Y164.823 E0.00583
G1 X115.686 Y168.989 E0.13062
G1 X115.631 Y169.222 E0.00751
G1 X115.536 Y169.348 E0.00494
G1 X115.537 Y174.004 E0.14600
G1 X115.632 Y174.130 E0.00494
G1 X115.687 Y174.363 E0.00751
G1 X115.687 Y178.529 E0.13062
G1 X115.654 Y178.712 E0.00583
G1 X115.548 Y178.896 E0.00667
G1 X115.378 Y179.038 E0.00696
G1 X115.115 Y179.111 E0.00856
G1 X101.100 Y179.113 E0.43943
G1 X100.917 Y179.080 E0.00583
G1 X100.733 Y178.973 E0.00667
G1 X100.590 Y178.804 E0.00696
G1 X100.517 Y178.540 E0.00856
G1 X100.517 Y174.365 E0.13092
G1 X100.571 Y174.132 E0.00751
G1 X100.667 Y174.006 E0.00494
G1 X100.666 Y169.425 E0.14365
G1 X100.571 Y169.299 E0.00494
G1 X100.516 Y169.066 E0.00751
G1 X100.516 Y164.825 E0.13297
G1 X100.549 Y164.643 E0.00583
G1 X100.655 Y164.459 E0.00667
G1 X100.825 Y164.316 E0.00696
G1 X101.088 Y164.243 E0.00856
G1 X115.103 Y164.241 E0.43943
G1 X115.236 Y164.265 E0.00424
G1 X115.536 Y164.097 F10800.000
G1 F8640.000
G1 X115.541 Y164.448 E-0.08205
G1 X115.652 Y164.641 E-0.05129
G1 X115.686 Y164.823 E-0.04291
G1 X115.686 Y167.352 E-0.58376
G1 E-0.04000 F2100.00000
G1 Z0.800 F10800.000
G1 X115.555 Y160.330
G1 Z0.200
G1 E0.80000 F2100.00000
G1 F1200.000
G1 X115.163 Y160.438 E0.01274
G1 X101.063 Y160.440 E0.44210
G1 X100.782 Y160.389 E0.00895
G1 X100.484 Y160.217 E0.01080
G1 X100.246 Y159.933 E0.01162
G1 X100.138 Y159.542 E0.01274
G1 X100.137 Y155.271 E0.13389
G1 X100.220 Y154.918 E0.01139
G1 X100.287 Y154.830 E0.00348
G1 X100.287 Y150.502 E0.13569
G1 X100.219 Y150.414 E0.00348
G1 X100.136 Y150.060 E0.01139
G1 X100.136 Y145.741 E0.13541
G1 X100.187 Y145.461 E0.00895
G1 X100.359 Y145.162 E0.01080
G1 X100.643 Y144.924 E0.01162
G1 X101.035 Y144.816 E0.01274
G1 X115.135 Y144.814 E0.44210
G1 X115.442 Y144.870 E0.00978
G1 X115.823 Y145.137 E0.01461
G1 X116.009 Y145.459 E0.01163
G1 X116.060 Y145.739 E0.00895
G1 X116.061 Y149.983 E0.13306
G1 X115.978 Y150.336 E0.01139
G1 X115.911 Y150.425 E0.00348
G1 X115.911 Y154.827 E0.13804
G1 X115.978 Y154.916 E0.00348
G1 X116.061 Y155.269 E0.01139
G1 X116.062 Y159.513 E0.13305
G1 X116.011 Y159.794 E0.00895
G1 X115.839 Y160.092 E0.01080
G1 X115.601 Y160.292 E0.00973
G1 X115.651 Y159.662 F10800.000
G1 F1200.000
G1 X115.545 Y159.846 E0.00667
G1 X115.375 Y159.988 E0.00696
G1 X115.112 Y160.061 E0.00856
G1 X101.097 Y160.063 E0.43943
G1 X100.914 Y160.030 E0.00583
G1 X100.730 Y159.923 E0.00667
G1 X100.588 Y159.754 E0.00696
G1 X100.515 Y159.490 E0.00856
G1 X100.514 Y155.315 E0.13091
G1 X100.569 Y155.082 E0.00751
G1 X100.664 Y154.956 E0.00494
G1 X100.664 Y150.375 E0.14365
G1 X100.568 Y150.249 E0.00494
G1 X100.514 Y150.016 E0.00751
G1 X100.513 Y145.775 E0.13297
G1 X100.546 Y145.593 E0.00583
G1 X100.653 Y145.409 E0.00667
G1 X100.823 Y145.266 E0.00696
G1 X101.086 Y145.193 E0.00856
G1 X115.101 Y145.191 E0.43943
G1 X115.293 Y145.226 E0.00613
G1 X115.539 Y145.398 E0.00940
