; generated by PrusaSlicer 2.2.0+win64 on 2020-07-15 at 10:15:22 UTC

; 

; external perimeters extrusion width = 0.45mm
; perimeters extrusion width = 0.45mm
; infill extrusion width = 0.45mm
; solid infill extrusion width = 0.45mm
; top infill extrusion width = 0.40mm
; first layer extrusion width = 0.42mm

M73 P0 R72
M73 Q0 S72
M201 X1000 Y1000 Z1000 E5000 ; sets maximum accelerations, mm/sec^2
M203 X200 Y200 Z12 E120 ; sets maximum feedrates, mm/sec
M204 P1250 R1250 T1250 ; sets acceleration (P, T) and retract acceleration (R), mm/sec^2
M205 X8.00 Y8.00 Z0.40 E4.50 ; sets the jerk limits, mm/sec
M205 S0 T0 ; sets the minimum extruding and travel feed rate, mm/sec
M107
M862.3 P "MK3S" ; printer model check
M862.1 P0.4 ; nozzle diameter check
M115 U3.8.1 ; tell printer latest fw version
G90 ; use absolute coordinates
M83 ; extruder relative mode
M104 S215 ; set extruder temp
M140 S60 ; set bed temp
M190 S60 ; wait for bed temp
M109 S215 ; wait for extruder temp
G28 W ; home all without mesh bed level
G80 ; mesh bed leveling
G1 Y-3.0 F1000.0 ; go outside print area
G92 E0.0
G1 X60.0 E9.0 F1000.0 ; intro line
M73 Q0 S72
M73 P0 R72
G1 X100.0 E12.5 F1000.0 ; intro line
G92 E0.0
M221 S95
G21 ; set units to millimeters
G90 ; use absolute coordinates
M83 ; use relative distances for extrusion
M900 K30 ; Filament gcode
;BEFORE_LAYER_CHANGE
G92 E0.0
;0.2


G1 E-0.80000 F2100.00000
G1 Z0.600 F10800.000
;AFTER_LAYER_CHANGE
;0.2
G1 X112.439 Y93.987
G1 Z0.200
G1 E0.80000 F2100.00000
M204 S1000
G1 F1200.000
G1 X112.930 Y93.183 E0.02955
G1 X113.338 Y92.804 E0.01745
G1 X113.810 Y92.516 E0.01733
G1 X114.334 Y92.328 E0.01745
G1 X114.885 Y92.248 E0.01745
G1 X135.004 Y92.246 E0.63084
G1 X136.005 Y92.436 E0.03195
G1 X136.866 Y92.974 E0.03183
G1 X137.473 Y93.788 E0.03183
G1 X137.745 Y94.770 E0.03195
G1 X137.753 Y115.086 E0.63700
G1 X137.561 Y116.013 E0.02968
G1 X137.070 Y116.817 E0.02955
G1 X136.646 Y117.208 E0.01809
G1 X136.149 Y117.503 E0.01809
G1 X135.603 Y117.687 E0.01809
G1 X135.029 Y117.754 E0.01809
G1 X114.914 Y117.753 E0.63071
G1 X113.987 Y117.561 E0.02968
G1 X113.183 Y117.070 E0.02955
G1 X112.792 Y116.646 E0.01809
G1 X112.497 Y116.149 E0.01809
G1 X112.313 Y115.603 E0.01809
G1 X112.246 Y115.029 E0.01809
G1 X112.247 Y94.914 E0.63071
G1 X112.427 Y94.046 E0.02779
G1 F8640.000
G1 X112.930 Y93.183 E-0.23070
G1 X113.338 Y92.804 E-0.12853
G1 X113.810 Y92.516 E-0.12759
G1 X114.334 Y92.328 E-0.12853
G1 X114.885 Y92.248 E-0.12853
G1 X114.954 Y92.248 E-0.01611
G1 E-0.04000 F2100.00000
G1 Z0.800 F10800.000
G1 X113.992 Y92.847
G1 Z0.200
G1 E0.80000 F2100.00000
G1 F1200.000
G1 X114.915 Y92.624 E0.02977
G1 X135.004 Y92.623 E0.62987
G1 X135.871 Y92.788 E0.02767
G1 X136.620 Y93.261 E0.02778
G1 X137.143 Y93.971 E0.02767
G1 X137.371 Y94.824 E0.02767
G1 X137.376 Y115.065 E0.63464
G1 X137.209 Y115.878 E0.02602
G1 X136.773 Y116.584 E0.02602
G1 X136.407 Y116.916 E0.01550
G1 X135.980 Y117.166 E0.01550
G1 X135.511 Y117.321 E0.01550
G1 X135.020 Y117.377 E0.01550
G1 X114.931 Y117.376 E0.62987
G1 X114.122 Y117.209 E0.02590
G1 X113.416 Y116.773 E0.02602
G1 X113.084 Y116.407 E0.01550
G1 X112.834 Y115.980 E0.01550
G1 X112.679 Y115.511 E0.01550
G1 X112.623 Y115.020 E0.01550
G1 X112.624 Y94.931 E0.62987
G1 X112.791 Y94.122 E0.02590
G1 X113.227 Y93.416 E0.02602
G1 X113.944 Y92.883 E0.02801
G1 F8640.000
G1 X114.915 Y92.624 E-0.23208
G1 X117.201 Y92.624 E-0.52792
G1 E-0.04000 F2100.00000
G1 Z0.800 F10800.000
G1 X115.787 Y95.787
G1 Z0.200
G1 E0.80000 F2100.00000
G1 F1200.000
G1 X134.213 Y95.787 E0.57773
G1 X134.213 Y114.213 E0.57773
G1 X115.787 Y114.213 E0.57773
G1 X115.787 Y95.847 E0.57585
G1 X115.410 Y95.410 F10800.000
G1 F1200.000
G1 X134.590 Y95.410 E0.60138
G1 X134.590 Y114.590 E0.60138
G1 X115.410 Y114.590 E0.60138
G1 X115.410 Y95.470 E0.59949
G1 X115.796 Y95.514 F10800.000
G1 F8640.000
G1 X118.701 Y95.460 E-0.76000
G1 E-0.04000 F2100.00000
G1 Z0.800 F10800.000
G1 X134.100 Y96.667
G1 Z0.200
G1 E0.80000 F2100.00000
G1 F1200.000
G1 X133.503 Y96.070 E0.02664
G1 X132.966 Y96.070 E0.01692
G1 X133.930 Y97.034 E0.04299
G1 X133.930 Y97.570 E0.01692
G1 X132.430 Y96.070 E0.06692
G1 X131.893 Y96.070 E0.01692
G1 X133.930 Y98.107 E0.09084
G1 X133.930 Y98.643 E0.01692
G1 X131.357 Y96.070 E0.11477
G1 X130.821 Y96.070 E0.01692
G1 X133.930 Y99.179 E0.13869
G1 X133.930 Y99.716 E0.01692
G1 X130.284 Y96.070 E0.16261
G1 X129.748 Y96.070 E0.01692
G1 X133.930 Y100.252 E0.18654
G1 X133.930 Y100.789 E0.01692
G1 X129.211 Y96.070 E0.21046
G1 X128.675 Y96.070 E0.01692
G1 X133.930 Y101.325 E0.23438
G1 X133.930 Y101.861 E0.01692
G1 X128.139 Y96.070 E0.25831
G1 X127.602 Y96.070 E0.01692
G1 X133.930 Y102.398 E0.28223
G1 X133.930 Y102.934 E0.01692
G1 X127.066 Y96.070 E0.30615
G1 X126.529 Y96.070 E0.01692
G1 X133.930 Y103.471 E0.33008
G1 X133.930 Y104.007 E0.01692
G1 X125.993 Y96.070 E0.35400
G1 X125.457 Y96.070 E0.01692
G1 X133.930 Y104.543 E0.37793
G1 X133.930 Y105.080 E0.01692
G1 X124.920 Y96.070 E0.40185
G1 X124.384 Y96.070 E0.01692
G1 X133.930 Y105.616 E0.42577
G1 X133.930 Y106.152 E0.01692
G1 X123.848 Y96.070 E0.44970
G1 X123.311 Y96.070 E0.01692
G1 X133.930 Y106.689 E0.47362
G1 X133.930 Y107.225 E0.01692
G1 X122.775 Y96.070 E0.49754
G1 X122.238 Y96.070 E0.01692
G1 X133.930 Y107.762 E0.52147
G1 X133.930 Y108.298 E0.01692
G1 X121.702 Y96.070 E0.54539
G1 X121.166 Y96.070 E0.01692
G1 X133.930 Y108.834 E0.56931
G1 X133.930 Y109.371 E0.01692
G1 X120.629 Y96.070 E0.59324
G1 X120.093 Y96.070 E0.01692
G1 X133.930 Y109.907 E0.61716
G1 X133.930 Y110.444 E0.01692
G1 X119.556 Y96.070 E0.64109
G1 X119.020 Y96.070 E0.01692
G1 X133.930 Y110.980 E0.66501
G1 X133.930 Y111.516 E0.01692
G1 X118.484 Y96.070 E0.68893
G1 X117.947 Y96.070 E0.01692
G1 X133.930 Y112.053 E0.71286
G1 X133.930 Y112.589 E0.01692
G1 X117.411 Y96.070 E0.73678
G1 X116.874 Y96.070 E0.01692
G1 X133.930 Y113.126 E0.76070
G1 X133.930 Y113.662 E0.01692
G1 X116.338 Y96.070 E0.78463
G1 X116.070 Y96.070 E0.00846
G1 X116.070 Y96.338 E0.00846
G1 X133.662 Y113.930 E0.78462
G1 X133.126 Y113.930 E0.01692
G1 X116.070 Y96.874 E0.76070
G1 X116.070 Y97.411 E0.01692
G1 X132.589 Y113.930 E0.73678
G1 X132.053 Y113.930 E0.01692
G1 X116.070 Y97.947 E0.71285
G1 X116.070 Y98.484 E0.01692
G1 X131.516 Y113.930 E0.68893
G1 X130.980 Y113.930 E0.01692
G1 X116.070 Y99.020 E0.66501
G1 X116.070 Y99.556 E0.01692
G1 X130.444 Y113.930 E0.64108
G1 X129.907 Y113.930 E0.01692
G1 X116.070 Y100.093 E0.61716
G1 X116.070 Y100.629 E0.01692
G1 X129.371 Y113.930 E0.59324
G1 X128.834 Y113.930 E0.01692
G1 X116.070 Y101.166 E0.56931
G1 X116.070 Y101.702 E0.01692
G1 X128.298 Y113.930 E0.54539
G1 X127.762 Y113.930 E0.01692
G1 X116.070 Y102.238 E0.52146
G1 X116.070 Y102.775 E0.01692
G1 X127.225 Y113.930 E0.49754
G1 X126.689 Y113.930 E0.01692
G1 X116.070 Y103.311 E0.47362
G1 X116.070 Y103.848 E0.01692
G1 X126.152 Y113.930 E0.44969
G1 X125.616 Y113.930 E0.01692
G1 X116.070 Y104.384 E0.42577
M73 Q1 S71
G1 X116.070 Y104.920 E0.01692
M73 P1 R71
G1 X125.080 Y113.930 E0.40185
G1 X124.543 Y113.930 E0.01692
G1 X116.070 Y105.457 E0.37792
G1 X116.070 Y105.993 E0.01692
G1 X124.007 Y113.930 E0.35400
G1 X123.470 Y113.930 E0.01692
G1 X116.070 Y106.530 E0.33008
G1 X116.070 Y107.066 E0.01692
G1 X122.934 Y113.930 E0.30615
G1 X122.398 Y113.930 E0.01692
G1 X116.070 Y107.602 E0.28223
G1 X116.070 Y108.139 E0.01692
G1 X121.861 Y113.930 E0.25830
G1 X121.325 Y113.930 E0.01692
G1 X116.070 Y108.675 E0.23438
G1 X116.070 Y109.211 E0.01692
G1 X120.789 Y113.930 E0.21046
G1 X120.252 Y113.930 E0.01692
G1 X116.070 Y109.748 E0.18653
G1 X116.070 Y110.284 E0.01692
G1 X119.716 Y113.930 E0.16261
G1 X119.179 Y113.930 E0.01692
G1 X116.070 Y110.821 E0.13869
G1 X116.070 Y111.357 E0.01692
G1 X118.643 Y113.930 E0.11476
G1 X118.107 Y113.930 E0.01692
G1 X116.070 Y111.893 E0.09084
G1 X116.070 Y112.430 E0.01692
G1 X117.570 Y113.930 E0.06691
G1 X117.034 Y113.930 E0.01692
G1 X116.070 Y112.966 E0.04299
G1 X116.070 Y113.503 E0.01692
G1 X116.667 Y114.100 E0.02664
M106 S255
;BEFORE_LAYER_CHANGE
G92 E0.0
;0.3


G1 F8640.000
G1 X116.070 Y113.503 E-0.19501
G1 X116.070 Y112.966 E-0.12385
G1 X117.034 Y113.930 E-0.31476
G1 X117.570 Y113.930 E-0.12385
G1 X117.562 Y113.922 E-0.00252
G1 E-0.04000 F2100.00000
G1 Z0.800 F10800.000
;AFTER_LAYER_CHANGE
;0.3
G1 X113.987 Y117.561
G1 Z0.300
G1 E0.80000 F2100.00000
G1 F3000.000
G1 X113.183 Y117.070 E0.01562
G1 X112.792 Y116.646 E0.00956
G1 X112.497 Y116.149 E0.00956
G1 X112.313 Y115.603 E0.00956
G1 X112.246 Y115.029 E0.00956
G1 X112.247 Y94.914 E0.33330
G1 X112.439 Y93.987 E0.01568
G1 X112.930 Y93.183 E0.01562
G1 X113.338 Y92.804 E0.00922
G1 X113.810 Y92.516 E0.00916
G1 X114.334 Y92.328 E0.00922
G1 X114.885 Y92.248 E0.00922
G1 X135.004 Y92.246 E0.33337
G1 X136.005 Y92.436 E0.01689
G1 X136.866 Y92.974 E0.01682
G1 X137.473 Y93.788 E0.01682
G1 X137.745 Y94.770 E0.01689
G1 X137.753 Y115.086 E0.33663
G1 X137.561 Y116.013 E0.01568
G1 X137.070 Y116.817 E0.01562
G1 X136.646 Y117.208 E0.00956
G1 X136.149 Y117.503 E0.00956
G1 X135.603 Y117.687 E0.00956
G1 X135.029 Y117.754 E0.00956
G1 X114.914 Y117.753 E0.33330
G1 X114.046 Y117.573 E0.01469
G1 X114.122 Y117.209 F10800.000
G1 F3000.000
G1 X113.416 Y116.773 E0.01375
G1 X113.084 Y116.407 E0.00819
G1 X112.834 Y115.980 E0.00819
G1 X112.679 Y115.511 E0.00819
G1 X112.623 Y115.020 E0.00819
G1 X112.624 Y94.931 E0.33286
G1 X112.791 Y94.122 E0.01369
G1 X113.227 Y93.416 E0.01375
G1 X113.992 Y92.847 E0.01580
G1 X114.915 Y92.624 E0.01573
G1 X135.004 Y92.623 E0.33286
G1 X135.871 Y92.788 E0.01462
G1 X136.620 Y93.261 E0.01468
G1 X137.143 Y93.971 E0.01462
G1 X137.371 Y94.824 E0.01462
G1 X137.376 Y115.065 E0.33538
G1 X137.209 Y115.878 E0.01375
G1 X136.773 Y116.584 E0.01375
G1 X136.407 Y116.916 E0.00819
G1 X135.980 Y117.166 E0.00819
G1 X135.511 Y117.321 E0.00819
G1 X135.020 Y117.377 E0.00819
G1 X114.931 Y117.376 E0.33286
G1 X114.181 Y117.221 E0.01269
G1 F8640.000
G1 X113.416 Y116.773 E-0.20469
G1 X113.084 Y116.407 E-0.11413
G1 X112.834 Y115.980 E-0.11413
G1 X112.679 Y115.511 E-0.11413
G1 X112.623 Y115.020 E-0.11413
G1 X112.623 Y114.592 E-0.09879
G1 E-0.04000 F2100.00000
G1 Z0.900 F10800.000
G1 X115.654 Y114.346
G1 Z0.300
G1 E0.80000 F2100.00000
M204 S800
G1 F2700.000
G1 X115.654 Y95.654 E0.33304
G1 X134.346 Y95.654 E0.33304
G1 X134.346 Y114.346 E0.33304
G1 X115.714 Y114.346 E0.33198
M204 S1000
G1 X115.225 Y114.775 F10800.000
M204 S800
G1 F1500.000
G1 X115.225 Y95.225 E0.34831
G1 X134.775 Y95.225 E0.34831
G1 X134.775 Y114.775 E0.34831
G1 X115.285 Y114.775 E0.34725
M204 S1000
G1 X115.329 Y114.389 F10800.000
G1 F8640.000
G1 X115.275 Y111.484 E-0.76000
G1 E-0.04000 F2100.00000
G1 Z0.900 F10800.000
G1 X115.782 Y96.663
G1 Z0.300
G1 E0.80000 F2100.00000
G1 F4262
G1 X116.470 Y95.975 E0.01762
G1 X117.086 Y95.975 E0.01115
G1 X115.975 Y97.086 E0.02846
G1 X115.975 Y97.702 E0.01115
G1 X117.702 Y95.975 E0.04423
G1 X118.318 Y95.975 E0.01115
G1 X115.975 Y98.318 E0.06001
G1 X115.975 Y98.934 E0.01115
G1 X118.934 Y95.975 E0.07578
G1 X119.550 Y95.975 E0.01115
G1 X115.975 Y99.550 E0.09155
G1 X115.975 Y100.166 E0.01115
G1 X120.166 Y95.975 E0.10733
G1 X120.782 Y95.975 E0.01115
G1 X115.975 Y100.782 E0.12310
G1 X115.975 Y101.398 E0.01115
G1 X121.398 Y95.975 E0.13887
G1 X122.014 Y95.975 E0.01115
G1 X115.975 Y102.014 E0.15465
G1 X115.975 Y102.630 E0.01115
G1 X122.630 Y95.975 E0.17042
G1 X123.246 Y95.975 E0.01115
G1 X115.975 Y103.246 E0.18619
G1 X115.975 Y103.862 E0.01115
G1 X123.862 Y95.975 E0.20197
G1 X124.478 Y95.975 E0.01115
G1 X115.975 Y104.478 E0.21774
G1 X115.975 Y105.094 E0.01115
G1 X125.094 Y95.975 E0.23352
G1 X125.710 Y95.975 E0.01115
G1 X115.975 Y105.710 E0.24929
G1 X115.975 Y106.326 E0.01115
G1 X126.326 Y95.975 E0.26506
G1 X126.942 Y95.975 E0.01115
G1 X115.975 Y106.942 E0.28084
G1 X115.975 Y107.557 E0.01115
G1 X127.557 Y95.975 E0.29661
G1 X128.173 Y95.975 E0.01115
G1 X115.975 Y108.173 E0.31238
G1 X115.975 Y108.789 E0.01115
G1 X128.789 Y95.975 E0.32816
G1 X129.405 Y95.975 E0.01115
G1 X115.975 Y109.405 E0.34393
G1 X115.975 Y110.021 E0.01115
G1 X130.021 Y95.975 E0.35970
G1 X130.637 Y95.975 E0.01115
G1 X115.975 Y110.637 E0.37548
G1 X115.975 Y111.253 E0.01115
G1 X131.253 Y95.975 E0.39125
G1 X131.869 Y95.975 E0.01115
G1 X115.975 Y111.869 E0.40703
G1 X115.975 Y112.485 E0.01115
G1 X132.485 Y95.975 E0.42280
G1 X133.101 Y95.975 E0.01115
G1 X115.975 Y113.101 E0.43857
G1 X115.975 Y113.717 E0.01115
G1 X133.717 Y95.975 E0.45435
G1 X134.025 Y95.975 E0.00558
G1 X134.025 Y96.283 E0.00558
G1 X116.283 Y114.025 E0.45435
G1 X116.899 Y114.025 E0.01115
G1 X134.025 Y96.899 E0.43858
G1 X134.025 Y97.515 E0.01115
G1 X117.515 Y114.025 E0.42280
G1 X118.131 Y114.025 E0.01115
G1 X134.025 Y98.131 E0.40703
G1 X134.025 Y98.747 E0.01115
G1 X118.747 Y114.025 E0.39126
G1 X119.363 Y114.025 E0.01115
G1 X134.025 Y99.363 E0.37548
G1 X134.025 Y99.979 E0.01115
G1 X119.979 Y114.025 E0.35971
G1 X120.595 Y114.025 E0.01115
G1 X134.025 Y100.595 E0.34393
G1 X134.025 Y101.210 E0.01115
G1 X121.210 Y114.025 E0.32816
G1 X121.826 Y114.025 E0.01115
G1 X134.025 Y101.826 E0.31239
G1 X134.025 Y102.442 E0.01115
G1 X122.442 Y114.025 E0.29661
G1 X123.058 Y114.025 E0.01115
G1 X134.025 Y103.058 E0.28084
G1 X134.025 Y103.674 E0.01115
G1 X123.674 Y114.025 E0.26507
G1 X124.290 Y114.025 E0.01115
G1 X134.025 Y104.290 E0.24929
G1 X134.025 Y104.906 E0.01115
G1 X124.906 Y114.025 E0.23352
G1 X125.522 Y114.025 E0.01115
G1 X134.025 Y105.522 E0.21775
G1 X134.025 Y106.138 E0.01115
G1 X126.138 Y114.025 E0.20197
G1 X126.754 Y114.025 E0.01115
G1 X134.025 Y106.754 E0.18620
G1 X134.025 Y107.370 E0.01115
G1 X127.370 Y114.025 E0.17042
G1 X127.986 Y114.025 E0.01115
G1 X134.025 Y107.986 E0.15465
G1 X134.025 Y108.602 E0.01115
G1 X128.602 Y114.025 E0.13888
G1 X129.218 Y114.025 E0.01115
G1 X134.025 Y109.218 E0.12310
G1 X134.025 Y109.834 E0.01115
G1 X129.834 Y114.025 E0.10733
G1 X130.450 Y114.025 E0.01115
G1 X134.025 Y110.450 E0.09156
G1 X134.025 Y111.066 E0.01115
G1 X131.066 Y114.025 E0.07578
G1 X131.682 Y114.025 E0.01115
G1 X134.025 Y111.682 E0.06001
G1 X134.025 Y112.298 E0.01115
G1 X132.298 Y114.025 E0.04424
G1 X132.914 Y114.025 E0.01115
G1 X134.025 Y112.914 E0.02846
G1 X134.025 Y113.530 E0.01115
G1 X133.337 Y114.218 E0.01763
;BEFORE_LAYER_CHANGE
G92 E0.0
;0.4


G1 F8640.000
G1 X134.025 Y113.530 E-0.22476
G1 X134.025 Y112.914 E-0.14223
G1 X132.914 Y114.025 E-0.36293
G1 X132.783 Y114.025 E-0.03008
G1 E-0.04000 F2100.00000
G1 Z0.900 F10800.000
;AFTER_LAYER_CHANGE
;0.4
G1 X137.561 Y116.013
G1 Z0.400
G1 E0.80000 F2100.00000
G1 F3000.000
G1 X137.070 Y116.817 E0.01562
G1 X136.646 Y117.208 E0.00956
G1 X136.149 Y117.503 E0.00956
G1 X135.603 Y117.687 E0.00956
G1 X135.029 Y117.754 E0.00956
G1 X114.914 Y117.753 E0.33330
G1 X113.987 Y117.561 E0.01568
G1 X113.183 Y117.070 E0.01562
G1 X112.792 Y116.646 E0.00956
G1 X112.497 Y116.149 E0.00956
G1 X112.313 Y115.603 E0.00956
G1 X112.246 Y115.029 E0.00956
G1 X112.247 Y94.914 E0.33330
G1 X112.439 Y93.987 E0.01568
G1 X112.930 Y93.183 E0.01562
G1 X113.338 Y92.804 E0.00922
G1 X113.810 Y92.516 E0.00916
G1 X114.334 Y92.328 E0.00922
G1 X114.885 Y92.248 E0.00922
G1 X135.004 Y92.246 E0.33337
G1 X136.005 Y92.436 E0.01689
G1 X136.866 Y92.974 E0.01682
G1 X137.473 Y93.788 E0.01682
G1 X137.745 Y94.770 E0.01689
G1 X137.753 Y115.086 E0.33663
G1 X137.573 Y115.954 E0.01469
G1 X137.209 Y115.878 F10800.000
G1 F3000.000
G1 X136.773 Y116.584 E0.01375
G1 X136.407 Y116.916 E0.00819
G1 X135.980 Y117.166 E0.00819
G1 X135.511 Y117.321 E0.00819
G1 X135.020 Y117.377 E0.00819
G1 X114.931 Y117.376 E0.33286
G1 X114.122 Y117.209 E0.01369
G1 X113.416 Y116.773 E0.01375
G1 X113.084 Y116.407 E0.00819
G1 X112.834 Y115.980 E0.00819
G1 X112.679 Y115.511 E0.00819
G1 X112.623 Y115.020 E0.00819
G1 X112.624 Y94.931 E0.33286
G1 X112.791 Y94.122 E0.01369
G1 X113.227 Y93.416 E0.01375
G1 X113.992 Y92.847 E0.01580
G1 X114.915 Y92.624 E0.01573
G1 X135.004 Y92.623 E0.33286
G1 X135.871 Y92.788 E0.01462
G1 X136.620 Y93.261 E0.01468
G1 X137.143 Y93.971 E0.01462
G1 X137.371 Y94.824 E0.01462
G1 X137.376 Y115.065 E0.33538
G1 X137.221 Y115.819 E0.01276
G1 F8640.000
G1 X136.773 Y116.584 E-0.20469
G1 X136.407 Y116.916 E-0.11413
G1 X135.980 Y117.166 E-0.11413
