; generated by PrusaSlicer 2.2.0+win64 on 2020-07-15 at 22:27:26 UTC

; 

; external perimeters extrusion width = 0.45mm
; perimeters extrusion width = 0.45mm
; infill extrusion width = 0.45mm
; solid infill extrusion width = 0.45mm
; top infill extrusion width = 0.40mm
; first layer extrusion width = 0.42mm

M73 P0 R6
M73 Q0 S6
M201 X1000 Y1000 Z200 E5000 ; sets maximum accelerations, mm/sec^2
M203 X200 Y200 Z12 E120 ; sets maximum feedrates, mm/sec
M204 P1250 R1250 T1250 ; sets acceleration (P, T) and retract acceleration (R), mm/sec^2
M205 X8.00 Y8.00 Z0.40 E4.50 ; sets the jerk limits, mm/sec
M205 S0 T0 ; sets the minimum extruding and travel feed rate, mm/sec
M107
M862.3 P "MK3S" ; printer model check
M862.1 P0.4 ; nozzle diameter check
M115 U3.9.0 ; tell printer latest fw version
G90 ; use absolute coordinates
M83 ; extruder relative mode
M104 S215 ; set extruder temp
M140 S60 ; set bed temp
M190 S60 ; wait for bed temp
M109 S215 ; wait for extruder temp
G28 W ; home all without mesh bed level
G80 ; mesh bed leveling
G1 Y-3.0 F1000.0 ; go outside print area
G92 E0.0
G1 X60.0 E9.0 F1000.0 ; intro line
M73 Q0 S6
M73 P0 R6
G1 X100.0 E12.5 F1000.0 ; intro line
G92 E0.0
M221 S95
G21 ; set units to millimeters
G90 ; use absolute coordinates
M83 ; use relative distances for extrusion
M900 K0.06 ; Filament gcode LA 1.5
M900 K30 ; Filament gcode LA 1.0
;BEFORE_LAYER_CHANGE
G92 E0.0
;0.2


G1 E-0.80000 F2100.00000
G1 Z0.600 F10800.000
;AFTER_LAYER_CHANGE
;0.2
G1 X119.906 Y100.138
G1 Z0.200
G1 E0.80000 F2100.00000
M204 S1000
G1 F900
G1 X120.443 Y99.658 E0.02259
G1 X121.072 Y99.296 E0.02274
G1 X121.761 Y99.070 E0.02274
G1 X122.454 Y98.992 E0.02187
G1 X127.505 Y98.992 E0.15835
G1 X128.614 Y99.173 E0.03525
G1 X129.605 Y99.694 E0.03511
G1 X130.382 Y100.500 E0.03511
G1 X130.866 Y101.510 E0.03511
G1 X131.007 Y102.422 E0.02893
G1 X131.005 Y107.653 E0.16401
G1 X130.864 Y108.495 E0.02678
G1 X130.524 Y109.278 E0.02678
G1 X130.044 Y109.916 E0.02505
G1 X129.431 Y110.429 E0.02505
G1 X128.718 Y110.790 E0.02505
G1 X127.943 Y110.980 E0.02505
G1 X122.278 Y111.001 E0.17761
G1 X121.470 Y110.854 E0.02577
G1 X120.722 Y110.524 E0.02562
G1 X120.084 Y110.044 E0.02505
G1 X119.571 Y109.431 E0.02505
G1 X119.210 Y108.718 E0.02505
G1 X119.020 Y107.943 E0.02505
G1 X118.999 Y102.278 E0.17761
G1 X119.146 Y101.470 E0.02577
G1 X119.476 Y100.722 E0.02562
G1 X119.870 Y100.186 E0.02086
G1 F8640.000
G1 X120.443 Y99.658 E-0.17997
G1 X121.072 Y99.296 E-0.16745
G1 X121.761 Y99.070 E-0.16745
G1 X122.454 Y98.992 E-0.16107
G1 X122.818 Y98.992 E-0.08405
G1 E-0.04000 F2100.00000
G1 Z0.800 F10800.000
G1 X119.515 Y101.553
G1 Z0.200
G1 E0.80000 F2100.00000
G1 F900
G1 X119.833 Y100.859 E0.02393
G1 X120.226 Y100.347 E0.02025
G1 X120.720 Y99.924 E0.02039
G1 X121.286 Y99.614 E0.02025
G1 X121.904 Y99.426 E0.02025
G1 X122.469 Y99.369 E0.01779
G1 X127.504 Y99.369 E0.15788
G1 X128.505 Y99.534 E0.03180
G1 X129.403 Y100.014 E0.03193
G1 X130.098 Y100.752 E0.03180
G1 X130.520 Y101.674 E0.03180
G1 X130.631 Y102.443 E0.02434
G1 X130.628 Y107.649 E0.16322
G1 X130.493 Y108.422 E0.02461
G1 X130.167 Y109.141 E0.02474
G1 X129.731 Y109.697 E0.02216
G1 X129.178 Y110.144 E0.02229
G1 X128.538 Y110.454 E0.02229
G1 X127.845 Y110.612 E0.02229
G1 X122.299 Y110.625 E0.17389
G1 X121.553 Y110.485 E0.02379
G1 X120.859 Y110.167 E0.02393
G1 X120.303 Y109.731 E0.02216
G1 X119.856 Y109.178 E0.02229
G1 X119.546 Y108.538 E0.02229
G1 X119.388 Y107.845 E0.02229
G1 X119.375 Y102.299 E0.17389
G1 X119.504 Y101.612 E0.02191
G1 X119.875 Y101.684 F10800.000
G1 F900
G1 X120.186 Y101.007 E0.02337
G1 X120.542 Y100.563 E0.01784
G1 X120.982 Y100.202 E0.01784
G1 X121.486 Y99.939 E0.01784
G1 X122.034 Y99.786 E0.01784
G1 X127.504 Y99.746 E0.17151
G1 X128.398 Y99.896 E0.02841
G1 X129.197 Y100.331 E0.02854
G1 X129.809 Y100.999 E0.02841
G1 X130.172 Y101.834 E0.02854
G1 X130.254 Y102.462 E0.01988
G1 X130.251 Y107.639 E0.16232
G1 X130.122 Y108.343 E0.02243
G1 X129.814 Y108.993 E0.02256
G1 X129.420 Y109.475 E0.01950
G1 X128.928 Y109.855 E0.01950
G1 X128.363 Y110.115 E0.01950
G1 X127.755 Y110.242 E0.01950
G1 X122.324 Y110.249 E0.17028
G1 X121.637 Y110.116 E0.02192
G1 X121.007 Y109.814 E0.02192
G1 X120.525 Y109.420 E0.01950
G1 X120.145 Y108.928 E0.01950
G1 X119.885 Y108.363 E0.01950
G1 X119.758 Y107.755 E0.01950
G1 X119.751 Y102.324 E0.17028
G1 X119.864 Y101.743 E0.01855
G1 X120.250 Y101.733 F10800.000
G1 F900
G1 X120.533 Y101.165 E0.01989
G1 X120.849 Y100.790 E0.01538
G1 X121.235 Y100.488 E0.01538
G1 X121.675 Y100.271 E0.01538
G1 X122.150 Y100.149 E0.01538
G1 X127.504 Y100.123 E0.16787
G1 X128.292 Y100.259 E0.02508
G1 X128.988 Y100.646 E0.02496
G1 X129.516 Y101.241 E0.02496
G1 X129.819 Y101.978 E0.02496
G1 X129.877 Y102.476 E0.01574
G1 X129.874 Y107.622 E0.16134
G1 X129.754 Y108.256 E0.02024
G1 X129.467 Y108.835 E0.02024
G1 X129.121 Y109.239 E0.01668
G1 X128.694 Y109.556 E0.01668
G1 X128.203 Y109.771 E0.01680
G1 X127.680 Y109.870 E0.01668
G1 X122.352 Y109.872 E0.16707
G1 X121.733 Y109.750 E0.01977
G1 X121.165 Y109.467 E0.01989
G1 X120.761 Y109.121 E0.01668
G1 X120.444 Y108.694 E0.01668
G1 X120.229 Y108.203 E0.01680
G1 X120.130 Y107.680 E0.01668
G1 X120.128 Y102.352 E0.16707
G1 X120.238 Y101.792 E0.01789
G1 F8640.000
G1 X120.533 Y101.165 E-0.15985
G1 X120.849 Y100.790 E-0.11325
G1 X121.235 Y100.488 E-0.11325
G1 X121.675 Y100.271 E-0.11325
G1 X122.150 Y100.149 E-0.11325
G1 X122.787 Y100.146 E-0.14713
G1 E-0.04000 F2100.00000
G1 Z0.800 F10800.000
G1 X123.356 Y104.148
G1 Z0.200
G1 E0.80000 F2100.00000
G1 F900
G1 X123.515 Y103.908 E0.00903
G1 X123.760 Y103.654 E0.01106
G1 X124.092 Y103.442 E0.01235
G1 X124.505 Y103.302 E0.01368
G1 X124.827 Y103.275 E0.01014
G1 X125.154 Y103.290 E0.01026
G1 X125.451 Y103.370 E0.00964
G1 X125.793 Y103.525 E0.01175
G1 X126.084 Y103.723 E0.01105
G1 X126.301 Y103.945 E0.00973
G1 X126.474 Y104.202 E0.00972
G1 X126.609 Y104.532 E0.01117
G1 X126.667 Y104.836 E0.00972
G1 X126.669 Y105.146 E0.00972
G1 X126.601 Y105.496 E0.01117
G1 X126.483 Y105.778 E0.00961
G1 X126.264 Y106.140 E0.01326
G1 X126.010 Y106.405 E0.01149
G1 X125.770 Y106.565 E0.00906
G1 X125.474 Y106.694 E0.01011
G1 X125.153 Y106.754 E0.01023
G1 X124.772 Y106.767 E0.01198
G1 X124.400 Y106.732 E0.01171
G1 X124.130 Y106.654 E0.00880
G1 X123.771 Y106.457 E0.01285
G1 X123.544 Y106.249 E0.00965
G1 X123.350 Y105.985 E0.01028
G1 X123.242 Y105.692 E0.00979
G1 X123.180 Y105.302 E0.01236
G1 X123.175 Y104.915 E0.01215
G1 X123.234 Y104.484 E0.01364
G1 X123.336 Y104.205 E0.00931
G1 X123.198 Y103.908 F10800.000
G1 X123.269 Y103.620
G1 F900
G1 X123.275 Y103.286 E0.01045
G1 X123.635 Y103.286 E0.01129
G1 X123.519 Y103.360 E0.00432
G1 X123.310 Y103.577 E0.00943
G1 F8640.000
G1 X123.275 Y103.286 E-0.06748
G1 X123.635 Y103.286 E-0.08315
G1 X123.519 Y103.360 E-0.03182
G1 X123.310 Y103.577 E-0.06947
G1 E-0.54809 F2100.00000
G1 Z0.800 F10800.000
G1 X126.111 Y103.285
G1 Z0.200
G1 E0.80000 F2100.00000
G1 F900
G1 X126.713 Y103.286 E0.01888
G1 X126.713 Y103.882 E0.01869
G1 X126.595 Y103.706 E0.00664
G1 X126.327 Y103.432 E0.01202
G1 X126.160 Y103.319 E0.00633
G1 F8640.000
G1 X126.713 Y103.286 E-0.12781
G1 X126.713 Y103.882 E-0.13761
G1 X126.595 Y103.706 E-0.04888
G1 X126.327 Y103.432 E-0.08851
G1 X126.160 Y103.319 E-0.04659
G1 E-0.35060 F2100.00000
G1 Z0.800 F10800.000
G1 X126.713 Y106.127
G1 Z0.200
G1 E0.80000 F2100.00000
G1 F900
G1 X126.713 Y106.716 E0.01846
G1 X126.220 Y106.718 E0.01547
G1 X126.565 Y106.372 E0.01534
G1 X126.682 Y106.178 E0.00708
G1 F8640.000
G1 X126.713 Y106.716 E-0.12430
G1 X126.220 Y106.718 E-0.11391
G1 X126.565 Y106.372 E-0.11294
G1 X126.682 Y106.178 E-0.05216
G1 E-0.39669 F2100.00000
G1 Z0.800 F10800.000
G1 X123.494 Y106.715
G1 Z0.200
G1 E0.80000 F2100.00000
G1 F900
G1 X123.279 Y106.715 E0.00674
G1 X123.277 Y106.515 E0.00625
G1 X123.450 Y106.675 E0.00738
G1 X122.907 Y107.091 F10800.000
G1 F900
G1 X122.899 Y106.490 E0.01884
G1 X122.814 Y105.486 E0.03157
G1 X122.793 Y105.005 E0.01511
G1 X122.883 Y104.012 E0.03127
G1 X122.906 Y102.910 E0.03456
G1 X127.090 Y102.910 E0.13120
G1 X127.090 Y107.091 E0.13110
G1 X125.995 Y107.096 E0.03435
G1 X124.999 Y107.143 E0.03126
G1 X122.967 Y107.091 E0.06373
G1 X123.104 Y106.743 F10800.000
G1 X123.809 Y106.718
G1 F900
G1 X123.914 Y106.793 E0.00084
G1
G1 X124.018 Y106.868 E0.00102
G1 X124.245 Y106.907 E0.00182
G1 F8640.000
G1 X124.018 Y106.868 E-0.05319
G1 X123.914 Y106.793 E-0.02967
G1 E-0.71714 F2100.00000
G1 Z0.800 F10800.000
G1 X125.483 Y106.908
G1 Z0.200
G1 E0.80000 F2100.00000
G1 F900
G1 X125.541 Y106.901 E0.00027
G1
G1 X125.660 Y106.873 E0.00102
G1
G1 X125.779 Y106.845 E0.00147
G1
G1 X125.898 Y106.817 E0.00192
G1
G1 X125.915 Y106.813 E0.00028
G1
G1 X126.039 Y106.772 E0.00228
G1 F8640.000
G1 X125.915 Y106.813 E-0.03017
G1 E-0.76983 F2100.00000
G1 Z0.800 F10800.000
G1 X126.901 Y105.788
G1 Z0.200
G1 E0.80000 F2100.00000
G1 F900
G1 X126.629 Y105.908 E0.00213
G1 X126.783 Y105.951 F10800.000
G1 F900
G1 X126.860 Y105.369 E0.00606
G1
G1 X126.879 Y105.176 E0.00138
G1 X126.879 Y104.816 F10800.000
G1 F900
G1 X126.818 Y104.325 E0.00334
G1
G1 X126.766 Y104.063 E0.00420
G1 F8640.000
G1 X126.818 Y104.325 E-0.06165
G1 E-0.73835 F2100.00000
G1 Z0.800 F10800.000
G1 X125.935 Y103.216
G1 Z0.200
G1 E0.80000 F2100.00000
G1 F900
G1 X125.500 Y103.141 E0.00373
G1
G1 X125.322 Y103.117 E0.00137
G1 X124.396 Y103.118 F10800.000
G1 F900
G1 X123.981 Y103.186 E0.00326
G1
G1 X123.816 Y103.233 E0.00268
G1 F8640.000
G1 X123.981 Y103.186 E-0.03953
G1 E-0.76047 F2100.00000
G1 Z0.800 F10800.000
G1 X123.056 Y104.195
G1 Z0.200
G1 E0.80000 F2100.00000
G1 F900
G1 X123.214 Y103.981 E0.00135
G1 X123.133 Y104.032 F10800.000
G1 F900
G1 X123.066 Y104.331 E0.00251
G1 F8640.000
G1 X123.133 Y104.032 E-0.07077
G1 E-0.72923 F2100.00000
G1 Z0.800 F10800.000
G1 X123.050 Y105.781
G1 Z0.200
G1 E0.80000 F2100.00000
G1 F900
G1 X123.088 Y105.951 E0.00117
G1
G1 X123.126 Y106.121 E0.00161
G1 X123.246 Y106.201 F10800.000
G1 F900
G1 X123.043 Y105.955 E0.00193
M106 S255
;BEFORE_LAYER_CHANGE
G92 E0.0
;0.3


G1 F8640.000
G1 X123.246 Y106.201 E-0.07354
G1 E-0.72646 F2100.00000
G1 Z0.800 F10800.000
;AFTER_LAYER_CHANGE
;0.3
M104 S210 ; set temperature
G1 X119.020 Y107.943
G1 Z0.300
G1 E0.80000 F2100.00000
G1 F900
G1 X118.999 Y102.278 E0.09386
G1 X119.146 Y101.470 E0.01362
G1 X119.476 Y100.722 E0.01354
G1 X119.906 Y100.138 E0.01202
G1 X120.443 Y99.658 E0.01194
G1 X121.072 Y99.296 E0.01202
G1 X121.761 Y99.070 E0.01202
G1 X122.454 Y98.992 E0.01156
G1 X127.505 Y98.992 E0.08368
G1 X128.614 Y99.173 E0.01863
G1 X129.605 Y99.694 E0.01855
G1 X130.382 Y100.500 E0.01855
G1 X130.866 Y101.510 E0.01855
G1 X131.007 Y102.422 E0.01529
G1 X131.005 Y107.653 E0.08667
G1 X130.864 Y108.495 E0.01415
G1 X130.524 Y109.278 E0.01415
G1 X130.044 Y109.916 E0.01324
G1 X129.431 Y110.429 E0.01324
G1 X128.718 Y110.790 E0.01324
G1 X127.943 Y110.980 E0.01324
G1 X122.278 Y111.001 E0.09386
G1 X121.470 Y110.854 E0.01362
G1 X120.722 Y110.524 E0.01354
G1 X120.084 Y110.044 E0.01324
G1 X119.571 Y109.431 E0.01324
G1 X119.210 Y108.718 E0.01324
G1 X119.034 Y108.001 E0.01224
G1 X119.404 Y107.917 F10800.000
G1 F900
G1 X119.388 Y107.845 E0.00121
G1 X119.375 Y102.299 E0.09189
G1 X119.515 Y101.553 E0.01257
G1 X119.833 Y100.859 E0.01264
G1 X120.226 Y100.347 E0.01070
G1 X120.720 Y99.924 E0.01077
G1 X121.286 Y99.614 E0.01070
G1 X121.904 Y99.426 E0.01070
G1 X122.469 Y99.369 E0.00940
G1 X127.504 Y99.369 E0.08343
G1 X128.505 Y99.534 E0.01680
G1 X129.403 Y100.014 E0.01687
G1 X130.098 Y100.752 E0.01680
G1 X130.520 Y101.674 E0.01680
G1 X130.631 Y102.443 E0.01286
G1 X130.628 Y107.649 E0.08626
G1 X130.493 Y108.422 E0.01300
G1 X130.167 Y109.141 E0.01308
G1 X129.731 Y109.697 E0.01171
G1 X129.178 Y110.144 E0.01178
G1 X128.538 Y110.454 E0.01178
G1 X127.845 Y110.612 E0.01178
G1 X122.299 Y110.625 E0.09189
G1 X121.553 Y110.485 E0.01257
G1 X120.859 Y110.167 E0.01264
G1 X120.303 Y109.731 E0.01171
G1 X119.856 Y109.178 E0.01178
G1 X119.546 Y108.538 E0.01178
G1 X119.417 Y107.975 E0.00957
G1 X119.885 Y108.363 F10800.000
G1 F900
G1 X119.758 Y107.755 E0.01030
G1 X119.751 Y102.324 E0.08998
G1 X119.884 Y101.637 E0.01159
G1 X120.186 Y101.007 E0.01159
G1 X120.542 Y100.563 E0.00943
G1 X120.982 Y100.202 E0.00943
G1 X121.486 Y99.939 E0.00943
G1 X122.034 Y99.786 E0.00943
G1 X127.504 Y99.746 E0.09064
G1 X128.398 Y99.896 E0.01501
G1 X129.197 Y100.331 E0.01508
G1 X129.809 Y100.999 E0.01501
G1 X130.172 Y101.834 E0.01508
G1 X130.254 Y102.462 E0.01051
G1 X130.251 Y107.639 E0.08578
G1 X130.122 Y108.343 E0.01185
G1 X129.814 Y108.993 E0.01192
G1 X129.420 Y109.475 E0.01030
G1 X128.928 Y109.855 E0.01030
G1 X128.363 Y110.115 E0.01030
G1 X127.755 Y110.242 E0.01030
G1 X122.324 Y110.249 E0.08998
G1 X121.637 Y110.116 E0.01159
G1 X121.007 Y109.814 E0.01159
G1 X120.525 Y109.420 E0.01030
G1 X120.145 Y108.928 E0.01030
G1 X119.910 Y108.418 E0.00931
G1 X120.229 Y108.203 F10800.000
G1 F900
G1 X120.130 Y107.680 E0.00882
G1 X120.128 Y102.352 E0.08829
G1 X120.250 Y101.733 E0.01045
G1 X120.533 Y101.165 E0.01051
G1 X120.849 Y100.790 E0.00813
G1 X121.235 Y100.488 E0.00813
G1 X121.675 Y100.271 E0.00813
G1 X122.150 Y100.149 E0.00813
G1 X127.504 Y100.123 E0.08871
G1 X128.292 Y100.259 E0.01325
G1 X128.988 Y100.646 E0.01319
G1 X129.516 Y101.241 E0.01319
G1 X129.819 Y101.978 E0.01319
G1 X129.877 Y102.476 E0.00832
G1 X129.874 Y107.622 E0.08526
G1 X129.754 Y108.256 E0.01070
G1 X129.467 Y108.835 E0.01070
G1 X129.121 Y109.239 E0.00882
G1 X128.694 Y109.556 E0.00882
G1 X128.203 Y109.771 E0.00888
G1 X127.680 Y109.870 E0.00882
G1 X122.352 Y109.872 E0.08829
G1 X121.733 Y109.750 E0.01045
G1 X121.165 Y109.467 E0.01051
G1 X120.761 Y109.121 E0.00882
G1 X120.444 Y108.694 E0.00882
G1 X120.253 Y108.258 E0.00789
G1 F8640.000
G1 X120.130 Y107.680 E-0.13641
G1 X120.129 Y104.979 E-0.62359
G1 E-0.04000 F2100.00000
G1 Z0.900 F10800.000
G1 X125.553 Y103.327
G1 Z0.300
G1 E0.80000 F2100.00000
M204 S800
G1 F900
G1 X125.879 Y103.507 E0.00664
G1 X126.126 Y103.718 E0.00577
G1 X126.323 Y103.962 E0.00559
G1 X126.479 Y104.262 E0.00603
G1 X126.569 Y104.570 E0.00571
G1 X126.596 Y104.869 E0.00535
G1 X126.558 Y105.207 E0.00605
G1 X126.451 Y105.523 E0.00594
G1 X126.304 Y105.773 E0.00516
G1 X126.074 Y106.032 E0.00618
G1 X125.843 Y106.229 E0.00541
G1 X125.595 Y106.367 E0.00504
G1 X125.308 Y106.458 E0.00537
G1 X125.018 Y106.490 E0.00520
G1 X124.727 Y106.465 E0.00521
G1 X124.438 Y106.381 E0.00536
G1 X124.187 Y106.249 E0.00505
G1 X123.950 Y106.058 E0.00543
G1 X123.713 Y105.797 E0.00628
G1 X123.550 Y105.525 E0.00565
G1 X123.443 Y105.213 E0.00587
G1 X123.404 Y104.880 E0.00597
G1 X123.433 Y104.562 E0.00570
G1 X123.518 Y104.269 E0.00544
G1 X123.683 Y103.954 E0.00633
G1 X123.881 Y103.710 E0.00560
G1 X124.124 Y103.505 E0.00565
G1 X124.408 Y103.344 E0.00582
G1 X124.677 Y103.261 E0.00502
G1 X124.979 Y103.231 E0.00541
G1 X125.278 Y103.253 E0.00534
G1 X125.496 Y103.311 E0.00401
M204 S1000
G1 X125.849 Y103.100 F10800.000
G1 F8640.000
G1 X125.879 Y103.507 E-0.09952
G1 X126.126 Y103.718 E-0.07482
G1 X126.323 Y103.962 E-0.07245
G1 X126.479 Y104.262 E-0.07816
G1 X126.569 Y104.570 E-0.07406
G1 X126.596 Y104.869 E-0.06931
G1 X126.558 Y105.207 E-0.07844
G1 X126.451 Y105.523 E-0.07704
G1 X126.304 Y105.773 E-0.06693
G1 X126.105 Y105.997 E-0.06927
G1 E-0.04000 F2100.00000
G1 Z0.900 F10800.000
G1 X123.876 Y103.154
G1 Z0.300
G1 E0.80000 F2100.00000
M204 S800
G1 F900
G1 X123.574 Y103.409 E0.00704
G1 X123.323 Y103.717 E0.00708
G1 X123.154 Y104.041 E0.00652
G1 X123.154 Y103.154 E0.01580
G1 X123.816 Y103.154 E0.01180
M204 S1000
G1 F8640.000
G1 X123.574 Y103.409 E-0.08114
G1 X123.323 Y103.717 E-0.09174
G1 X123.154 Y104.041 E-0.08444
G1 X123.154 Y103.154 E-0.20483
G1 X123.816 Y103.154 E-0.15293
G1 E-0.18492 F2100.00000
G1 Z0.900 F10800.000
G1 X123.154 Y106.846
G1 Z0.300
G1 E0.80000 F2100.00000
M204 S800
G1 F900
G1 X123.154 Y105.690 E0.02061
G1 X123.368 Y106.054 E0.00753
G1 X123.655 Y106.370 E0.00761
G1 X123.950 Y106.609 E0.00677
G1 X124.277 Y106.780 E0.00657
G1 X124.504 Y106.846 E0.00421
G1 X123.214 Y106.846 E0.02299
M204 S1000
G1 F8640.000
G1 X123.154 Y105.690 E-0.26748
G1 X123.368 Y106.054 E-0.09753
G1 X123.655 Y106.370 E-0.09864
