; generated by PrusaSlicer 2.2.0+win64 on 2020-07-15 at 22:35:38 UTC

; 

; external perimeters extrusion width = 0.45mm
; perimeters extrusion width = 0.45mm
; infill extrusion width = 0.45mm
; solid infill extrusion width = 0.45mm
; top infill extrusion width = 0.40mm
; first layer extrusion width = 0.42mm

M73 P0 R4
M73 Q0 S4
M201 X1000 Y1000 Z200 E5000 ; sets maximum accelerations, mm/sec^2
M203 X200 Y200 Z12 E120 ; sets maximum feedrates, mm/sec
M204 P1250 R1250 T1250 ; sets acceleration (P, T) and retract acceleration (R), mm/sec^2
M205 X8.00 Y8.00 Z0.40 E4.50 ; sets the jerk limits, mm/sec
M205 S0 T0 ; sets the minimum extruding and travel feed rate, mm/sec
M107
M862.3 P "MK3S" ; printer model check
M862.1 P0.4 ; nozzle diameter check
M115 U3.9.0 ; tell printer latest fw version
G90 ; use absolute coordinates
M83 ; extruder relative mode
M104 S215 ; set extruder temp
M140 S60 ; set bed temp
M190 S60 ; wait for bed temp
M109 S215 ; wait for extruder temp
G28 W ; home all without mesh bed level
G80 ; mesh bed leveling
G1 Y-3.0 F1000.0 ; go outside print area
G92 E0.0
G1 X60.0 E9.0 F1000.0 ; intro line
M73 Q1 S4
M73 P1 R4
G1 X100.0 E12.5 F1000.0 ; intro line
G92 E0.0
M221 S95
G21 ; set units to millimeters
G90 ; use absolute coordinates
M83 ; use relative distances for extrusion
M900 K0.06 ; Filament gcode LA 1.5
M900 K30 ; Filament gcode LA 1.0
;BEFORE_LAYER_CHANGE
G92 E0.0
;0.2


G1 E-0.80000 F2100.00000
G1 Z0.600 F10800.000
;AFTER_LAYER_CHANGE
;0.2
G1 X119.906 Y100.138
G1 Z0.200
G1 E0.80000 F2100.00000
M204 S1000
G1 F900
G1 X120.443 Y99.658 E0.02259
G1 X121.072 Y99.296 E0.02274
G1 X121.761 Y99.070 E0.02274
G1 X122.454 Y98.992 E0.02187
G1 X127.505 Y98.992 E0.15835
G1 X128.614 Y99.173 E0.03525
G1 X129.605 Y99.694 E0.03511
G1 X130.382 Y100.500 E0.03511
G1 X130.866 Y101.510 E0.03511
G1 X131.007 Y102.422 E0.02893
G1 X131.005 Y107.653 E0.16401
G1 X130.864 Y108.495 E0.02678
G1 X130.524 Y109.278 E0.02678
G1 X130.044 Y109.916 E0.02505
G1 X129.431 Y110.429 E0.02505
G1 X128.718 Y110.790 E0.02505
G1 X127.943 Y110.980 E0.02505
G1 X122.278 Y111.001 E0.17761
G1 X121.470 Y110.854 E0.02577
G1 X120.722 Y110.524 E0.02562
G1 X120.084 Y110.044 E0.02505
G1 X119.571 Y109.431 E0.02505
G1 X119.210 Y108.718 E0.02505
G1 X119.020 Y107.943 E0.02505
G1 X118.999 Y102.278 E0.17761
G1 X119.146 Y101.470 E0.02577
G1 X119.476 Y100.722 E0.02562
G1 X119.870 Y100.186 E0.02086
G1 F8640.000
G1 X120.443 Y99.658 E-0.17997
G1 X121.072 Y99.296 E-0.16745
G1 X121.761 Y99.070 E-0.16745
G1 X122.454 Y98.992 E-0.16107
G1 X122.818 Y98.992 E-0.08405
G1 E-0.04000 F2100.00000
G1 Z0.800 F10800.000
G1 X119.515 Y101.553
G1 Z0.200
G1 E0.80000 F2100.00000
G1 F900
G1 X119.833 Y100.859 E0.02393
G1 X120.226 Y100.347 E0.02025
G1 X120.720 Y99.924 E0.02039
G1 X121.286 Y99.614 E0.02025
G1 X121.904 Y99.426 E0.02025
G1 X122.469 Y99.369 E0.01779
G1 X127.504 Y99.369 E0.15788
G1 X128.505 Y99.534 E0.03180
G1 X129.403 Y100.014 E0.03193
G1 X130.098 Y100.752 E0.03180
G1 X130.520 Y101.674 E0.03180
G1 X130.631 Y102.443 E0.02434
G1 X130.628 Y107.649 E0.16322
G1 X130.493 Y108.422 E0.02461
G1 X130.167 Y109.141 E0.02474
G1 X129.731 Y109.697 E0.02216
G1 X129.178 Y110.144 E0.02229
G1 X128.538 Y110.454 E0.02229
G1 X127.845 Y110.612 E0.02229
G1 X122.299 Y110.625 E0.17389
G1 X121.553 Y110.485 E0.02379
G1 X120.859 Y110.167 E0.02393
G1 X120.303 Y109.731 E0.02216
G1 X119.856 Y109.178 E0.02229
G1 X119.546 Y108.538 E0.02229
G1 X119.388 Y107.845 E0.02229
G1 X119.375 Y102.299 E0.17389
G1 X119.504 Y101.612 E0.02191
G1 X119.875 Y101.684 F10800.000
G1 F900
G1 X120.186 Y101.007 E0.02337
G1 X120.542 Y100.563 E0.01784
G1 X120.982 Y100.202 E0.01784
G1 X121.486 Y99.939 E0.01784
G1 X122.034 Y99.786 E0.01784
G1 X127.504 Y99.746 E0.17151
G1 X128.398 Y99.896 E0.02841
G1 X129.197 Y100.331 E0.02854
G1 X129.809 Y100.999 E0.02841
G1 X130.172 Y101.834 E0.02854
G1 X130.254 Y102.462 E0.01988
G1 X130.251 Y107.639 E0.16232
G1 X130.122 Y108.343 E0.02243
G1 X129.814 Y108.993 E0.02256
G1 X129.420 Y109.475 E0.01950
G1 X128.928 Y109.855 E0.01950
G1 X128.363 Y110.115 E0.01950
G1 X127.755 Y110.242 E0.01950
G1 X122.324 Y110.249 E0.17028
G1 X121.637 Y110.116 E0.02192
G1 X121.007 Y109.814 E0.02192
G1 X120.525 Y109.420 E0.01950
G1 X120.145 Y108.928 E0.01950
G1 X119.885 Y108.363 E0.01950
G1 X119.758 Y107.755 E0.01950
G1 X119.751 Y102.324 E0.17028
G1 X119.864 Y101.743 E0.01855
G1 X120.250 Y101.733 F10800.000
G1 F900
G1 X120.533 Y101.165 E0.01989
G1 X120.849 Y100.790 E0.01538
G1 X121.235 Y100.488 E0.01538
G1 X121.675 Y100.271 E0.01538
G1 X122.150 Y100.149 E0.01538
G1 X127.504 Y100.123 E0.16787
G1 X128.292 Y100.259 E0.02508
G1 X128.988 Y100.646 E0.02496
G1 X129.516 Y101.241 E0.02496
G1 X129.819 Y101.978 E0.02496
G1 X129.877 Y102.476 E0.01574
G1 X129.874 Y107.622 E0.16134
G1 X129.754 Y108.256 E0.02024
G1 X129.467 Y108.835 E0.02024
G1 X129.121 Y109.239 E0.01668
G1 X128.694 Y109.556 E0.01668
G1 X128.203 Y109.771 E0.01680
G1 X127.680 Y109.870 E0.01668
G1 X122.352 Y109.872 E0.16707
G1 X121.733 Y109.750 E0.01977
G1 X121.165 Y109.467 E0.01989
G1 X120.761 Y109.121 E0.01668
G1 X120.444 Y108.694 E0.01668
G1 X120.229 Y108.203 E0.01680
G1 X120.130 Y107.680 E0.01668
G1 X120.128 Y102.352 E0.16707
G1 X120.238 Y101.792 E0.01789
G1 F8640.000
G1 X120.533 Y101.165 E-0.15985
G1 X120.849 Y100.790 E-0.11325
G1 X121.235 Y100.488 E-0.11325
G1 X121.675 Y100.271 E-0.11325
G1 X122.150 Y100.149 E-0.11325
G1 X122.787 Y100.146 E-0.14713
G1 E-0.04000 F2100.00000
G1 Z0.800 F10800.000
G1 X123.461 Y106.183
G1 Z0.200
G1 E0.80000 F2100.00000
G1 F900
G1 X123.325 Y105.811 E0.01240
G1 X123.272 Y105.579 E0.00747
G1 X123.248 Y105.195 E0.01206
G1 X123.270 Y104.767 E0.01342
G1 X123.334 Y104.492 E0.00886
G1 X123.462 Y104.191 E0.01026
G1 X123.613 Y103.959 E0.00869
G1 X123.835 Y103.726 E0.01007
G1 X124.065 Y103.568 E0.00876
G1 X124.328 Y103.452 E0.00902
G1 X124.685 Y103.355 E0.01161
G1 X124.955 Y103.325 E0.00850
G1 X125.348 Y103.361 E0.01238
G1 X125.696 Y103.476 E0.01149
G1 X125.993 Y103.650 E0.01079
G1 X126.273 Y103.910 E0.01199
G1 X126.470 Y104.196 E0.01091
G1 X126.609 Y104.532 E0.01140
G1 X126.671 Y104.879 E0.01105
G1 X126.657 Y105.250 E0.01164
G1 X126.549 Y105.640 E0.01268
G1 X126.353 Y106.014 E0.01325
G1 X126.125 Y106.299 E0.01143
G1 X125.882 Y106.497 E0.00983
G1 X125.590 Y106.653 E0.01039
G1 X125.320 Y106.733 E0.00881
G1 X124.855 Y106.768 E0.01464
G1 X124.429 Y106.738 E0.01337
G1 X124.149 Y106.661 E0.00910
G1 X123.934 Y106.560 E0.00746
G1 X123.689 Y106.400 E0.00918
G1 X123.504 Y106.224 E0.00800
G1 X123.065 Y106.186 F10800.000
G1 F8640.000
G1 X123.325 Y105.811 E-0.10392
G1 X123.272 Y105.579 E-0.05499
G1 X123.248 Y105.195 E-0.08883
G1 X123.270 Y104.767 E-0.09886
G1 X123.334 Y104.492 E-0.06522
G1 X123.462 Y104.191 E-0.07558
G1 X123.613 Y103.959 E-0.06398
G1 X123.835 Y103.726 E-0.07417
G1 X124.065 Y103.568 E-0.06449
G1 X124.328 Y103.452 E-0.06644
G1 X124.343 Y103.448 E-0.00352
G1 E-0.04000 F2100.00000
G1 Z0.800 F10800.000
G1 X123.285 Y103.771
G1 Z0.200
G1 E0.80000 F2100.00000
G1 F900
G1 X123.286 Y103.287 E0.01517
G1 X123.807 Y103.287 E0.01633
G1 X123.588 Y103.438 E0.00833
G1 X123.319 Y103.721 E0.01226
G1 F8640.000
G1 X123.286 Y103.287 E-0.10049
G1 X123.807 Y103.287 E-0.12029
G1 X123.588 Y103.438 E-0.06134
G1 X123.319 Y103.721 E-0.09030
G1 E-0.42757 F2100.00000
G1 Z0.800 F10800.000
G1 X126.119 Y103.287
G1 Z0.200
G1 E0.80000 F2100.00000
G1 F900
G1 X126.713 Y103.287 E0.01861
G1 X126.713 Y103.884 E0.01871
G1 X126.560 Y103.662 E0.00846
G1 X126.171 Y103.317 E0.01628
G1 F8640.000
G1 X126.713 Y103.287 E-0.12531
G1 X126.713 Y103.884 E-0.13780
G1 X126.560 Y103.662 E-0.06232
G1 X126.171 Y103.317 E-0.11987
G1 E-0.35470 F2100.00000
G1 Z0.800 F10800.000
G1 X126.713 Y106.139
G1 Z0.200
G1 E0.80000 F2100.00000
G1 F900
G1 X126.713 Y106.716 E0.01809
G1 X126.207 Y106.718 E0.01585
G1 X126.394 Y106.566 E0.00756
G1 X126.685 Y106.192 E0.01485
G1 F8640.000
G1 X126.713 Y106.716 E-0.12112
G1 X126.207 Y106.718 E-0.11672
G1 X126.394 Y106.566 E-0.05567
G1 X126.685 Y106.192 E-0.10935
G1 E-0.39714 F2100.00000
G1 Z0.800 F10800.000
G1 X123.483 Y106.715
G1 Z0.200
G1 E0.80000 F2100.00000
G1 F900
G1 X123.278 Y106.715 E0.00643
G1 X123.275 Y106.526 E0.00591
G1 X123.436 Y106.679 E0.00695
G1 X122.907 Y107.091 F10800.000
G1 F900
G1 X122.874 Y105.002 E0.06550
G1 X122.908 Y104.004 E0.03132
G1 X122.910 Y102.910 E0.03429
G1 X127.090 Y102.910 E0.13107
G1 X127.090 Y107.091 E0.13109
G1 X125.995 Y107.096 E0.03435
G1 X124.999 Y107.143 E0.03126
G1 X122.967 Y107.091 E0.06373
G1 X123.103 Y106.742 F10800.000
G1 X123.655 Y106.798
G1 F900
G1 X124.246 Y106.906 E0.00426
G1 X124.203 Y106.927 F10800.000
G1 F900
G1 X123.663 Y106.772 E0.00959
G1 X123.164 Y106.160 F10800.000
G1 F900
G1 X123.137 Y106.018 E0.00155
G1
G1 X123.111 Y105.877 E0.00120
G1
G1 X123.097 Y105.759 E0.00069
G1 F8640.000
G1 X123.111 Y105.877 E-0.02728
G1 E-0.77272 F2100.00000
G1 Z0.800 F10800.000
G1 X123.100 Y104.563
G1 Z0.200
G1 E0.80000 F2100.00000
G1 F900
G1 X123.120 Y104.419 E0.00090
G1
G1 X123.146 Y104.300 E0.00121
G1
G1 X123.173 Y104.180 E0.00166
G1
G1 X123.201 Y104.053 E0.00230
G1 X123.360 Y103.990 E0.00302
G1 X123.987 Y103.231 F10800.000
G1 F900
G1 X124.375 Y103.170 E0.00581
G1
G1 X124.857 Y103.122 E0.00284
G1 X125.074 Y103.123 F10800.000
G1 F900
G1 X125.399 Y103.138 E0.00211
G1
G1 X125.535 Y103.160 E0.00140
G1
G1 X125.671 Y103.181 E0.00190
G1
G1 X125.807 Y103.203 E0.00240
G1
G1 X125.937 Y103.238 E0.00247
G1 F8640.000
G1 X125.807 Y103.203 E-0.03115
G1 E-0.76885 F2100.00000
G1 Z0.800 F10800.000
G1 X126.766 Y104.065
G1 Z0.200
G1 E0.80000 F2100.00000
G1 F900
G1 X126.818 Y104.326 E0.00419
G1
G1 X126.878 Y104.836 E0.00345
G1 X126.877 Y105.089 F10800.000
G1 F900
G1 X126.873 Y105.287 E0.00095
G1
G1 X126.852 Y105.436 E0.00123
G1
G1 X126.832 Y105.585 E0.00174
G1
G1 X126.812 Y105.734 E0.00225
G1
G1 X126.769 Y105.958 E0.00356
G1 F8640.000
G1 X126.812 Y105.734 E-0.05279
G1 E-0.74721 F2100.00000
G1 Z0.800 F10800.000
G1 X125.792 Y106.785
G1 Z0.200
G1 E0.80000 F2100.00000
G1 F900
G1 X125.641 Y106.880 E0.00106
G1 X125.465 Y106.910 E0.00107
M106 S255
;BEFORE_LAYER_CHANGE
G92 E0.0
;0.4


G1 F8640.000
G1 X125.641 Y106.880 E-0.04132
G1 X125.792 Y106.785 E-0.04106
G1 E-0.71762 F2100.00000
G1 Z0.800 F10800.000
;AFTER_LAYER_CHANGE
;0.4
M104 S210 ; set temperature
G1 X127.943 Y110.980
G1 Z0.400
G1 E0.80000 F2100.00000
G1 F900
G1 X122.278 Y111.001 E0.17761
G1 X121.470 Y110.854 E0.02577
G1 X120.722 Y110.524 E0.02562
G1 X120.084 Y110.044 E0.02505
G1 X119.571 Y109.431 E0.02505
G1 X119.210 Y108.718 E0.02505
G1 X119.020 Y107.943 E0.02505
G1 X118.999 Y102.278 E0.17761
G1 X119.146 Y101.470 E0.02577
G1 X119.476 Y100.722 E0.02562
G1 X119.906 Y100.138 E0.02274
G1 X120.443 Y99.658 E0.02259
G1 X121.072 Y99.296 E0.02274
G1 X121.761 Y99.070 E0.02274
G1 X122.454 Y98.992 E0.02187
G1 X127.505 Y98.992 E0.15835
G1 X128.614 Y99.173 E0.03525
G1 X129.605 Y99.694 E0.03511
G1 X130.382 Y100.500 E0.03511
G1 X130.866 Y101.510 E0.03511
G1 X131.007 Y102.422 E0.02893
G1 X131.005 Y107.653 E0.16401
G1 X130.864 Y108.495 E0.02678
G1 X130.524 Y109.278 E0.02678
G1 X130.044 Y109.916 E0.02505
G1 X129.431 Y110.429 E0.02505
G1 X128.718 Y110.790 E0.02505
G1 X128.001 Y110.966 E0.02316
G1 X127.917 Y110.596 F10800.000
G1 F900
G1 X127.845 Y110.612 E0.00230
G1 X122.299 Y110.625 E0.17389
G1 X121.553 Y110.485 E0.02379
G1 X120.859 Y110.167 E0.02393
G1 X120.303 Y109.731 E0.02216
G1 X119.856 Y109.178 E0.02229
G1 X119.546 Y108.538 E0.02229
G1 X119.388 Y107.845 E0.02229
G1 X119.375 Y102.299 E0.17389
G1 X119.515 Y101.553 E0.02379
G1 X119.833 Y100.859 E0.02393
G1 X120.226 Y100.347 E0.02025
G1 X120.720 Y99.924 E0.02039
G1 X121.286 Y99.614 E0.02025
G1 X121.904 Y99.426 E0.02025
G1 X122.469 Y99.369 E0.01779
G1 X127.504 Y99.369 E0.15788
G1 X128.505 Y99.534 E0.03180
G1 X129.403 Y100.014 E0.03193
G1 X130.098 Y100.752 E0.03180
G1 X130.520 Y101.674 E0.03180
G1 X130.631 Y102.443 E0.02434
G1 X130.628 Y107.649 E0.16322
G1 X130.493 Y108.422 E0.02461
G1 X130.167 Y109.141 E0.02474
G1 X129.731 Y109.697 E0.02216
G1 X129.178 Y110.144 E0.02229
G1 X128.538 Y110.454 E0.02229
G1 X127.975 Y110.583 E0.01812
G1 X128.363 Y110.115 F10800.000
G1 F900
G1 X127.755 Y110.242 E0.01950
G1 X122.324 Y110.249 E0.17028
G1 X121.637 Y110.116 E0.02192
G1 X121.007 Y109.814 E0.02192
G1 X120.525 Y109.420 E0.01950
G1 X120.145 Y108.928 E0.01950
G1 X119.885 Y108.363 E0.01950
G1 X119.758 Y107.755 E0.01950
G1 X119.751 Y102.324 E0.17028
G1 X119.884 Y101.637 E0.02192
G1 X120.186 Y101.007 E0.02192
G1 X120.542 Y100.563 E0.01784
G1 X120.982 Y100.202 E0.01784
G1 X121.486 Y99.939 E0.01784
G1 X122.034 Y99.786 E0.01784
G1 X127.504 Y99.746 E0.17151
G1 X128.398 Y99.896 E0.02841
G1 X129.197 Y100.331 E0.02854
G1 X129.809 Y100.999 E0.02841
G1 X130.172 Y101.834 E0.02854
G1 X130.254 Y102.462 E0.01988
G1 X130.251 Y107.639 E0.16232
G1 X130.122 Y108.343 E0.02243
G1 X129.814 Y108.993 E0.02256
G1 X129.420 Y109.475 E0.01950
G1 X128.928 Y109.855 E0.01950
G1 X128.418 Y110.090 E0.01762
G1 X128.203 Y109.771 F10800.000
G1 F900
G1 X127.680 Y109.870 E0.01668
G1 X122.352 Y109.872 E0.16707
G1 X121.733 Y109.750 E0.01977
G1 X121.165 Y109.467 E0.01989
G1 X120.761 Y109.121 E0.01668
G1 X120.444 Y108.694 E0.01668
G1 X120.229 Y108.203 E0.01680
G1 X120.130 Y107.680 E0.01668
G1 X120.128 Y102.352 E0.16707
G1 X120.250 Y101.733 E0.01977
G1 X120.533 Y101.165 E0.01989
G1 X120.849 Y100.790 E0.01538
G1 X121.235 Y100.488 E0.01538
G1 X121.675 Y100.271 E0.01538
G1 X122.150 Y100.149 E0.01538
G1 X127.504 Y100.123 E0.16787
G1 X128.292 Y100.259 E0.02508
G1 X128.988 Y100.646 E0.02496
G1 X129.516 Y101.241 E0.02496
G1 X129.819 Y101.978 E0.02496
G1 X129.877 Y102.476 E0.01574
G1 X129.874 Y107.622 E0.16134
G1 X129.754 Y108.256 E0.02024
G1 X129.467 Y108.835 E0.02024
G1 X129.121 Y109.239 E0.01668
G1 X128.694 Y109.556 E0.01668
G1 X128.258 Y109.747 E0.01492
G1 F8640.000
G1 X127.680 Y109.870 E-0.13641
G1 X124.979 Y109.871 E-0.62359
G1 E-0.04000 F2100.00000
G1 Z1.000 F10800.000
G1 X125.523 Y103.309
G1 Z0.400
G1 E0.80000 F2100.00000
M204 S800
G1 F900
G1 X125.621 Y103.445 E0.00569
G1 X125.915 Y103.624 E0.01164
G1 X126.214 Y103.911 E0.01401
G1 X126.390 Y104.166 E0.01051
G1 X126.512 Y104.443 E0.01026
G1 X126.573 Y104.718 E0.00954
G1 X126.576 Y104.998 E0.00945
G1 X126.518 Y105.286 E0.00997
G1 X126.385 Y105.601 E0.01156
G1 X126.187 Y105.902 E0.01219
G1 X125.990 Y106.114 E0.00981
G1 X125.730 Y106.300 E0.01082
G1 X125.458 Y106.418 E0.01002
G1 X125.180 Y106.480 E0.00963
G1 X124.899 Y106.487 E0.00952
G1 X124.616 Y106.440 E0.00971
G1 X124.302 Y106.318 E0.01140
G1 X124.037 Y106.138 E0.01086
G1 X123.822 Y105.914 E0.01049
G1 X123.658 Y105.648 E0.01058
G1 X123.561 Y105.389 E0.00936
G1 X123.498 Y105.003 E0.01324
G1 X123.497 Y104.728 E0.00933
G1 X123.548 Y104.449 E0.00957
G1 X123.651 Y104.181 E0.00973
G1 X123.804 Y103.932 E0.00992
G1 X124.018 Y103.699 E0.01067
G1 X124.244 Y103.529 E0.00957
G1 X124.516 Y103.392 E0.01033
G1 X124.815 Y103.306 E0.01052
G1 X125.124 Y103.275 E0.01053
G1 X125.463 Y103.304 E0.01150
M204 S1000
G1 X125.676 Y103.241 F10800.000
G1 F8640.000
G1 X125.621 Y103.445 E-0.04898
G1 X125.915 Y103.624 E-0.07941
G1 X126.214 Y103.911 E-0.09554
G1 X126.390 Y104.166 E-0.07168
G1 X126.512 Y104.443 E-0.06999
G1 X126.573 Y104.718 E-0.06505
G1 X126.576 Y104.998 E-0.06449
G1 X126.518 Y105.286 E-0.06801
G1 X126.385 Y105.601 E-0.07889
G1 X126.187 Y105.902 E-0.08313
G1 X126.084 Y106.012 E-0.03483
G1 E-0.04000 F2100.00000
G1 Z1.000 F10800.000
G1 X124.127 Y103.132
G1 Z0.400
G1 E0.80000 F2100.00000
M204 S800
G1 F900
G1 X124.028 Y103.182 E0.00376
G1 X123.743 Y103.396 E0.01207
G1 X123.478 Y103.685 E0.01326
G1 X123.284 Y104.000 E0.01251
G1 X123.154 Y104.339 E0.01228
G1 X123.132 Y104.460 E0.00418
G1 X123.132 Y103.132 E0.04496
G1 X124.067 Y103.132 E0.03166
M204 S1000
G1 F8640.000
G1 X124.028 Y103.182 E-0.01467
G1 X123.743 Y103.396 E-0.08236
G1 X123.478 Y103.685 E-0.09048
G1 X123.284 Y104.000 E-0.08536
G1 X123.154 Y104.339 E-0.08378
G1 X123.132 Y104.460 E-0.02853
G1 X123.132 Y103.132 E-0.30668
G1 X123.427 Y103.132 E-0.06812
G1 E-0.04000 F2100.00000
G1 Z1.000 F10800.000
G1 X123.132 Y105.289
G1 Z0.400
G1 E0.80000 F2100.00000
M204 S800
G1 F900
