; generated by PrusaSlicer 2.2.0+win64 on 2020-07-15 at 10:43:55 UTC

; 

; external perimeters extrusion width = 0.45mm
; perimeters extrusion width = 0.45mm
; infill extrusion width = 0.45mm
; solid infill extrusion width = 0.45mm
; top infill extrusion width = 0.40mm
; first layer extrusion width = 0.42mm

M73 P0 R70
M73 Q0 S70
M201 X1000 Y1000 Z1000 E5000 ; sets maximum accelerations, mm/sec^2
M203 X200 Y200 Z12 E120 ; sets maximum feedrates, mm/sec
M204 P1250 R1250 T1250 ; sets acceleration (P, T) and retract acceleration (R), mm/sec^2
M205 X8.00 Y8.00 Z0.40 E4.50 ; sets the jerk limits, mm/sec
M205 S0 T0 ; sets the minimum extruding and travel feed rate, mm/sec
M107
M862.3 P "MK3S" ; printer model check
M862.1 P0.4 ; nozzle diameter check
M115 U3.8.1 ; tell printer latest fw version
G90 ; use absolute coordinates
M83 ; extruder relative mode
M104 S215 ; set extruder temp
M140 S60 ; set bed temp
M190 S60 ; wait for bed temp
M109 S215 ; wait for extruder temp
G28 W ; home all without mesh bed level
G80 ; mesh bed leveling
G1 Y-3.0 F1000.0 ; go outside print area
G92 E0.0
G1 X60.0 E9.0 F1000.0 ; intro line
M73 Q0 S70
M73 P0 R70
G1 X100.0 E12.5 F1000.0 ; intro line
G92 E0.0
M221 S95
G21 ; set units to millimeters
G90 ; use absolute coordinates
M83 ; use relative distances for extrusion
M900 K30 ; Filament gcode
;BEFORE_LAYER_CHANGE
G92 E0.0
;0.2


G1 E-0.80000 F2100.00000
G1 Z0.600 F10800.000
;AFTER_LAYER_CHANGE
;0.2
G1 X108.014 Y65.781
G1 Z0.200
G1 E0.80000 F2100.00000
M204 S1000
G1 F1200.000
G1 X111.894 Y61.904 E0.17195
G1 X113.185 Y60.966 E0.05005
G1 X114.453 Y60.177 E0.04681
G1 X116.340 Y59.204 E0.06657
G1 X117.725 Y58.627 E0.04705
G1 X119.140 Y58.145 E0.04685
G1 X121.219 Y57.621 E0.06724
G1 X122.890 Y57.360 E0.05300
G1 X128.303 Y57.358 E0.16972
G1 X130.007 Y57.611 E0.05403
G1 X131.419 Y57.940 E0.04545
G1 X134.157 Y58.865 E0.09061
G1 X136.762 Y60.141 E0.09097
G1 X139.231 Y61.784 E0.09299
G1 X143.286 Y65.822 E0.17942
G1 X143.905 Y66.631 E0.03195
G1 X144.730 Y67.884 E0.04704
G1 X145.481 Y69.213 E0.04787
G1 X146.128 Y70.562 E0.04690
G1 X146.899 Y72.579 E0.06770
G1 X147.499 Y74.775 E0.07138
G1 X147.868 Y76.990 E0.07042
G1 X153.381 Y129.295 E1.64907
G1 X153.421 Y130.309 E0.03180
G1 X153.283 Y131.400 E0.03448
G1 X152.968 Y132.426 E0.03365
G1 X146.451 Y148.084 E0.53177
G1 X145.897 Y149.113 E0.03663
G1 X144.954 Y150.232 E0.04590
G1 X144.053 Y150.939 E0.03592
G1 X143.102 Y151.445 E0.03377
G1 X127.424 Y157.907 E0.53169
G1 X126.299 Y158.245 E0.03683
G1 X124.796 Y158.366 E0.04728
G1 X123.712 Y158.228 E0.03426
G1 X122.693 Y157.915 E0.03343
G1 X107.047 Y151.402 E0.53137
G1 X106.023 Y150.852 E0.03643
G1 X104.915 Y149.918 E0.04545
G1 X104.212 Y149.022 E0.03570
G1 X103.710 Y148.077 E0.03356
G1 X97.253 Y132.410 E0.53129
G1 X96.917 Y131.292 E0.03661
G1 X96.797 Y129.803 E0.04686
G1 X103.447 Y76.684 E1.67851
G1 X103.686 Y75.221 E0.04648
G1 X104.200 Y73.148 E0.06693
G1 X105.232 Y70.377 E0.09273
G1 X106.619 Y67.769 E0.09261
G1 X107.980 Y65.830 E0.07429
G1 F8640.000
G1 X110.304 Y63.499 E-0.76000
G1 E-0.04000 F2100.00000
G1 Z0.800 F10800.000
G1 X126.382 Y110.832
G1 Z0.200
G1 E0.80000 F2100.00000
G1 F1200.000
G1 X126.382 Y116.876 E0.18950
G1 X127.622 Y117.094 E0.03947
G1 X128.189 Y117.219 E0.01821
G1 X128.750 Y117.370 E0.01821
G1 X129.304 Y117.545 E0.01821
G1 X129.849 Y117.744 E0.01821
G1 X130.386 Y117.967 E0.01821
G1 X130.912 Y118.213 E0.01821
G1 X131.426 Y118.482 E0.01821
G1 X131.929 Y118.773 E0.01821
G1 X132.418 Y119.086 E0.01821
G1 X133.448 Y119.812 E0.03952
G1 X137.732 Y115.528 E0.18997
G1 X137.623 Y114.841 E0.02182
G1 X137.604 Y114.581 E0.00816
G1 X137.608 Y114.321 E0.00816
G1 X137.684 Y113.806 E0.01630
G1 X137.755 Y113.556 E0.00816
G1 X137.960 Y113.078 E0.01630
G1 X138.244 Y112.643 E0.01630
G1 X138.599 Y112.264 E0.01630
G1 X139.015 Y111.951 E0.01630
G1 X139.478 Y111.715 E0.01630
G1 X139.975 Y111.562 E0.01630
G1 X140.491 Y111.497 E0.01630
G1 X141.010 Y111.522 E0.01630
G1 X141.517 Y111.637 E0.01630
G1 X141.997 Y111.837 E0.01630
G1 X142.435 Y112.117 E0.01630
G1 X142.818 Y112.468 E0.01630
G1 X142.986 Y112.668 E0.00816
G1 X143.266 Y113.106 E0.01630
G1 X143.466 Y113.586 E0.01630
G1 X143.580 Y114.093 E0.01630
G1 X143.605 Y114.612 E0.01630
G1 X143.541 Y115.128 E0.01630
G1 X143.475 Y115.380 E0.00816
G1 X143.280 Y115.861 E0.01630
G1 X143.004 Y116.302 E0.01630
G1 X142.657 Y116.689 E0.01630
G1 X142.248 Y117.010 E0.01630
G1 X142.024 Y117.143 E0.00816
G1 X141.547 Y117.348 E0.01630
G1 X141.041 Y117.468 E0.01630
G1 X140.522 Y117.498 E0.01630
G1 X140.262 Y117.480 E0.00816
G1 X139.575 Y117.370 E0.02182
G1 X135.290 Y121.655 E0.18999
G1 X136.008 Y122.672 E0.03902
G1 X136.313 Y123.147 E0.01772
G1 X136.598 Y123.635 E0.01772
G1 X137.104 Y124.646 E0.03543
G1 X137.325 Y125.166 E0.01772
G1 X137.697 Y126.233 E0.03543
G1 X137.978 Y127.328 E0.03543
G1 X138.206 Y128.541 E0.03871
G1 X144.164 Y128.541 E0.18680
G1 X144.589 Y127.988 E0.02185
G1 X144.775 Y127.785 E0.00863
G1 X145.195 Y127.431 E0.01725
G1 X145.670 Y127.153 E0.01725
G1 X146.185 Y126.960 E0.01725
G1 X146.453 Y126.897 E0.00863
G1 X147.000 Y126.842 E0.01725
G1 X147.549 Y126.881 E0.01725
G1 X148.083 Y127.012 E0.01725
G1 X148.587 Y127.233 E0.01725
G1 X149.046 Y127.537 E0.01725
G1 X149.254 Y127.717 E0.00863
G1 X149.620 Y128.128 E0.01725
G1 X149.911 Y128.595 E0.01725
G1 X150.118 Y129.104 E0.01725
G1 X150.235 Y129.642 E0.01725
G1 X150.258 Y130.191 E0.01725
G1 X150.188 Y130.737 E0.01725
G1 X150.025 Y131.262 E0.01725
G1 X149.775 Y131.752 E0.01725
G1 X149.446 Y132.193 E0.01725
G1 X149.046 Y132.570 E0.01725
G1 X148.587 Y132.874 E0.01725
G1 X148.083 Y133.095 E0.01725
G1 X147.549 Y133.227 E0.01725
G1 X147.000 Y133.265 E0.01725
G1 X146.453 Y133.210 E0.01725
G1 X146.185 Y133.147 E0.00863
G1 X145.670 Y132.955 E0.01725
G1 X145.195 Y132.677 E0.01725
G1 X144.775 Y132.322 E0.01725
G1 X144.589 Y132.119 E0.00863
G1 X144.164 Y131.567 E0.02185
G1 X138.207 Y131.567 E0.18677
G1 X137.969 Y132.818 E0.03994
G1 X137.829 Y133.406 E0.01895
G1 X137.663 Y133.987 E0.01895
G1 X137.470 Y134.560 E0.01895
G1 X137.251 Y135.123 E0.01895
G1 X137.006 Y135.676 E0.01895
G1 X136.736 Y136.217 E0.01895
G1 X136.442 Y136.745 E0.01895
G1 X136.124 Y137.259 E0.01895
G1 X135.405 Y138.312 E0.03999
G1 X139.626 Y142.534 E0.18721
G1 X140.317 Y142.441 E0.02184
G1 X140.590 Y142.428 E0.00856
G1 X140.863 Y142.438 E0.00856
G1 X141.401 Y142.529 E0.01711
G1 X141.916 Y142.710 E0.01711
G1 X142.392 Y142.977 E0.01711
G1 X142.611 Y143.139 E0.00856
G1 X143.004 Y143.518 E0.01711
G1 X143.326 Y143.959 E0.01711
G1 X143.568 Y144.448 E0.01711
G1 X143.723 Y144.972 E0.01711
G1 X143.766 Y145.241 E0.00856
G1 X143.786 Y145.514 E0.00856
G1 X143.756 Y146.059 E0.01711
G1 X143.633 Y146.590 E0.01711
G1 X143.421 Y147.093 E0.01711
G1 X143.126 Y147.553 E0.01711
G1 X142.757 Y147.955 E0.01711
G1 X142.548 Y148.131 E0.00856
G1 X142.325 Y148.288 E0.00856
G1 X141.842 Y148.542 E0.01711
G1 X141.323 Y148.710 E0.01711
G1 X140.782 Y148.787 E0.01711
G1 X140.509 Y148.791 E0.00856
G1 X139.967 Y148.727 E0.01711
G1 X139.444 Y148.573 E0.01711
G1 X138.955 Y148.330 E0.01711
G1 X138.514 Y148.008 E0.01711
G1 X138.135 Y147.616 E0.01711
G1 X137.829 Y147.164 E0.01711
G1 X137.604 Y146.667 E0.01711
G1 X137.467 Y146.138 E0.01711
G1 X137.423 Y145.594 E0.01711
G1 X137.436 Y145.321 E0.00856
G1 X137.529 Y144.631 E0.02184
G1 X133.306 Y140.408 E0.18725
G1 X132.301 Y141.098 E0.03823
G1 X131.338 Y141.673 E0.03516
G1 X130.856 Y141.922 E0.01701
G1 X129.838 Y142.368 E0.03484
G1 X129.319 Y142.557 E0.01733
G1 X128.244 Y142.874 E0.03516
G1 X127.709 Y142.996 E0.01720
G1 X126.502 Y143.218 E0.03847
G1 X126.502 Y149.204 E0.18769
G1 X127.057 Y149.624 E0.02183
G1 X127.259 Y149.805 E0.00850
G1 X127.611 Y150.217 E0.01698
G1 X127.887 Y150.682 E0.01698
G1 X128.080 Y151.188 E0.01698
G1 X128.143 Y151.452 E0.00850
G1 X128.201 Y151.990 E0.01698
G1 X128.165 Y152.531 E0.01698
G1 X128.113 Y152.796 E0.00850
G1 X127.940 Y153.310 E0.01698
G1 X127.683 Y153.786 E0.01698
G1 X127.347 Y154.211 E0.01698
G1 X126.944 Y154.573 E0.01698
G1 X126.485 Y154.860 E0.01698
G1 X125.984 Y155.064 E0.01698
G1 X125.455 Y155.180 E0.01698
G1 X124.914 Y155.203 E0.01698
G1 X124.377 Y155.133 E0.01698
G1 X123.860 Y154.973 E0.01698
G1 X123.377 Y154.726 E0.01698
G1 X122.945 Y154.401 E0.01698
G1 X122.574 Y154.006 E0.01698
G1 X122.277 Y153.553 E0.01698
G1 X122.061 Y153.057 E0.01698
G1 X121.933 Y152.531 E0.01698
G1 X121.904 Y152.261 E0.00850
G1 X121.915 Y151.720 E0.01698
G1 X122.018 Y151.188 E0.01698
G1 X122.211 Y150.682 E0.01698
G1 X122.487 Y150.217 E0.01698
G1 X122.840 Y149.805 E0.01698
G1 X123.041 Y149.624 E0.00850
G1 X123.596 Y149.204 E0.02183
G1 X123.596 Y143.218 E0.18769
G1 X122.391 Y142.996 E0.03844
G1 X121.298 Y142.722 E0.03530
G1 X120.234 Y142.357 E0.03530
G1 X119.722 Y142.145 E0.01736
G1 X119.220 Y141.911 E0.01736
G1 X118.227 Y141.369 E0.03549
G1 X117.759 Y141.073 E0.01736
G1 X116.744 Y140.371 E0.03868
G1 X112.502 Y144.614 E0.18814
G1 X112.600 Y145.303 E0.02183
G1 X112.615 Y145.571 E0.00843
G1 X112.575 Y146.107 E0.01684
G1 X112.521 Y146.370 E0.00843
G1 X112.346 Y146.878 E0.01684
G1 X112.086 Y147.348 E0.01684
G1 X111.750 Y147.767 E0.01684
G1 X111.556 Y147.953 E0.00843
G1 X111.124 Y148.272 E0.01684
G1 X110.889 Y148.403 E0.00843
G1 X110.389 Y148.601 E0.01684
G1 X109.863 Y148.710 E0.01684
G1 X109.327 Y148.728 E0.01684
G1 X108.795 Y148.653 E0.01684
G1 X108.535 Y148.582 E0.00843
G1 X108.040 Y148.374 E0.01684
G1 X107.588 Y148.084 E0.01684
G1 X107.382 Y147.911 E0.00843
G1 X107.019 Y147.515 E0.01684
G1 X106.729 Y147.063 E0.01684
G1 X106.521 Y146.567 E0.01684
G1 X106.401 Y146.044 E0.01684
G1 X106.375 Y145.776 E0.00843
G1 X106.393 Y145.239 E0.01684
G1 X106.436 Y144.974 E0.00843
G1 X106.590 Y144.459 E0.01684
G1 X106.830 Y143.979 E0.01684
G1 X107.149 Y143.547 E0.01684
G1 X107.538 Y143.176 E0.01684
G1 X107.984 Y142.877 E0.01684
G1 X108.475 Y142.658 E0.01684
G1 X108.996 Y142.528 E0.01684
G1 X109.532 Y142.488 E0.01684
G1 X109.800 Y142.503 E0.00843
G1 X110.489 Y142.601 E0.02183
G1 X114.732 Y138.358 E0.18813
G1 X114.027 Y137.340 E0.03884
G1 X113.445 Y136.371 E0.03543
G1 X112.947 Y135.357 E0.03543
G1 X112.732 Y134.834 E0.01772
G1 X112.368 Y133.764 E0.03543
G1 X112.221 Y133.219 E0.01772
G1 X112.097 Y132.667 E0.01772
G1 X111.878 Y131.447 E0.03889
G1 X105.863 Y131.447 E0.18859
G1 X105.448 Y132.005 E0.02182
G1 X105.271 Y132.204 E0.00836
G1 X104.869 Y132.554 E0.01671
G1 X104.412 Y132.829 E0.01671
G1 X104.168 Y132.936 E0.00836
G1 X103.657 Y133.086 E0.01671
G1 X103.127 Y133.145 E0.01671
G1 X102.595 Y133.112 E0.01671
G1 X102.077 Y132.989 E0.01671
G1 X101.587 Y132.778 E0.01671
G1 X101.141 Y132.487 E0.01671
G1 X100.752 Y132.123 E0.01671
G1 X100.431 Y131.698 E0.01671
G1 X100.187 Y131.224 E0.01671
G1 X100.029 Y130.715 E0.01671
G1 X99.960 Y130.187 E0.01671
G1 X99.960 Y129.920 E0.00836
G1 X100.029 Y129.392 E0.01671
G1 X100.187 Y128.883 E0.01671
G1 X100.431 Y128.409 E0.01671
G1 X100.752 Y127.984 E0.01671
G1 X101.141 Y127.620 E0.01671
G1 X101.587 Y127.329 E0.01671
G1 X102.077 Y127.118 E0.01671
G1 X102.595 Y126.995 E0.01671
G1 X103.127 Y126.962 E0.01671
G1 X103.657 Y127.022 E0.01671
G1 X103.916 Y127.085 E0.00836
G1 X104.412 Y127.278 E0.01671
G1 X104.869 Y127.553 E0.01671
G1 X105.271 Y127.903 E0.01671
G1 X105.448 Y128.102 E0.00836
G1 X105.863 Y128.661 E0.02182
G1 X111.878 Y128.661 E0.18858
G1 X112.099 Y127.435 E0.03905
G1 X112.373 Y126.328 E0.03576
G1 X112.741 Y125.249 E0.03576
G1 X112.960 Y124.722 E0.01788
G1 X113.465 Y123.699 E0.03576
G1 X113.750 Y123.205 E0.01788
G1 X114.056 Y122.724 E0.01788
G1 X114.770 Y121.702 E0.03910
G1 X110.506 Y117.438 E0.18904
G1 X109.818 Y117.542 E0.02182
G1 X109.554 Y117.559 E0.00829
G1 X109.027 Y117.524 E0.01657
G1 X108.513 Y117.399 E0.01657
G1 X108.029 Y117.187 E0.01657
G1 X107.588 Y116.895 E0.01657
G1 X107.388 Y116.722 E0.00829
G1 X107.037 Y116.327 E0.01657
G1 X106.759 Y115.877 E0.01657
G1 X106.563 Y115.387 E0.01657
G1 X106.453 Y114.870 E0.01657
G1 X106.433 Y114.606 E0.00829
G1 X106.459 Y114.078 E0.01657
G1 X106.577 Y113.563 E0.01657
G1 X106.781 Y113.075 E0.01657
G1 X106.914 Y112.846 E0.00829
G1 X107.236 Y112.428 E0.01657
G1 X107.626 Y112.070 E0.01657
G1 X108.071 Y111.785 E0.01657
G1 X108.558 Y111.581 E0.01657
G1 X109.074 Y111.464 E0.01657
G1 X109.601 Y111.437 E0.01657
G1 X110.126 Y111.501 E0.01657
G1 X110.632 Y111.655 E0.01657
G1 X111.104 Y111.893 E0.01657
G1 X111.528 Y112.209 E0.01657
G1 X111.891 Y112.593 E0.01657
G1 X112.182 Y113.034 E0.01657
G1 X112.299 Y113.271 E0.00829
G1 X112.468 Y113.772 E0.01657
G1 X112.548 Y114.294 E0.01657
G1 X112.554 Y114.559 E0.00829
G1 X112.538 Y114.823 E0.00829
G1 X112.434 Y115.511 E0.02182
G1 X116.697 Y119.774 E0.18904
G1 X117.724 Y119.057 E0.03926
G1 X118.210 Y118.749 E0.01805
G1 X118.709 Y118.462 E0.01805
G1 X119.219 Y118.197 E0.01805
G1 X119.741 Y117.954 E0.01805
G1 X120.273 Y117.734 E0.01805
G1 X120.814 Y117.538 E0.01805
G1 X121.363 Y117.365 E0.01805
G1 X121.919 Y117.217 E0.01805
G1 X122.481 Y117.093 E0.01805
G1 X123.716 Y116.876 E0.03931
G1 X123.716 Y110.832 E0.18951
G1 X123.155 Y110.421 E0.02182
G1 X122.957 Y110.248 E0.00823
G1 X122.775 Y110.059 E0.00823
G1 X122.464 Y109.638 E0.01644
G1 X122.229 Y109.169 E0.01644
G1 X122.144 Y108.921 E0.00823
G1 X122.080 Y108.666 E0.00823
G1 X122.018 Y108.146 E0.01644
G1 X122.022 Y107.883 E0.00823
G1 X122.096 Y107.365 E0.01644
G1 X122.259 Y106.866 E0.01644
G1 X122.505 Y106.403 E0.01644
G1 X122.657 Y106.190 E0.00823
G1 X123.014 Y105.806 E0.01644
G1 X123.216 Y105.638 E0.00823
G1 X123.660 Y105.359 E0.01644
G1 X124.145 Y105.160 E0.01644
G1 X124.398 Y105.092 E0.00823
G1 X124.918 Y105.024 E0.01644
G1 X125.442 Y105.047 E0.01644
G1 X125.954 Y105.160 E0.01644
G1 X126.439 Y105.359 E0.01644
G1 X126.882 Y105.638 E0.01644
G1 X127.271 Y105.990 E0.01644
G1 X127.441 Y106.190 E0.00823
G1 X127.726 Y106.630 E0.01644
G1 X127.931 Y107.112 E0.01644
G1 X128.051 Y107.622 E0.01644
G1 X128.080 Y108.146 E0.01644
G1 X128.061 Y108.407 E0.00823
G1 X127.955 Y108.921 E0.01644
G1 X127.762 Y109.408 E0.01644
G1 X127.488 Y109.855 E0.01644
G1 X127.323 Y110.059 E0.00823
G1 X126.944 Y110.421 E0.01644
G1 X126.431 Y110.797 E0.01994
G1 X126.759 Y111.023 F10800.000
G1 F1200.000
G1 X126.759 Y116.559 E0.17358
G1 X127.695 Y116.724 E0.02980
G1 X128.279 Y116.853 E0.01873
G1 X128.856 Y117.008 E0.01873
G1 X129.425 Y117.188 E0.01873
G1 X129.986 Y117.392 E0.01873
G1 X130.538 Y117.621 E0.01873
G1 X131.079 Y117.875 E0.01873
G1 X131.608 Y118.151 E0.01873
G1 X132.125 Y118.451 E0.01873
G1 X132.628 Y118.773 E0.01873
G1 X133.406 Y119.321 E0.02983
G1 X137.330 Y115.397 E0.17400
G1 X137.248 Y114.884 E0.01630
G1 X137.227 Y114.592 E0.00918
G1 X137.232 Y114.299 E0.00918
G1 X137.262 Y114.007 E0.00918
G1 X137.317 Y113.720 E0.00918
G1 X137.396 Y113.438 E0.00918
G1 X137.500 Y113.164 E0.00918
G1 X137.627 Y112.900 E0.00918
G1 X137.777 Y112.648 E0.00918
G1 X137.947 Y112.410 E0.00918
G1 X138.138 Y112.188 E0.00918
G1 X138.347 Y111.983 E0.00918
G1 X138.574 Y111.797 E0.00918
G1 X138.815 Y111.631 E0.00918
G1 X139.070 Y111.487 E0.00918
G1 X139.336 Y111.365 E0.00918
G1 X139.612 Y111.267 E0.00918
G1 X139.896 Y111.193 E0.00918
G1 X140.184 Y111.144 E0.00918
G1 X140.476 Y111.120 E0.00918
G1 X140.769 Y111.122 E0.00918
G1 X141.061 Y111.149 E0.00918
G1 X141.349 Y111.201 E0.00918
G1 X141.632 Y111.277 E0.00918
G1 X141.907 Y111.378 E0.00918
G1 X142.172 Y111.503 E0.00918
G1 X142.425 Y111.650 E0.00918
G1 X142.665 Y111.818 E0.00918
G1 X142.889 Y112.006 E0.00918
G1 X143.097 Y112.213 E0.00918
G1 X143.285 Y112.438 E0.00918
G1 X143.453 Y112.677 E0.00918
G1 X143.600 Y112.931 E0.00918
G1 X143.725 Y113.196 E0.00918
G1 X143.825 Y113.471 E0.00918
G1 X143.902 Y113.754 E0.00918
G1 X143.954 Y114.042 E0.00918
G1 X143.981 Y114.333 E0.00918
G1 X143.983 Y114.626 E0.00918
G1 X143.959 Y114.918 E0.00918
G1 X143.910 Y115.207 E0.00918
G1 X143.836 Y115.490 E0.00918
G1 X143.738 Y115.766 E0.00918
G1 X143.616 Y116.033 E0.00918
G1 X143.472 Y116.288 E0.00918
G1 X143.306 Y116.529 E0.00918
G1 X143.120 Y116.755 E0.00918
G1 X142.915 Y116.965 E0.00918
G1 X142.693 Y117.155 E0.00918
G1 X142.455 Y117.326 E0.00918
G1 X142.203 Y117.476 E0.00918
G1 X141.939 Y117.603 E0.00918
G1 X141.665 Y117.707 E0.00918
